; generated by Slic3r 1.3.0 on 2021-08-19 at 15:13:44

; Filament notes: 
; Affordable filament for everyday printing in premium quality manufactured in-house by Josef Prusa
; 
; Printer Config Notes: 
; Don't remove the following keywords! These keywords are used in the "compatible printer" condition of the print and filament profiles to link the particular print and filament profiles to this printer profile.
; PRINTER_VENDOR_PRUSA3D
; PRINTER_MODEL_MK3
; 
; external perimeters extrusion width = 0.45mm (2.19mm^3/s)
; perimeters extrusion width = 0.45mm (3.76mm^3/s)
; infill extrusion width = 0.45mm (12.53mm^3/s)
; solid infill extrusion width = 0.45mm (12.53mm^3/s)
; top infill extrusion width = 0.40mm (2.76mm^3/s)

M107
;M862.3 P "[printer_model]" ; printer model check
M862.1 P0.4 ; nozzle diameter check
M115 U3.10.0 ; tell printer latest fw version
G90 ; use absolute coordinates
M83 ; extruder relative mode
M104 S215 ; set extruder temp
M140 S60 ; set bed temp
M190 S60 ; wait for bed temp
M109 S215 ; wait for extruder temp
G28 W ; home all without mesh bed level
G80 ; mesh bed leveling
G1 Y-3.0 F1000.0 ; go outside print area
G92 E0.0
G1 X60.0 E9.0 F1000.0 ; intro line
G1 X100.0 E12.5 F1000.0 ; intro line
G92 E0.0
M221 S100{else}95{endif}

; Don't change E values below. Excessive value can damage the printer.
M907 E430 ; set extruder motor current{endif}
M907 E538 ; set extruder motor current{endif}
M900 K0.12{elsif printer_notes=~/.*PRINTER_MODEL_MINI.*/ and nozzle_diameter[0]==0.8}0.06{elsif printer_notes=~/.*PRINTER_MODEL_MINI.*/}0.2{elsif nozzle_diameter[0]==0.8}0.01{elsif nozzle_diameter[0]==0.6}0.04{else}0.05{endif} ; Filament gcode LA 1.5
;{elsif printer_notes=~/.*PRINTER_HAS_BOWDEN.*/}M900 K200{elsif nozzle_diameter[0]==0.6}M900 K18{elsif nozzle_diameter[0]==0.8};{else}M900 K30{endif} ; Filament gcode LA 1.0
G21 ; set units to millimeters
G90 ; use absolute coordinates
M83 ; use relative distances for extrusion
;BEFORE_LAYER_CHANGE 0.2
G92 E0.0

G1 E-0.80000 F2100.00000
G1 Z0.400 F10800.000
;AFTER_LAYER_CHANGE 0.2
G1 X92.265 Y89.693 F10800.000
G1 Z0.200 F10800.000
G1 E0.80000 F2100.00000
M201 X1000 Y1000
M204 P1000 T1000
G1 F1200
G1 X93.653 Y88.699 E0.05355
G1 X134.153 Y78.199 E1.31183
G1 X134.750 Y78.123 E0.01886
G1 X140.750 Y78.123 E0.18813
G1 X142.057 Y78.515 E0.04278
G1 X142.944 Y79.586 E0.04361
G1 X157.944 Y115.586 E1.22282
G1 X158.127 Y116.500 E0.02923
G1 X158.127 Y129.500 E0.40761
G1 X157.735 Y130.807 E0.04278
G1 X156.690 Y131.683 E0.04278
G1 X155.750 Y131.877 E0.03008
G1 X134.750 Y131.877 E0.65844
G1 X134.153 Y131.801 E0.01886
G1 X93.653 Y121.301 E1.31183
G1 X92.487 Y120.594 E0.04278
G1 X91.873 Y119.000 E0.05355
G1 X91.873 Y91.000 E0.87792
G1 X92.247 Y89.750 E0.04090
G1 F8640
G1 X93.653 Y88.699 E-0.40542
G1 F8640
G1 X95.140 Y88.314 E-0.35458
G1 E-0.04000 F2100.00000
G1 Z0.600 F10800.000
G1 X152.628 Y125.647 F10800.000
G1 Z0.200 F10800.000
G1 E0.80000 F2100.00000
G1 F1200
G1 X151.974 Y125.980 E0.02300
G1 X151.250 Y126.094 E0.02300
G1 X150.526 Y125.980 E0.02300
G1 X149.872 Y125.647 E0.02300
G1 X149.353 Y125.128 E0.02300
G1 X149.020 Y124.474 E0.02300
G1 X148.906 Y123.750 E0.02300
G1 X149.020 Y123.026 E0.02300
G1 X149.353 Y122.372 E0.02300
G1 X149.872 Y121.853 E0.02300
G1 X150.526 Y121.520 E0.02300
G1 X151.234 Y121.408 E0.02250
G1 X151.972 Y121.519 E0.02341
G1 X152.628 Y121.853 E0.02307
G1 X153.147 Y122.372 E0.02300
G1 X153.480 Y123.026 E0.02300
G1 X153.594 Y123.750 E0.02300
G1 X153.480 Y124.474 E0.02300
G1 X153.147 Y125.128 E0.02300
G1 X152.670 Y125.604 E0.02112
G1 X152.404 Y125.338 F10800.000
G1 F1200
G1 X151.857 Y125.617 E0.01925
G1 X151.250 Y125.713 E0.01925
G1 X150.643 Y125.617 E0.01925
G1 X150.096 Y125.338 E0.01925
G1 X149.662 Y124.904 E0.01926
G1 X149.383 Y124.357 E0.01925
G1 X149.287 Y123.750 E0.01925
G1 X149.383 Y123.143 E0.01925
G1 X149.662 Y122.596 E0.01925
G1 X150.096 Y122.162 E0.01926
G1 X150.643 Y121.883 E0.01925
G1 X151.236 Y121.790 E0.01880
G1 X151.856 Y121.883 E0.01966
G1 X152.404 Y122.162 E0.01928
G1 X152.838 Y122.596 E0.01926
G1 X153.117 Y123.143 E0.01925
G1 X153.213 Y123.750 E0.01925
G1 X153.117 Y124.357 E0.01925
G1 X152.838 Y124.904 E0.01925
G1 X152.446 Y125.295 E0.01737
G1 X152.445 Y125.736 F10800.000
G1 F8640
G1 X151.857 Y125.617 E-0.15500
G1 F8640
G1 X151.250 Y125.713 E-0.14179
G1 F8640
G1 X150.643 Y125.617 E-0.14179
G1 F8640
G1 X150.096 Y125.338 E-0.14176
G1 F8640
G1 X149.662 Y124.904 E-0.14180
G1 F8640
G1 X149.588 Y124.758 E-0.03785
G1 E-0.04000 F2100.00000
G1 Z0.600 F10800.000
G1 X141.594 Y123.750 F10800.000
G1 Z0.200 F10800.000
G1 E0.80000 F2100.00000
G1 F1200
G1 X141.480 Y124.474 E0.02300
G1 X141.147 Y125.128 E0.02300
G1 X140.628 Y125.647 E0.02300
G1 X139.974 Y125.980 E0.02300
G1 X139.250 Y126.094 E0.02300
G1 X138.526 Y125.980 E0.02300
G1 X137.872 Y125.647 E0.02300
G1 X137.353 Y125.128 E0.02300
G1 X137.020 Y124.474 E0.02300
G1 X136.906 Y123.750 E0.02300
G1 X137.020 Y123.026 E0.02300
G1 X137.353 Y122.372 E0.02300
G1 X137.872 Y121.853 E0.02300
G1 X138.526 Y121.520 E0.02300
G1 X139.234 Y121.408 E0.02250
G1 X139.972 Y121.519 E0.02341
G1 X140.628 Y121.853 E0.02307
G1 X141.147 Y122.372 E0.02300
G1 X141.480 Y123.026 E0.02300
G1 X141.585 Y123.691 E0.02112
G1 X141.213 Y123.750 F10800.000
G1 F1200
G1 X141.117 Y124.357 E0.01925
G1 X140.838 Y124.904 E0.01925
G1 X140.404 Y125.338 E0.01926
G1 X139.857 Y125.617 E0.01925
G1 X139.250 Y125.713 E0.01925
G1 X138.643 Y125.617 E0.01925
G1 X138.096 Y125.338 E0.01925
G1 X137.662 Y124.904 E0.01926
G1 X137.383 Y124.357 E0.01925
G1 X137.287 Y123.750 E0.01925
G1 X137.383 Y123.143 E0.01925
G1 X137.662 Y122.596 E0.01925
G1 X138.096 Y122.162 E0.01926
G1 X138.643 Y121.883 E0.01925
G1 X139.236 Y121.790 E0.01880
G1 X139.856 Y121.883 E0.01966
G1 X140.404 Y122.162 E0.01928
G1 X140.838 Y122.596 E0.01926
G1 X141.117 Y123.143 E0.01925
G1 X141.203 Y123.691 E0.01737
G1 X141.559 Y123.950 F10800.000
G1 F8640
G1 X141.117 Y124.357 E-0.15503
G1 F8640
G1 X140.838 Y124.904 E-0.14176
G1 F8640
G1 X140.404 Y125.338 E-0.14180
G1 F8640
G1 X139.857 Y125.617 E-0.14176
G1 F8640
G1 X139.250 Y125.713 E-0.14179
G1 F8640
G1 X139.088 Y125.687 E-0.03785
G1 E-0.04000 F2100.00000
G1 Z0.600 F10800.000
G1 X138.382 Y107.694 F10800.000
G1 Z0.200 F10800.000
G1 E0.80000 F2100.00000
G1 F1200
G1 X137.750 Y107.794 E0.02006
G1 X137.118 Y107.694 E0.02006
G1 X136.548 Y107.404 E0.02005
G1 X136.096 Y106.952 E0.02006
G1 X135.806 Y106.382 E0.02005
G1 X135.706 Y105.750 E0.02006
G1 X135.806 Y105.118 E0.02006
G1 X136.096 Y104.548 E0.02005
G1 X136.548 Y104.096 E0.02006
G1 X137.118 Y103.806 E0.02005
G1 X137.737 Y103.708 E0.01963
G1 X138.380 Y103.805 E0.02039
G1 X138.952 Y104.096 E0.02012
G1 X139.404 Y104.548 E0.02006
G1 X139.694 Y105.118 E0.02005
G1 X139.794 Y105.750 E0.02006
G1 X139.694 Y106.382 E0.02006
G1 X139.404 Y106.952 E0.02005
G1 X138.952 Y107.404 E0.02006
G1 X138.435 Y107.667 E0.01817
G1 X138.264 Y107.331 F10800.000
G1 F1200
G1 X137.750 Y107.413 E0.01631
G1 X137.236 Y107.331 E0.01631
G1 X136.773 Y107.095 E0.01631
G1 X136.405 Y106.727 E0.01631
G1 X136.169 Y106.264 E0.01631
G1 X136.087 Y105.750 E0.01631
G1 X136.169 Y105.236 E0.01631
G1 X136.405 Y104.773 E0.01631
G1 X136.773 Y104.405 E0.01631
G1 X137.236 Y104.169 E0.01631
G1 X137.738 Y104.089 E0.01593
G1 X138.263 Y104.168 E0.01665
G1 X138.727 Y104.405 E0.01633
G1 X139.095 Y104.773 E0.01631
G1 X139.331 Y105.236 E0.01631
G1 X139.413 Y105.750 E0.01631
G1 X139.331 Y106.264 E0.01631
G1 X139.095 Y106.727 E0.01631
G1 X138.727 Y107.095 E0.01631
G1 X138.317 Y107.304 E0.01443
G1 X138.181 Y107.722 F10800.000
G1 F8640
G1 X137.750 Y107.413 E-0.13336
G1 F8640
G1 X137.236 Y107.331 E-0.12012
G1 F8640
G1 X136.773 Y107.095 E-0.12010
G1 F8640
G1 X136.405 Y106.727 E-0.12012
G1 F8640
G1 X136.169 Y106.264 E-0.12010
G1 F8640
G1 X136.087 Y105.750 E-0.12012
G1 F8640
G1 X136.105 Y105.638 E-0.02608
G1 E-0.04000 F2100.00000
G1 Z0.600 F10800.000
G1 X137.750 Y87.794 F10800.000
G1 Z0.200 F10800.000
G1 E0.80000 F2100.00000
G1 F1200
G1 X137.118 Y87.694 E0.02006
G1 X136.548 Y87.404 E0.02005
G1 X136.096 Y86.952 E0.02006
G1 X135.806 Y86.382 E0.02005
G1 X135.706 Y85.750 E0.02006
G1 X135.806 Y85.118 E0.02006
G1 X136.096 Y84.548 E0.02005
G1 X136.548 Y84.096 E0.02006
G1 X137.118 Y83.806 E0.02005
G1 X137.737 Y83.708 E0.01963
G1 X138.380 Y83.805 E0.02039
G1 X138.952 Y84.096 E0.02012
G1 X139.404 Y84.548 E0.02006
G1 X139.694 Y85.118 E0.02005
G1 X139.794 Y85.750 E0.02006
G1 X139.694 Y86.382 E0.02006
G1 X139.404 Y86.952 E0.02005
G1 X138.952 Y87.404 E0.02006
G1 X138.382 Y87.694 E0.02005
G1 X137.809 Y87.785 E0.01817
G1 X137.750 Y87.413 F10800.000
G1 F1200
G1 X137.236 Y87.331 E0.01631
G1 X136.773 Y87.095 E0.01631
G1 X136.405 Y86.727 E0.01631
G1 X136.169 Y86.264 E0.01631
G1 X136.087 Y85.750 E0.01631
G1 X136.169 Y85.236 E0.01631
G1 X136.405 Y84.773 E0.01631
G1 X136.773 Y84.405 E0.01631
G1 X137.236 Y84.169 E0.01631
G1 X137.738 Y84.089 E0.01593
G1 X138.263 Y84.168 E0.01665
G1 X138.727 Y84.405 E0.01633
G1 X139.095 Y84.773 E0.01631
G1 X139.331 Y85.236 E0.01631
G1 X139.413 Y85.750 E0.01631
G1 X139.331 Y86.264 E0.01631
G1 X139.095 Y86.727 E0.01631
G1 X138.727 Y87.095 E0.01631
G1 X138.264 Y87.331 E0.01631
G1 X137.809 Y87.403 E0.01443
G1 X137.550 Y87.759 F10800.000
G1 F8640
G1 X137.236 Y87.331 E-0.13336
G1 F8640
G1 X136.773 Y87.095 E-0.12010
G1 F8640
G1 X136.405 Y86.727 E-0.12012
G1 F8640
G1 X136.169 Y86.264 E-0.12010
G1 F8640
G1 X136.087 Y85.750 E-0.12012
G1 F8640
G1 X136.169 Y85.236 E-0.12012
G1 F8640
G1 X136.220 Y85.136 E-0.02608
G1 E-0.04000 F2100.00000
G1 Z0.600 F10800.000
G1 X140.163 Y102.087 F10800.000
G1 Z0.200 F10800.000
G1 E0.80000 F2100.00000
G1 F1200
G1 X144.163 Y102.087 E0.12542
G1 X144.163 Y117.087 E0.47031
G1 X155.163 Y117.087 E0.34490
G1 X155.163 Y128.913 E0.37079
G1 X135.337 Y128.913 E0.62163
G1 X135.337 Y81.087 E1.49955
G1 X140.163 Y81.087 E0.15131
G1 X140.163 Y102.027 E0.65656
G1 X140.540 Y101.710 F10800.000
G1 F1200
G1 X144.540 Y101.710 E0.12542
G1 X144.540 Y116.710 E0.47031
G1 X155.540 Y116.710 E0.34490
G1 X155.540 Y129.290 E0.39444
G1 X134.960 Y129.290 E0.64527
G1 X134.960 Y80.710 E1.52319
G1 X140.540 Y80.710 E0.17496
G1 X140.540 Y101.650 E0.65656
G1 X140.575 Y102.109 F10800.000
G1 F8640
G1 X143.831 Y101.699 E-0.76000
G1 E-0.04000 F2100.00000
G1 Z0.600 F10800.000
G1 X135.640 Y104.643 F10800.000
G1 Z0.200 F10800.000
G1 E0.80000 F2100.00000
G1 F1200
G1 X135.575 Y105.051 E0.00211
G1 X135.549 Y105.386 E0.00171
G1 X135.549 Y106.114 F10800.000
G1 F1200
G1 X135.575 Y106.449 E0.00171
G1 X135.640 Y106.857 E0.00211
G1 X135.995 Y107.251 F10800.000
G1 F1200
G1 X135.647 Y107.599 E0.01545
G1 X135.647 Y108.133 E0.01679
G1 X136.262 Y107.518 E0.02732
G1 X136.391 Y107.646 E0.00570
G1 X136.575 Y107.740 E0.00649
G1 X135.647 Y108.667 E0.04120
G1 X135.647 Y109.202 E0.01679
G1 X136.929 Y107.920 E0.05693
G1 X137.067 Y107.991 E0.00487
G1 X137.348 Y108.035 E0.00894
G1 X135.647 Y109.736 E0.07556
G1 X135.647 Y110.270 E0.01679
G1 X137.809 Y108.108 E0.09606
G1 X138.442 Y108.010 E0.02010
G1 X135.647 Y110.805 E0.12414
G1 F8640
G1 X137.975 Y108.477 E-0.76000
G1 E-0.04000 F2100.00000
G1 Z0.600 F10800.000
G1 X135.647 Y123.629 F10800.000
G1 Z0.200 F10800.000
G1 E0.80000 F2100.00000
G1 F1200
G1 X135.647 Y124.163 E0.01679
G1 X136.678 Y123.133 E0.04577
G1 X136.590 Y123.683 E0.01751
G1 X136.600 Y123.745 E0.00195
G1 X135.647 Y124.697 E0.04233
G1 X135.647 Y125.232 E0.01679
G1 X136.673 Y124.206 E0.04558
G1 X136.724 Y124.526 E0.01017
G1 X136.779 Y124.634 E0.00383
G1 X135.647 Y125.766 E0.05029
G1 X135.647 Y126.300 E0.01679
G1 X136.960 Y124.988 E0.05830
G1 X137.111 Y125.286 E0.01048
G1 X137.154 Y125.328 E0.00190
G1 X135.647 Y126.835 E0.06693
G1 X135.647 Y127.369 E0.01679
G1 X137.421 Y125.596 E0.07880
G1 X137.688 Y125.863 E0.01187
G1 X135.647 Y127.903 E0.09067
G1 X135.647 Y128.438 E0.01679
G1 X138.034 Y126.052 E0.10602
G1 X138.388 Y126.232 E0.01248
G1 X136.017 Y128.603 E0.10533
G1 X136.551 Y128.603 E0.01679
G1 X138.823 Y126.331 E0.10091
G1 X139.284 Y126.404 E0.01467
G1 X137.086 Y128.603 E0.09767
G1 X137.620 Y128.603 E0.01679
G1 X139.907 Y126.316 E0.10159
G1 X140.159 Y126.276 E0.00803
G1 X140.815 Y125.942 E0.02314
G1 X138.154 Y128.603 E0.11822
G1 F8640
G1 X140.482 Y126.275 E-0.76000
G1 E-0.04000 F2100.00000
G1 Z0.600 F10800.000
G1 X142.429 Y128.603 F10800.000
G1 Z0.200 F10800.000
G1 E0.80000 F2100.00000
G1 F1200
G1 X142.964 Y128.603 E0.01679
G1 X148.724 Y122.842 E0.25592
G1 X148.623 Y123.477 E0.02019
G1 X143.498 Y128.603 E0.22772
G1 X144.032 Y128.603 E0.01679
G1 X148.640 Y123.995 E0.20472
G1 X148.713 Y124.456 E0.01467
G1 X144.567 Y128.603 E0.18422
G1 X145.101 Y128.603 E0.01679
G1 X148.877 Y124.826 E0.16778
G1 X149.057 Y125.180 E0.01248
G1 X145.635 Y128.603 E0.15205
G1 X146.170 Y128.603 E0.01679
G1 X149.299 Y125.473 E0.13903
G1 X149.566 Y125.741 E0.01187
G1 X146.704 Y128.603 E0.12716
G1 X147.238 Y128.603 E0.01679
G1 X149.872 Y125.969 E0.11701
G1 X150.226 Y126.149 E0.01248
G1 X147.773 Y128.603 E0.10899
G1 X148.307 Y128.603 E0.01679
G1 X150.612 Y126.298 E0.10240
G1 X151.073 Y126.371 E0.01467
G1 X148.841 Y128.603 E0.09915
G1 X149.376 Y128.603 E0.01679
G1 X151.616 Y126.362 E0.09955
G1 X152.159 Y126.276 E0.01727
G1 X152.317 Y126.196 E0.00556
G1 X149.910 Y128.603 E0.10694
G1 F8640
G1 X152.237 Y126.275 E-0.76000
G1 E-0.04000 F2100.00000
G1 Z0.600 F10800.000
G1 X154.719 Y128.603 F10800.000
G1 Z0.200 F10800.000
G1 E0.80000 F2100.00000
G1 F1200
G1 X154.853 Y128.469 E0.00593
G1 X154.853 Y127.935 E0.01679
G1 X154.185 Y128.603 E0.02967
G1 X153.650 Y128.603 E0.01679
G1 X154.853 Y127.400 E0.05341
G1 X154.853 Y126.866 E0.01679
G1 X153.116 Y128.603 E0.07715
G1 X152.582 Y128.603 E0.01679
G1 X154.853 Y126.332 E0.10089
G1 X154.853 Y125.797 E0.01679
G1 X152.047 Y128.603 E0.12464
G1 X151.513 Y128.603 E0.01679
G1 X154.853 Y125.263 E0.14838
G1 X154.853 Y124.729 E0.01679
G1 X150.979 Y128.603 E0.17212
G1 X150.444 Y128.603 E0.01679
G1 X154.853 Y124.194 E0.19586
G1 X154.853 Y123.660 E0.01679
G1 X153.696 Y124.817 E0.05139
G1 X153.776 Y124.659 E0.00556
G1 X153.862 Y124.116 E0.01727
G1 X154.853 Y123.126 E0.04401
G1 X154.853 Y122.591 E0.01679
G1 X153.871 Y123.573 E0.04361
G1 X153.798 Y123.112 E0.01467
G1 X154.853 Y122.057 E0.04686
G1 X154.853 Y121.523 E0.01679
G1 X153.649 Y122.726 E0.05345
G1 X153.469 Y122.372 E0.01248
G1 X154.853 Y120.988 E0.06147
G1 X154.853 Y120.454 E0.01679
G1 X153.241 Y122.066 E0.07162
G1 X152.973 Y121.799 E0.01187
G1 X154.853 Y119.920 E0.08349
G1 X154.853 Y119.385 E0.01679
G1 X152.680 Y121.557 E0.09651
G1 X152.326 Y121.377 E0.01248
G1 X154.853 Y118.851 E0.11224
G1 X154.853 Y118.317 E0.01679
G1 X151.957 Y121.212 E0.12866
G1 X151.492 Y121.142 E0.01475
G1 X154.853 Y117.782 E0.14929
G1 X154.853 Y117.397 E0.01209
G1 X154.703 Y117.397 E0.00470
G1 X150.977 Y121.123 E0.16553
G1 X150.342 Y121.224 E0.02020
G1 X154.169 Y117.397 E0.17000
G1 X153.634 Y117.397 E0.01679
G1 X142.429 Y128.603 E0.49785
G1 X141.895 Y128.603 E0.01679
G1 X153.100 Y117.397 E0.49785
G1 X152.566 Y117.397 E0.01679
G1 X141.361 Y128.603 E0.49785
G1 X140.826 Y128.603 E0.01679
G1 X152.031 Y117.397 E0.49785
G1 X151.497 Y117.397 E0.01679
G1 X140.292 Y128.603 E0.49785
G1 X139.758 Y128.603 E0.01679
G1 X150.963 Y117.397 E0.49785
G1 X150.428 Y117.397 E0.01679
G1 X139.223 Y128.603 E0.49785
G1 X138.689 Y128.603 E0.01679
G1 X149.894 Y117.397 E0.49785
G1 X149.360 Y117.397 E0.01679
G1 X141.442 Y125.315 E0.35179
G1 X141.776 Y124.659 E0.02314
G1 X141.816 Y124.407 E0.00803
G1 X148.825 Y117.397 E0.31142
G1 X148.291 Y117.397 E0.01679
G1 X141.904 Y123.784 E0.28376
G1 X141.831 Y123.323 E0.01467
G1 X147.757 Y117.397 E0.26326
G1 X147.222 Y117.397 E0.01679
G1 X141.732 Y122.888 E0.24393
G1 X141.552 Y122.534 E0.01248
G1 X146.688 Y117.397 E0.22821
G1 X146.154 Y117.397 E0.01679
G1 X141.363 Y122.188 E0.21285
G1 X141.096 Y121.921 E0.01187
G1 X145.619 Y117.397 E0.20098
G1 X145.085 Y117.397 E0.01679
G1 X140.828 Y121.654 E0.18911
G1 X140.786 Y121.611 E0.00190
G1 X140.488 Y121.460 E0.01048
G1 X144.550 Y117.397 E0.18048
G1 X144.016 Y117.397 E0.01679
G1 X140.134 Y121.279 E0.17247
G1 X140.022 Y121.222 E0.00394
G1 X139.705 Y121.174 E0.01009
G1 X143.853 Y117.027 E0.18428
