; generated by PrusaSlicer 2.4.2+linux-x64-GTK2 on 2022-05-29 at 04:17:41 UTC

; 

; external perimeters extrusion width = 0.45mm
; perimeters extrusion width = 0.45mm
; infill extrusion width = 0.45mm
; solid infill extrusion width = 0.45mm
; top infill extrusion width = 0.40mm
; first layer extrusion width = 0.42mm

M201 X9000 Y9000 Z500 E10000 ; sets maximum accelerations, mm/sec^2
M203 X500 Y500 Z12 E120 ; sets maximum feedrates, mm / sec
M204 P1500 R1500 T1500 ; sets acceleration (P, T) and retract acceleration (R), mm/sec^2
M205 X10.00 Y10.00 Z0.20 E2.50 ; sets the jerk limits, mm/sec
M205 S0 T0 ; sets the minimum extruding and travel feed rate, mm/sec
M107
M190 S60 ; set bed temperature and wait for it to be reached
M104 S215 ; set temperature
;TYPE:Custom
G1 X10 Y4
G1 Z0
G1 X20 F1000
G92 E0
G1 F200 E3
G92 E0
M109 S215 ; set temperature and wait for it to be reached
G21 ; set units to millimeters
G90 ; use absolute coordinates
M82 ; use absolute distances for extrusion
G92 E0
; Filament gcode
M107
;LAYER_CHANGE
;Z:0.35
;HEIGHT:0.35
G1 Z.35 F3600
G1 E-2 F2400
G92 E0
G1 X134.193 Y96.359 F3600
G1 E2 F2400
;TYPE:Skirt/Brim
;WIDTH:0.42
G1 F1800
G1 X135.935 Y94.944 E2.11262
G1 X139 Y94.155 E2.27146
G1 X161 Y94.155 E3.37555
G1 X163.209 Y94.552 E3.48817
G1 X165.141 Y95.693 E3.60079
G1 X166.556 Y97.435 E3.71341
G1 X167.345 Y100.5 E3.87224
G1 X167.345 Y179.5 E7.83693
G1 X166.948 Y181.709 E7.94955
G1 X165.807 Y183.641 E8.06217
G1 X164.065 Y185.056 E8.1748
G1 X161 Y185.845 E8.33363
G1 X139 Y185.845 E9.43772
G1 X136.791 Y185.448 E9.55034
G1 X134.859 Y184.307 E9.66296
G1 X133.444 Y182.565 E9.77558
G1 X132.655 Y179.5 E9.93442
G1 X132.655 Y100.5 E13.89911
G1 X133.052 Y98.291 E14.01173
G1 X134.162 Y96.411 E14.12134
G1 E12.12134 F2400
G92 E0
G1 X140.1 Y101.6 F3600
G1 E2 F2400
;TYPE:Perimeter
G1 F1800
G1 X159.9 Y101.6 E2.9937
G1 X159.9 Y178.4 E6.848
G1 X140.1 Y178.4 E7.84171
G1 X140.1 Y101.66 E11.693
G1 X139.755 Y101.255 F3600
G1 F1800
G1 X160.245 Y101.255 E12.72132
G1 X160.245 Y178.745 E16.61024
G1 X139.755 Y178.745 E17.63856
G1 X139.755 Y101.315 E21.52446
G1 X139.41 Y100.91 F3600
;TYPE:External perimeter
G1 F1800
G1 X160.59 Y100.91 E22.5874
G1 X160.59 Y179.09 E26.51094
G1 X139.41 Y179.09 E27.57387
G1 X139.41 Y100.97 E31.4944
G1 X139.773 Y101.079 F3600
G1 X140.358 Y102.069
;TYPE:Solid infill
G1 F1800
G1 X150 Y111.711 E32.17869
G1 X159.642 Y102.069 E32.86299
G1 X159.365 Y101.858 F3600
G1 F1800
G1 X150 Y111.223 E33.52762
G1 X140.635 Y101.858 E34.19226
G1 X141.123 Y101.858 F3600
G1 F1800
G1 X150 Y110.735 E34.82227
G1 X158.877 Y101.858 E35.45229
G1 X159.642 Y102.557 F3600
G1 F1800
G1 X150 Y112.198 E36.13659
G1 X140.358 Y102.557 E36.82088
G1 X140.358 Y103.045 F3600
G1 F1800
G1 X150 Y112.686 E37.50518
G1 X159.642 Y103.045 E38.18948
G1 X159.642 Y103.532 F3600
G1 F1800
G1 X150 Y113.174 E38.87377
G1 X140.358 Y103.532 E39.55807
G1 X140.358 Y104.02 F3600
G1 F1800
G1 X150 Y113.662 E40.24237
G1 X159.642 Y104.02 E40.92666
G1 X159.642 Y104.508 F3600
G1 F1800
G1 X150 Y114.149 E41.61096
G1 X140.358 Y104.508 E42.29526
G1 X140.358 Y104.996 F3600
G1 F1800
G1 X150 Y114.637 E42.97955
G1 X159.642 Y104.996 E43.66385
G1 X159.642 Y105.483 F3600
G1 F1800
G1 X150 Y115.125 E44.34815
G1 X140.358 Y105.483 E45.03245
G1 X140.358 Y105.971 F3600
G1 F1800
G1 X150 Y115.613 E45.71674
G1 X159.642 Y105.971 E46.40104
G1 X159.642 Y106.459 F3600
G1 F1800
G1 X150 Y116.1 E47.08534
G1 X140.358 Y106.459 E47.76963
G1 X140.358 Y106.947 F3600
G1 F1800
G1 X150 Y116.588 E48.45393
G1 X159.642 Y106.947 E49.13823
G1 X159.642 Y107.434 F3600
G1 F1800
G1 X150 Y117.076 E49.82252
G1 X140.358 Y107.434 E50.50682
G1 X140.358 Y107.922 F3600
G1 F1800
G1 X150 Y117.564 E51.19112
G1 X159.642 Y107.922 E51.87541
G1 X159.642 Y108.41 F3600
G1 F1800
G1 X150 Y118.051 E52.55971
G1 X140.358 Y108.41 E53.24401
G1 X140.358 Y108.898 F3600
G1 F1800
G1 X150 Y118.539 E53.9283
G1 X159.642 Y108.898 E54.6126
G1 X159.642 Y110.361 F3600
G1 F1800
G1 X150 Y120.002 E55.2969
G1 X140.358 Y110.361 E55.9812
G1 X140.358 Y110.849 F3600
G1 F1800
G1 X150 Y120.49 E56.66549
G1 X159.642 Y110.849 E57.34979
G1 X159.642 Y111.336 F3600
G1 F1800
G1 X150 Y120.978 E58.03409
G1 X140.358 Y111.336 E58.71838
G1 X140.358 Y111.824 F3600
G1 F1800
G1 X150 Y121.466 E59.40268
G1 X159.642 Y111.824 E60.08698
G1 X159.642 Y112.312 F3600
G1 F1800
G1 X150 Y121.953 E60.77127
G1 X140.358 Y112.312 E61.45557
G1 X140.358 Y112.8 F3600
G1 F1800
G1 X150 Y122.441 E62.13987
G1 X159.642 Y112.8 E62.82416
G1 X159.642 Y113.287 F3600
G1 F1800
G1 X150 Y122.929 E63.50846
G1 X140.358 Y113.287 E64.19276
G1 X140.358 Y113.775 F3600
G1 F1800
G1 X150 Y123.417 E64.87705
G1 X159.642 Y113.775 E65.56135
G1 X159.642 Y115.238 F3600
G1 F1800
G1 X150 Y124.88 E66.24565
G1 X140.358 Y115.238 E66.92995
G1 X140.358 Y115.726 F3600
G1 F1800
G1 X150 Y125.368 E67.61424
G1 X159.642 Y115.726 E68.29854
G1 X159.642 Y116.214 F3600
G1 F1800
G1 X150 Y125.855 E68.98284
G1 X140.358 Y116.214 E69.66713
G1 X140.358 Y116.702 F3600
G1 F1800
G1 X150 Y126.343 E70.35143
G1 X159.642 Y116.702 E71.03573
G1 E69.03573 F2400
G92 E0
G1 X149.903 Y101.858 F3600
G1 E2 F2400
G1 F1800
G1 X150 Y101.956 E2.00691
G1 X150.097 Y101.858 E2.01382
G1 X150.585 Y101.858 F3600
G1 F1800
G1 X150 Y102.444 E2.05534
G1 X149.415 Y101.858 E2.09686
G1 X148.927 Y101.858 F3600
G1 F1800
G1 X150 Y102.931 E2.17301
G1 X151.073 Y101.858 E2.24915
G1 X152.536 Y101.858 F3600
G1 F1800
G1 X150 Y104.394 E2.42914
G1 X147.464 Y101.858 E2.60913
G1 X147.952 Y101.858 F3600
G1 F1800
G1 X150 Y103.907 E2.75451
G1 X152.048 Y101.858 E2.89989
G1 X151.561 Y101.858 F3600
G1 F1800
G1 X150 Y103.419 E3.01065
G1 X148.439 Y101.858 E3.12141
G1 X146.976 Y101.858 F3600
G1 F1800
G1 X150 Y104.882 E3.33602
G1 X153.024 Y101.858 E3.55063
G1 X153.512 Y101.858 F3600
G1 F1800
G1 X150 Y105.37 E3.79985
G1 X146.488 Y101.858 E4.04908
G1 X145.025 Y101.858 F3600
G1 F1800
G1 X150 Y106.833 E4.40216
G1 X154.975 Y101.858 E4.75524
G1 X154.487 Y101.858 F3600
G1 F1800
G1 X150 Y106.345 E5.0737
G1 X145.513 Y101.858 E5.39216
G1 X146.001 Y101.858 F3600
G1 F1800
G1 X150 Y105.858 E5.67601
G1 X153.999 Y101.858 E5.95985
G1 X155.463 Y101.858 F3600
G1 F1800
G1 X150 Y107.321 E6.34755
G1 X144.537 Y101.858 E6.73524
G1 X144.05 Y101.858 F3600
G1 F1800
G1 X150 Y107.809 E7.15756
G1 X155.95 Y101.858 E7.57987
G1 X157.414 Y101.858 F3600
G1 F1800
G1 X150 Y109.272 E8.10604
G1 X142.586 Y101.858 E8.6322
G1 X143.074 Y101.858 F3600
G1 F1800
G1 X150 Y108.784 E9.12375
G1 X156.926 Y101.858 E9.6153
G1 X156.438 Y101.858 F3600
G1 F1800
G1 X150 Y108.296 E10.07223
G1 X143.562 Y101.858 E10.52916
G1 X142.099 Y101.858 F3600
G1 F1800
G1 X150 Y109.76 E11.08994
G1 X157.901 Y101.858 E11.65072
G1 X158.389 Y101.858 F3600
G1 F1800
G1 X150 Y110.247 E12.24612
G1 X141.611 Y101.858 E12.84152
G1 E10.84152 F2400
G92 E0
G1 X140.358 Y109.385 F3600
G1 E2 F2400
G1 F1800
G1 X150 Y119.027 E2.6843
G1 X159.642 Y109.385 E3.36859
G1 X159.642 Y109.873 F3600
G1 F1800
G1 X150 Y119.515 E4.05289
G1 X140.358 Y109.873 E4.73719
G1 E2.73719 F2400
G92 E0
G1 X140.358 Y114.263 F3600
G1 E2 F2400
G1 F1800
G1 X150 Y123.904 E2.6843
G1 X159.642 Y114.263 E3.36859
G1 X159.642 Y114.751 F3600
G1 F1800
G1 X150 Y124.392 E4.05289
G1 X140.358 Y114.751 E4.73719
G1 E2.73719 F2400
G92 E0
G1 X140.358 Y130.688 F3600
G1 E2 F2400
G1 F1800
G1 X140.688 Y130.688 E2.01654
G1 X140.688 Y117.519 E2.67745
G1 X150 Y126.831 E3.33835
G1 X159.312 Y117.519 E3.99926
G1 X159.312 Y130.688 E4.66017
G1 X159.642 Y130.688 E4.6767
G1 X159.642 Y131.033 F3600
G1 F1800
G1 X158.967 Y131.033 E4.71055
G1 X158.967 Y118.351 E5.34698
G1 X150 Y127.319 E5.98341
G1 X141.033 Y118.351 E6.61984
G1 X141.033 Y131.033 E7.25627
G1 X140.358 Y131.033 E7.29011
G1 X140.358 Y131.378 F3600
G1 F1800
G1 X141.378 Y131.378 E7.34127
G1 X141.378 Y119.184 E7.95322
G1 X150 Y127.806 E8.56517
G1 X158.622 Y119.184 E9.17712
G1 X158.622 Y131.378 E9.78907
G1 X159.642 Y131.378 E9.84023
G1 X159.642 Y131.723 F3600
G1 F1800
G1 X158.277 Y131.723 E9.90869
G1 X158.277 Y120.017 E10.49617
G1 X150 Y128.294 E11.08364
G1 X141.723 Y120.017 E11.67111
G1 X141.723 Y131.723 E12.25858
G1 X140.358 Y131.723 E12.32705
G1 X140.358 Y132.068 F3600
G1 F1800
G1 X142.068 Y132.068 E12.41282
G1 X142.068 Y120.849 E12.97582
G1 X150 Y128.782 E13.53881
G1 X157.932 Y120.849 E14.10181
G1 X157.932 Y132.068 E14.6648
G1 X159.642 Y132.068 E14.75057
G1 X159.642 Y132.412 F3600
G1 F1800
G1 X157.588 Y132.412 E14.85366
G1 X157.588 Y121.682 E15.39217
G1 X150 Y129.27 E15.93069
G1 X142.412 Y121.682 E16.46921
G1 X142.412 Y132.412 E17.00772
G1 X140.358 Y132.412 E17.1108
G1 X140.358 Y132.757 F3600
G1 F1800
G1 X142.757 Y132.757 E17.2312
G1 X142.757 Y122.515 E17.74523
G1 X150 Y129.757 E18.25927
G1 X157.243 Y122.515 E18.77331
G1 X157.243 Y132.757 E19.28735
G1 X159.642 Y132.757 E19.40774
G1 X159.642 Y133.102 F3600
G1 F1800
G1 X156.898 Y133.102 E19.54544
G1 X156.898 Y123.347 E20.035
G1 X150 Y130.245 E20.52456
G1 X143.102 Y123.347 E21.01412
G1 X143.102 Y133.102 E21.50368
G1 X140.358 Y133.102 E21.64138
G1 X140.358 Y133.447 F3600
G1 F1800
G1 X143.447 Y133.447 E21.79639
G1 X143.447 Y124.18 E22.26147
G1 X150 Y130.733 E22.72655
G1 X156.553 Y124.18 E23.19163
G1 X156.553 Y133.447 E23.65672
G1 X159.642 Y133.447 E23.81172
G1 X159.642 Y133.792 F3600
G1 F1800
G1 X156.208 Y133.792 E23.98404
G1 X156.208 Y125.013 E24.42465
G1 X150 Y131.221 E24.86525
G1 X143.792 Y125.013 E25.30585
G1 X143.792 Y133.792 E25.74646
G1 X140.358 Y133.792 E25.91878
G1 X140.358 Y134.137 F3600
G1 F1800
G1 X144.137 Y134.137 E26.1084
G1 X144.137 Y125.845 E26.52453
G1 X150 Y131.708 E26.94065
G1 X155.863 Y125.845 E27.35678
G1 X155.863 Y134.137 E27.77291
G1 X159.642 Y134.137 E27.96253
G1 X159.642 Y134.482 F3600
G1 F1800
G1 X155.518 Y134.482 E28.16946
G1 X155.518 Y126.678 E28.56111
G1 X150 Y132.196 E28.95276
G1 X144.482 Y126.678 E29.34441
G1 X144.482 Y134.482 E29.73606
G1 X140.358 Y134.482 E29.94299
G1 X140.358 Y134.827 F3600
G1 F1800
G1 X144.827 Y134.827 E30.16723
G1 X144.827 Y127.51 E30.5344
G1 X150 Y132.684 E30.90157
G1 X155.173 Y127.51 E31.26874
G1 X155.173 Y134.827 E31.63591
G1 X159.642 Y134.827 E31.86016
G1 X159.642 Y135.172 F3600
G1 F1800
G1 X154.828 Y135.172 E32.10171
G1 X154.828 Y128.343 E32.4444
G1 X150 Y133.172 E32.78709
G1 X145.172 Y128.343 E33.12978
G1 X145.172 Y135.172 E33.47248
G1 X140.358 Y135.172 E33.71403
G1 X140.358 Y135.516 F3600
G1 F1800
G1 X145.516 Y135.516 E33.97289
G1 X145.516 Y129.176 E34.2911
G1 X150 Y133.659 E34.60932
G1 X154.484 Y129.176 E34.92753
G1 X154.484 Y135.516 E35.24574
G1 X159.642 Y135.516 E35.5046
G1 X159.642 Y135.861 F3600
G1 F1800
G1 X154.139 Y135.861 E35.78077
G1 X154.139 Y130.008 E36.07451
G1 X150 Y134.147 E36.36824
G1 X145.861 Y130.008 E36.66198
G1 X145.861 Y135.861 E36.95572
G1 X140.358 Y135.861 E37.23188
G1 X140.358 Y136.211 F3600
G1 F1800
G1 X144.147 Y140 E37.50078
G1 X140.358 Y143.789 E37.76967
G1 X140.358 Y143.301 F3600
G1 F1800
G1 X143.659 Y140 E38.00394
G1 X140.358 Y136.699 E38.23822
G1 X140.358 Y138.162 F3600
G1 F1800
G1 X142.196 Y140 E38.36864
G1 X140.358 Y141.838 E38.49906
G1 X140.358 Y141.35 F3600
G1 F1800
G1 X141.708 Y140 E38.59487
G1 X140.358 Y138.65 E38.69067
G1 X140.358 Y139.138 F3600
G1 F1800
G1 X141.221 Y140 E38.75186
G1 X140.358 Y140.862 E38.81305
G1 X140.358 Y140.374 F3600
G1 F1800
G1 X140.733 Y140 E38.83962
G1 X140.358 Y139.626 E38.86619
G1 E36.86619 F2400
G92 E0
G1 X140.358 Y142.325 F3600
G1 E2 F2400
G1 F1800
G1 X142.684 Y140 E2.16504
G1 X140.358 Y137.675 E2.33008
G1 X140.358 Y137.187 F3600
G1 F1800
G1 X143.172 Y140 E2.52974
G1 X140.358 Y142.813 E2.72939
G1 E.72939 F2400
G92 E0
G1 X140.358 Y144.828 F3600
G1 E2 F2400
G1 F1800
G1 X145.172 Y144.828 E2.24155
G1 X145.172 Y151.169 E2.55977
G1 X150 Y146.341 E2.90246
G1 X154.484 Y150.824 E3.22067
G1 X154.484 Y144.484 E3.53889
G1 X159.642 Y144.484 E3.79775
G1 X159.642 Y144.139 F3600
G1 F1800
G1 X154.139 Y144.139 E4.07391
G1 X154.139 Y149.992 E4.36765
G1 X150 Y145.853 E4.66139
G1 X145.516 Y150.337 E4.9796
G1 X145.516 Y144.484 E5.27334
G1 X140.358 Y144.484 E5.5322
G1 X140.358 Y144.139 F3600
G1 F1800
G1 X145.861 Y144.139 E5.80836
G1 X145.861 Y149.504 E6.07762
G1 X150 Y145.365 E6.37136
G1 X153.794 Y149.159 E6.64062
G1 X153.794 Y143.794 E6.90987
G1 X159.159 Y143.794 E7.17913
G1 X155.365 Y140 E7.44839
G1 X159.159 Y136.206 E7.71765
G1 X153.794 Y136.206 E7.98691
G1 X153.794 Y130.841 E8.25617
G1 X150 Y134.635 E8.52542
G1 X146.206 Y130.841 E8.79468
G1 X146.206 Y136.206 E9.06394
G1 X140.841 Y136.206 E9.3332
G1 X144.635 Y140 E9.60246
G1 X140.841 Y143.794 E9.87171
G1 X146.206 Y143.794 E10.14097
G1 X146.206 Y148.671 E10.38575
G1 X150 Y144.877 E10.65501
G1 X153.449 Y148.326 E10.89979
G1 X153.449 Y143.449 E11.14457
G1 X158.326 Y143.449 E11.38935
G1 X154.877 Y140 E11.63413
G1 X158.326 Y136.551 E11.87891
G1 X153.449 Y136.551 E12.12369
G1 X153.449 Y131.674 E12.36847
G1 X150 Y135.123 E12.61325
G1 X146.551 Y131.674 E12.85803
G1 X146.551 Y136.551 E13.10281
G1 X141.674 Y136.551 E13.34759
G1 X145.123 Y140 E13.59237
G1 X141.674 Y143.449 E13.83715
G1 X146.551 Y143.449 E14.08193
G1 X146.551 Y147.839 E14.30223
G1 X150 Y144.39 E14.54701
G1 X153.104 Y147.494 E14.76732
G1 X153.104 Y143.104 E14.98762
G1 X157.494 Y143.104 E15.20792
G1 X154.39 Y140 E15.42822
G1 X157.494 Y136.896 E15.64853
G1 X153.104 Y136.896 E15.86883
G1 X153.104 Y132.506 E16.08913
G1 X150 Y135.61 E16.30943
G1 X146.896 Y132.506 E16.52973
G1 X146.896 Y136.896 E16.75004
G1 X142.506 Y136.896 E16.97034
G1 X145.61 Y140 E17.19064
G1 X142.506 Y143.104 E17.41094
G1 X146.896 Y143.104 E17.63124
G1 X146.896 Y147.006 E17.82707
G1 X150 Y143.902 E18.04737
G1 X152.759 Y146.661 E18.24319
G1 X152.759 Y142.759 E18.43902
G1 X156.661 Y142.759 E18.63484
G1 X153.902 Y140 E18.83067
G1 X156.661 Y137.241 E19.02649
G1 X152.759 Y137.241 E19.22232
G1 X152.759 Y133.339 E19.41814
G1 X150 Y136.098 E19.61396
G1 X147.241 Y133.339 E19.80979
G1 X147.241 Y137.241 E20.00561
G1 X143.339 Y137.241 E20.20144
G1 X146.098 Y140 E20.39726
G1 X143.339 Y142.759 E20.59308
G1 X147.241 Y142.759 E20.78891
G1 X147.241 Y146.173 E20.96025
G1 X150 Y143.414 E21.15608
G1 X152.414 Y145.828 E21.32742
G1 X152.414 Y142.414 E21.49877
G1 X155.828 Y142.414 E21.67012
G1 X153.414 Y140 E21.84146
G1 X155.828 Y137.586 E22.01281
G1 X152.414 Y137.586 E22.18415
G1 X152.414 Y134.172 E22.3555
G1 X150 Y136.586 E22.52685
G1 X147.586 Y134.172 E22.69819
G1 X147.586 Y137.586 E22.86954
G1 X144.172 Y137.586 E23.04089
G1 X146.586 Y140 E23.21223
G1 X144.172 Y142.414 E23.38358
G1 X147.586 Y142.414 E23.55492
G1 X147.586 Y145.341 E23.70179
G1 X150 Y142.926 E23.87314
G1 X152.069 Y144.996 E24.02001
G1 X152.069 Y142.069 E24.16687
G1 X154.996 Y142.069 E24.31374
G1 X152.926 Y140 E24.46061
G1 X154.996 Y137.931 E24.60748
G1 X152.069 Y137.931 E24.75435
G1 X152.069 Y135.004 E24.90121
G1 X150 Y137.074 E25.04808
G1 X147.931 Y135.004 E25.19495
G1 X147.931 Y137.931 E25.34182
G1 X145.004 Y137.931 E25.48869
G1 X147.074 Y140 E25.63555
G1 X145.004 Y142.069 E25.78242
G1 X147.931 Y142.069 E25.92929
G1 X147.931 Y144.508 E26.05168
G1 X150 Y142.439 E26.19855
G1 X151.724 Y144.163 E26.32094
G1 X151.724 Y141.724 E26.44333
G1 X154.163 Y141.724 E26.56572
G1 X152.439 Y140 E26.68811
G1 X154.163 Y138.276 E26.8105
G1 X151.724 Y138.276 E26.93289
G1 X151.724 Y135.837 E27.05528
G1 X150 Y137.561 E27.17767
G1 X148.276 Y135.837 E27.30006
G1 X148.276 Y138.276 E27.42245
G1 X145.837 Y138.276 E27.54484
G1 X147.561 Y140 E27.66723
G1 X145.837 Y141.724 E27.78962
G1 X148.276 Y141.724 E27.91201
G1 X148.276 Y143.675 E28.00992
G1 X150 Y141.951 E28.13231
G1 X151.38 Y143.331 E28.23022
G1 X151.38 Y141.38 E28.32814
G1 X153.331 Y141.38 E28.42605
G1 X151.951 Y140 E28.52396
G1 X153.331 Y138.62 E28.62187
G1 X151.38 Y138.62 E28.71978
G1 X151.38 Y136.669 E28.8177
G1 X150 Y138.049 E28.91561
G1 X148.62 Y136.669 E29.01352
G1 X148.62 Y138.62 E29.11143
G1 X146.669 Y138.62 E29.20934
G1 X148.049 Y140 E29.30726
G1 X146.669 Y141.38 E29.40517
G1 X148.62 Y141.38 E29.50308
G1 X148.62 Y142.843 E29.57651
G1 X150 Y141.463 E29.67443
G1 X151.035 Y142.498 E29.74786
G1 X151.035 Y141.035 E29.8213
G1 X152.498 Y141.035 E29.89473
G1 X151.463 Y140 E29.96816
G1 X152.498 Y138.965 E30.0416
G1 X151.035 Y138.965 E30.11503
