; generated by PrusaSlicer 2.4.2+linux-x64-GTK2 on 2022-05-29 at 04:20:07 UTC

; 

; external perimeters extrusion width = 0.45mm
; perimeters extrusion width = 0.45mm
; infill extrusion width = 0.45mm
; solid infill extrusion width = 0.45mm
; top infill extrusion width = 0.40mm
; first layer extrusion width = 0.42mm

M201 X9000 Y9000 Z500 E10000 ; sets maximum accelerations, mm/sec^2
M203 X500 Y500 Z12 E120 ; sets maximum feedrates, mm / sec
M204 P1500 R1500 T1500 ; sets acceleration (P, T) and retract acceleration (R), mm/sec^2
M205 X10.00 Y10.00 Z0.20 E2.50 ; sets the jerk limits, mm/sec
M205 S0 T0 ; sets the minimum extruding and travel feed rate, mm/sec
M107
M190 S60 ; set bed temperature and wait for it to be reached
M104 S215 ; set temperature
;TYPE:Custom
G1 X10 Y4
G1 Z0
G1 X20 F1000
G92 E0
G1 F200 E3
G92 E0
M109 S215 ; set temperature and wait for it to be reached
G21 ; set units to millimeters
G90 ; use absolute coordinates
M82 ; use absolute distances for extrusion
G92 E0
; Filament gcode
M107
;LAYER_CHANGE
;Z:0.35
;HEIGHT:0.35
G1 Z.35 F3600
G1 E-2 F2400
G92 E0
G1 X132.693 Y123.359 F3600
G1 E2 F2400
;TYPE:Skirt/Brim
;WIDTH:0.42
G1 F1800
G1 X134.435 Y121.944 E2.11262
G1 X137.5 Y121.155 E2.27146
G1 X162.5 Y121.155 E3.5261
G1 X164.709 Y121.552 E3.63872
G1 X166.641 Y122.693 E3.75135
G1 X168.056 Y124.435 E3.86397
G1 X168.845 Y127.5 E4.0228
G1 X168.845 Y152.5 E5.27745
G1 X168.448 Y154.709 E5.39007
G1 X167.307 Y156.641 E5.50269
G1 X165.565 Y158.056 E5.61531
G1 X162.5 Y158.845 E5.77415
G1 X137.5 Y158.845 E7.0288
G1 X135.291 Y158.448 E7.14142
G1 X133.359 Y157.307 E7.25404
G1 X131.944 Y155.565 E7.36666
G1 X131.155 Y152.5 E7.52549
G1 X131.155 Y127.5 E8.78014
G1 X131.552 Y125.291 E8.89276
G1 X132.662 Y123.411 E9.00237
G1 E7.00237 F2400
G92 E0
G1 X138.6 Y128.6 F3600
G1 E2 F2400
;TYPE:Perimeter
G1 F1800
G1 X161.4 Y128.6 E3.14426
G1 X161.4 Y151.4 E4.28852
G1 X138.6 Y151.4 E5.43278
G1 X138.6 Y128.66 E6.57403
G1 X138.255 Y128.255 F3600
G1 F1800
G1 X161.745 Y128.255 E7.75291
G1 X161.745 Y151.745 E8.93179
G1 X138.255 Y151.745 E10.11067
G1 X138.255 Y128.315 E11.28654
G1 X137.91 Y127.91 F3600
;TYPE:External perimeter
G1 F1800
G1 X162.09 Y127.91 E12.50003
G1 X162.09 Y152.09 E13.71353
G1 X137.91 Y152.09 E14.92702
G1 X137.91 Y127.97 E16.13751
G1 X138.296 Y128.014 F3600
G1 X138.858 Y128.964
;TYPE:Solid infill
G1 F1800
G1 X138.964 Y128.964 E16.14278
G1 X138.964 Y128.858 E16.14806
G1 X139.308 Y128.858 F3600
G1 F1800
G1 X139.308 Y129.308 E16.17064
G1 X138.858 Y129.308 E16.19323
G1 X139.653 Y128.858 F3600
G1 F1800
G1 X139.653 Y129.653 E16.23312
G1 X138.858 Y129.653 E16.27301
G1 X138.858 Y129.998 F3600
G1 F1800
G1 X139.998 Y129.998 E16.33021
G1 X139.998 Y128.858 E16.38742
G1 X140.343 Y128.858 F3600
G1 F1800
G1 X140.343 Y130.343 E16.46193
G1 X138.858 Y130.343 E16.53644
G1 E14.53644 F2400
G92 E0
G1 X140.688 Y128.858 F3600
G1 E2 F2400
G1 F1800
G1 X140.688 Y130.688 E2.09182
G1 X138.858 Y130.688 E2.18364
G1 X138.858 Y131.033 F3600
G1 F1800
G1 X141.033 Y131.033 E2.29276
G1 X141.033 Y128.858 E2.40189
G1 X141.378 Y128.858 F3600
G1 F1800
G1 X141.378 Y131.378 E2.52833
G1 X138.858 Y131.378 E2.65476
G1 X138.858 Y131.723 F3600
G1 F1800
G1 X141.723 Y131.723 E2.79851
G1 X141.723 Y128.858 E2.94225
G1 X142.068 Y128.858 F3600
G1 F1800
G1 X142.068 Y132.068 E3.1033
G1 X138.858 Y132.068 E3.26436
G1 X138.858 Y132.412 F3600
G1 F1800
G1 X142.412 Y132.412 E3.44272
G1 X142.412 Y128.858 E3.62108
G1 X142.757 Y128.858 F3600
G1 F1800
G1 X142.757 Y132.757 E3.81675
G1 X138.858 Y132.757 E4.01242
G1 X138.858 Y133.102 F3600
G1 F1800
G1 X143.102 Y133.102 E4.2254
G1 X143.102 Y128.858 E4.43838
G1 X143.447 Y128.858 F3600
G1 F1800
G1 X143.447 Y133.447 E4.66866
G1 X138.858 Y133.447 E4.89895
G1 X138.858 Y133.792 F3600
G1 F1800
G1 X143.792 Y133.792 E5.14655
G1 X143.792 Y128.858 E5.39414
G1 X144.137 Y128.858 F3600
G1 F1800
G1 X144.137 Y134.137 E5.65904
G1 X138.858 Y134.137 E5.92395
G1 X138.858 Y134.482 F3600
G1 F1800
G1 X144.482 Y134.482 E6.20616
G1 X144.482 Y128.858 E6.48837
G1 X144.827 Y128.858 F3600
G1 F1800
G1 X144.827 Y134.827 E6.7879
G1 X138.858 Y134.827 E7.08742
G1 X138.858 Y135.172 F3600
G1 F1800
G1 X145.172 Y135.172 E7.40425
G1 X145.172 Y128.858 E7.72108
G1 X145.687 Y128.858 F3600
G1 F1800
G1 X150 Y133.172 E8.02719
G1 X154.313 Y128.858 E8.33331
G1 X153.825 Y128.858 F3600
G1 F1800
G1 X150 Y132.684 E8.60481
G1 X146.175 Y128.858 E8.87631
G1 X146.662 Y128.858 F3600
G1 F1800
G1 X150 Y132.196 E9.11319
G1 X153.338 Y128.858 E9.35008
G1 X152.85 Y128.858 F3600
G1 F1800
G1 X150 Y131.708 E9.55234
G1 X147.15 Y128.858 E9.75461
G1 X147.638 Y128.858 F3600
G1 F1800
G1 X150 Y131.221 E9.92226
G1 X152.362 Y128.858 E10.08991
G1 X151.874 Y128.858 F3600
G1 F1800
G1 X150 Y130.733 E10.22294
G1 X148.126 Y128.858 E10.35597
G1 X148.613 Y128.858 F3600
G1 F1800
G1 X150 Y130.245 E10.45438
G1 X151.387 Y128.858 E10.5528
G1 X149.589 Y128.858 F3600
G1 F1800
G1 X150 Y129.27 E10.58198
G1 X150.411 Y128.858 E10.61116
G1 X150.899 Y128.858 F3600
G1 F1800
G1 X150 Y129.757 E10.67496
G1 X149.101 Y128.858 E10.73875
G1 E8.73875 F2400
G92 E0
G1 X154.828 Y128.858 F3600
G1 E2 F2400
G1 F1800
G1 X154.828 Y135.172 E2.31683
G1 X161.142 Y135.172 E2.63366
G1 X161.142 Y134.827 F3600
G1 F1800
G1 X155.173 Y134.827 E2.93318
G1 X155.173 Y128.858 E3.2327
G1 X155.518 Y128.858 F3600
G1 F1800
G1 X155.518 Y134.482 E3.51492
G1 X161.142 Y134.482 E3.79713
G1 X161.142 Y134.137 F3600
G1 F1800
G1 X155.863 Y134.137 E4.06203
G1 X155.863 Y128.858 E4.32694
G1 E2.32694 F2400
G92 E0
G1 X161.142 Y130.688 F3600
G1 E2 F2400
G1 F1800
G1 X159.312 Y130.688 E2.09182
G1 X159.312 Y128.858 E2.18364
G1 X159.657 Y128.858 F3600
G1 F1800
G1 X159.657 Y130.343 E2.25815
G1 X161.142 Y130.343 E2.33266
G1 X161.142 Y129.998 F3600
G1 F1800
G1 X160.002 Y129.998 E2.38986
G1 X160.002 Y128.858 E2.44706
G1 X160.347 Y128.858 F3600
G1 F1800
G1 X160.347 Y129.653 E2.48695
G1 X161.142 Y129.653 E2.52684
G1 X161.036 Y128.858 F3600
G1 F1800
G1 X161.036 Y128.964 E2.53212
G1 X161.142 Y128.964 E2.5374
G1 X161.142 Y129.308 F3600
G1 F1800
G1 X160.692 Y129.308 E2.55998
G1 X160.692 Y128.858 E2.58256
G1 X158.967 Y128.858 F3600
G1 F1800
G1 X158.967 Y131.033 E2.69169
G1 X161.142 Y131.033 E2.80082
G1 X161.142 Y131.378 F3600
G1 F1800
G1 X158.622 Y131.378 E2.92725
G1 X158.622 Y128.858 E3.05369
G1 X158.277 Y128.858 F3600
G1 F1800
G1 X158.277 Y131.723 E3.19743
G1 X161.142 Y131.723 E3.34118
G1 X161.142 Y132.068 F3600
G1 F1800
G1 X157.932 Y132.068 E3.50223
G1 X157.932 Y128.858 E3.66328
G1 X157.588 Y128.858 F3600
G1 F1800
G1 X157.588 Y132.412 E3.84164
G1 X161.142 Y132.412 E4.02001
G1 X161.142 Y132.757 F3600
G1 F1800
G1 X157.243 Y132.757 E4.21568
G1 X157.243 Y128.858 E4.41135
G1 X156.898 Y128.858 F3600
G1 F1800
G1 X156.898 Y133.102 E4.62432
G1 X161.142 Y133.102 E4.8373
G1 X161.142 Y133.447 F3600
G1 F1800
G1 X156.553 Y133.447 E5.06759
G1 X156.553 Y128.858 E5.29788
G1 X156.208 Y128.858 F3600
G1 F1800
G1 X156.208 Y133.792 E5.54547
G1 X161.142 Y133.792 E5.79307
G1 X161.142 Y135.687 F3600
G1 F1800
G1 X156.828 Y140 E6.09919
G1 X161.142 Y144.313 E6.4053
G1 X161.142 Y143.825 F3600
G1 F1800
G1 X157.316 Y140 E6.6768
G1 X161.142 Y136.175 E6.9483
G1 X161.142 Y136.662 F3600
G1 F1800
G1 X157.804 Y140 E7.18519
G1 X161.142 Y143.338 E7.42207
G1 X161.142 Y142.85 F3600
G1 F1800
G1 X158.292 Y140 E7.62433
G1 X161.142 Y137.15 E7.8266
G1 X161.142 Y138.613 F3600
G1 F1800
G1 X159.755 Y140 E7.92502
G1 X161.142 Y141.387 E8.02343
G1 X161.142 Y140.899 F3600
G1 F1800
G1 X160.243 Y140 E8.08723
G1 X161.142 Y139.101 E8.15102
G1 X161.142 Y139.589 F3600
G1 F1800
G1 X160.73 Y140 E8.1802
G1 X161.142 Y140.411 E8.20938
G1 X161.142 Y141.874 F3600
G1 F1800
G1 X159.267 Y140 E8.34242
G1 X161.142 Y138.126 E8.47545
G1 X161.142 Y137.638 F3600
G1 F1800
G1 X158.779 Y140 E8.6431
G1 X161.142 Y142.362 E8.81075
G1 E6.81075 F2400
G92 E0
G1 X161.142 Y144.828 F3600
G1 E2 F2400
G1 F1800
G1 X154.828 Y144.828 E2.31683
G1 X154.828 Y151.142 E2.63366
G1 X155.173 Y151.142 F3600
G1 F1800
G1 X155.173 Y145.173 E2.93318
G1 X161.142 Y145.173 E3.2327
G1 X161.142 Y145.518 F3600
G1 F1800
G1 X155.518 Y145.518 E3.51492
G1 X155.518 Y151.142 E3.79713
G1 X155.863 Y151.142 F3600
G1 F1800
G1 X155.863 Y145.863 E4.06203
G1 X161.142 Y145.863 E4.32694
G1 X161.142 Y146.898 F3600
G1 F1800
G1 X156.898 Y146.898 E4.53991
G1 X156.898 Y151.142 E4.75289
G1 X157.243 Y151.142 F3600
G1 F1800
G1 X157.243 Y147.243 E4.94856
G1 X161.142 Y147.243 E5.14423
G1 X161.142 Y147.588 F3600
G1 F1800
G1 X157.588 Y147.588 E5.32259
G1 X157.588 Y151.142 E5.50096
G1 X157.932 Y151.142 F3600
G1 F1800
G1 X157.932 Y147.932 E5.66201
G1 X161.142 Y147.932 E5.82306
G1 X161.142 Y148.277 F3600
G1 F1800
G1 X158.277 Y148.277 E5.96681
G1 X158.277 Y151.142 E6.11055
G1 X158.622 Y151.142 F3600
G1 F1800
G1 X158.622 Y148.622 E6.23698
G1 X161.142 Y148.622 E6.36342
G1 X161.142 Y148.967 F3600
G1 F1800
G1 X158.967 Y148.967 E6.47255
G1 X158.967 Y151.142 E6.58167
G1 X159.312 Y151.142 F3600
G1 F1800
G1 X159.312 Y149.312 E6.67349
G1 X161.142 Y149.312 E6.76531
G1 X161.142 Y149.657 F3600
G1 F1800
G1 X159.657 Y149.657 E6.83982
G1 X159.657 Y151.142 E6.91433
G1 X160.002 Y151.142 F3600
G1 F1800
G1 X160.002 Y150.002 E6.97153
G1 X161.142 Y150.002 E7.02873
G1 X161.142 Y150.347 F3600
G1 F1800
G1 X160.347 Y150.347 E7.06863
G1 X160.347 Y151.142 E7.10852
G1 X161.142 Y151.036 F3600
G1 F1800
G1 X161.036 Y151.036 E7.11379
G1 X161.036 Y151.142 E7.11907
G1 X160.692 Y151.142 F3600
G1 F1800
G1 X160.692 Y150.692 E7.14165
G1 X161.142 Y150.692 E7.16424
G1 E5.16424 F2400
G92 E0
G1 X156.553 Y151.142 F3600
G1 E2 F2400
G1 F1800
G1 X156.553 Y146.553 E2.23029
G1 X161.142 Y146.553 E2.46057
G1 X161.142 Y146.208 F3600
G1 F1800
G1 X156.208 Y146.208 E2.70817
G1 X156.208 Y151.142 E2.95577
G1 X154.313 Y151.142 F3600
G1 F1800
G1 X150 Y146.828 E3.26188
G1 X145.687 Y151.142 E3.568
G1 X146.175 Y151.142 F3600
G1 F1800
G1 X150 Y147.316 E3.8395
G1 X153.825 Y151.142 E4.111
G1 X153.338 Y151.142 F3600
G1 F1800
G1 X150 Y147.804 E4.34788
G1 X146.662 Y151.142 E4.58477
G1 X147.15 Y151.142 F3600
G1 F1800
G1 X150 Y148.292 E4.78703
G1 X152.85 Y151.142 E4.9893
G1 X152.362 Y151.142 F3600
G1 F1800
G1 X150 Y148.779 E5.15695
G1 X147.638 Y151.142 E5.3246
G1 X148.126 Y151.142 F3600
G1 F1800
G1 X150 Y149.267 E5.45763
G1 X151.874 Y151.142 E5.59066
G1 X151.387 Y151.142 F3600
G1 F1800
G1 X150 Y149.755 E5.68907
G1 X148.613 Y151.142 E5.78749
G1 X149.101 Y151.142 F3600
G1 F1800
G1 X150 Y150.243 E5.85129
G1 X150.899 Y151.142 E5.91508
G1 X150.411 Y151.142 F3600
G1 F1800
G1 X150 Y150.73 E5.94426
G1 X149.589 Y151.142 E5.97344
G1 E3.97344 F2400
G92 E0
G1 X150 Y140 F3600
G1 E2 F2400
G1 F1800
G1 X149.655 Y140.345 E2.02448
G1 X149.167 Y140.345 E2.04896
G1 X149.512 Y140 E2.07343
G1 X149.167 Y139.655 E2.09791
G1 X149.655 Y139.655 E2.12239
G1 X149.655 Y139.167 E2.14687
G1 X150 Y139.512 E2.17135
G1 X150.345 Y139.167 E2.19582
G1 X150.345 Y139.655 E2.2203
G1 X150.833 Y139.655 E2.24478
G1 X150.488 Y140 E2.26926
G1 X150.833 Y140.345 E2.29374
G1 X150.345 Y140.345 E2.31821
G1 X150.345 Y140.833 E2.34269
G1 X150 Y140.488 E2.36717
G1 X149.31 Y141.178 E2.41613
G1 X149.31 Y140.69 E2.4406
G1 X148.335 Y140.69 E2.48956
G1 X149.025 Y140 E2.53852
G1 X148.335 Y139.31 E2.58747
G1 X149.31 Y139.31 E2.63643
G1 X149.31 Y138.335 E2.68538
G1 X150 Y139.025 E2.73434
G1 X150.69 Y138.335 E2.7833
G1 X150.69 Y139.31 E2.83225
G1 X151.665 Y139.31 E2.88121
G1 X150.975 Y140 E2.93016
G1 X151.665 Y140.69 E2.97912
G1 X150.69 Y140.69 E3.02808
G1 X150.69 Y141.665 E3.07703
G1 X150 Y140.975 E3.12599
G1 X148.965 Y142.01 E3.19942
G1 X148.965 Y141.035 E3.24838
G1 X147.502 Y141.035 E3.32181
G1 X148.537 Y140 E3.39525
G1 X147.502 Y138.965 E3.46868
G1 X148.965 Y138.965 E3.54211
G1 X148.965 Y137.502 E3.61555
G1 X150 Y138.537 E3.68898
G1 X151.035 Y137.502 E3.76242
G1 X151.035 Y138.965 E3.83585
G1 X152.498 Y138.965 E3.90928
G1 X151.463 Y140 E3.98272
G1 X152.498 Y141.035 E4.05615
G1 X151.035 Y141.035 E4.12959
G1 X151.035 Y142.498 E4.20302
G1 X150 Y141.463 E4.27646
G1 X148.62 Y142.843 E4.37437
G1 X148.62 Y141.38 E4.4478
G1 X146.669 Y141.38 E4.54571
G1 X148.049 Y140 E4.64363
G1 X146.669 Y138.62 E4.74154
G1 X148.62 Y138.62 E4.83945
G1 X148.62 Y136.669 E4.93736
G1 X150 Y138.049 E5.03527
G1 X151.38 Y136.669 E5.13319
G1 X151.38 Y138.62 E5.2311
G1 X153.331 Y138.62 E5.32901
G1 X151.951 Y140 E5.42692
G1 X153.331 Y141.38 E5.52483
G1 X151.38 Y141.38 E5.62275
G1 X151.38 Y143.331 E5.72066
G1 X150 Y141.951 E5.81857
G1 X148.276 Y143.675 E5.94096
G1 X148.276 Y141.724 E6.03887
G1 X145.837 Y141.724 E6.16126
G1 X147.561 Y140 E6.28365
G1 X145.837 Y138.276 E6.40604
G1 X148.276 Y138.276 E6.52843
G1 X148.276 Y135.837 E6.65082
G1 X150 Y137.561 E6.77321
G1 X151.724 Y135.837 E6.8956
G1 X151.724 Y138.276 E7.01799
G1 X154.163 Y138.276 E7.14038
G1 X152.439 Y140 E7.26277
G1 X154.163 Y141.724 E7.38516
G1 X151.724 Y141.724 E7.50755
G1 X151.724 Y144.163 E7.62994
G1 X150 Y142.439 E7.75233
G1 X147.931 Y144.508 E7.8992
G1 X147.931 Y142.069 E8.02159
G1 X145.004 Y142.069 E8.16846
G1 X147.074 Y140 E8.31533
G1 X145.004 Y137.931 E8.4622
G1 X147.931 Y137.931 E8.60906
G1 X147.931 Y135.004 E8.75593
G1 X150 Y137.074 E8.9028
G1 X152.069 Y135.004 E9.04967
G1 X152.069 Y137.931 E9.19654
G1 X154.996 Y137.931 E9.3434
G1 X152.926 Y140 E9.49027
G1 X154.996 Y142.069 E9.63714
G1 X152.069 Y142.069 E9.78401
G1 X152.069 Y144.996 E9.93088
G1 X150 Y142.926 E10.07774
G1 X147.586 Y145.341 E10.24909
G1 X147.586 Y142.414 E10.39596
G1 X144.172 Y142.414 E10.5673
G1 X146.586 Y140 E10.73865
G1 X144.172 Y137.586 E10.91
G1 X147.586 Y137.586 E11.08134
G1 X147.586 Y134.172 E11.25269
G1 X150 Y136.586 E11.42404
G1 X152.414 Y134.172 E11.59538
G1 X152.414 Y137.586 E11.76673
G1 X155.828 Y137.586 E11.93807
G1 X153.414 Y140 E12.10942
G1 X155.828 Y142.414 E12.28077
G1 X152.414 Y142.414 E12.45211
G1 X152.414 Y145.828 E12.62346
G1 X150 Y143.414 E12.7948
G1 X147.241 Y146.173 E12.99063
G1 X147.241 Y142.759 E13.16197
G1 X143.339 Y142.759 E13.3578
G1 X146.098 Y140 E13.55362
G1 X143.339 Y137.241 E13.74945
G1 X147.241 Y137.241 E13.94527
G1 X147.241 Y133.339 E14.14109
G1 X150 Y136.098 E14.33692
G1 X152.759 Y133.339 E14.53274
G1 X152.759 Y137.241 E14.72857
G1 X156.661 Y137.241 E14.92439
G1 X153.902 Y140 E15.12022
G1 X156.661 Y142.759 E15.31604
G1 X152.759 Y142.759 E15.51186
G1 X152.759 Y146.661 E15.70769
G1 X150 Y143.902 E15.90351
G1 X146.896 Y147.006 E16.12381
G1 X146.896 Y143.104 E16.31964
G1 X142.506 Y143.104 E16.53994
G1 X145.61 Y140 E16.76024
G1 X142.506 Y136.896 E16.98054
G1 X146.896 Y136.896 E17.20085
G1 X146.896 Y132.506 E17.42115
G1 X150 Y135.61 E17.64145
G1 X153.104 Y132.506 E17.86175
G1 X153.104 Y136.896 E18.08205
G1 X157.494 Y136.896 E18.30236
G1 X154.39 Y140 E18.52266
G1 X157.494 Y143.104 E18.74296
G1 X153.104 Y143.104 E18.96326
G1 X153.104 Y147.494 E19.18357
G1 X150 Y144.39 E19.40387
G1 X146.551 Y147.839 E19.64865
G1 X146.551 Y143.449 E19.86895
G1 X141.674 Y143.449 E20.11373
G1 X145.123 Y140 E20.35851
G1 X141.674 Y136.551 E20.60329
G1 X146.551 Y136.551 E20.84807
G1 X146.551 Y131.674 E21.09285
G1 X150 Y135.123 E21.33763
G1 X153.449 Y131.674 E21.58241
G1 X153.449 Y136.551 E21.82719
G1 X158.326 Y136.551 E22.07197
G1 X154.877 Y140 E22.31675
G1 X158.326 Y143.449 E22.56153
G1 X153.449 Y143.449 E22.80631
G1 X153.449 Y148.326 E23.05109
G1 X150 Y144.877 E23.29587
G1 X146.206 Y148.671 E23.56513
G1 X146.206 Y143.794 E23.80991
G1 X140.841 Y143.794 E24.07917
G1 X144.635 Y140 E24.34843
G1 X140.841 Y136.206 E24.61768
G1 X146.206 Y136.206 E24.88694
G1 X146.206 Y130.841 E25.1562
G1 X150 Y134.635 E25.42546
G1 X153.794 Y130.841 E25.69472
G1 X153.794 Y136.206 E25.96398
G1 X159.159 Y136.206 E26.23323
G1 X155.365 Y140 E26.50249
G1 X159.159 Y143.794 E26.77175
G1 X153.794 Y143.794 E27.04101
G1 X153.794 Y149.159 E27.31027
G1 X150 Y145.365 E27.57952
G1 X145.861 Y149.504 E27.87326
G1 X145.861 Y144.139 E28.14252
G1 X140.008 Y144.139 E28.43625
G1 X144.147 Y140 E28.72999
G1 X140.008 Y135.861 E29.02373
G1 X145.861 Y135.861 E29.31746
G1 X145.861 Y130.008 E29.6112
G1 X150 Y134.147 E29.90494
G1 X154.139 Y130.008 E30.19867
G1 X154.139 Y135.861 E30.49241
G1 X159.992 Y135.861 E30.78614
G1 X155.853 Y140 E31.07988
G1 X159.992 Y144.139 E31.37362
