; generated by Slic3r 1.3.0 on 2021-08-25 at 05:24:19

; Filament notes: 
; Affordable filament for everyday printing in premium quality manufactured in-house by Josef Prusa
; 
; Printer Config Notes: 
; Don't remove the following keywords! These keywords are used in the "compatible printer" condition of the print and filament profiles to link the particular print and filament profiles to this printer profile.
; PRINTER_VENDOR_PRUSA3D
; PRINTER_MODEL_MK3
; 
; external perimeters extrusion width = 0.45mm (2.19mm^3/s)
; perimeters extrusion width = 0.45mm (3.76mm^3/s)
; infill extrusion width = 0.45mm (12.53mm^3/s)
; solid infill extrusion width = 0.45mm (12.53mm^3/s)
; top infill extrusion width = 0.40mm (2.76mm^3/s)

M107
;M862.3 P "[printer_model]" ; printer model check
M862.1 P0.4 ; nozzle diameter check
M115 U3.10.0 ; tell printer latest fw version
G90 ; use absolute coordinates
M83 ; extruder relative mode
M104 S215 ; set extruder temp
M140 S60 ; set bed temp
M190 S60 ; wait for bed temp
M109 S215 ; wait for extruder temp
G28 W ; home all without mesh bed level
G80 ; mesh bed leveling
G1 Y-3.0 F1000.0 ; go outside print area
G92 E0.0
G1 X60.0 E9.0 F1000.0 ; intro line
G1 X100.0 E12.5 F1000.0 ; intro line
G92 E0.0
M221 S100{else}95{endif}

; Don't change E values below. Excessive value can damage the printer.
M907 E430 ; set extruder motor current{endif}
M907 E538 ; set extruder motor current{endif}
M900 K0.12{elsif printer_notes=~/.*PRINTER_MODEL_MINI.*/ and nozzle_diameter[0]==0.8}0.06{elsif printer_notes=~/.*PRINTER_MODEL_MINI.*/}0.2{elsif nozzle_diameter[0]==0.8}0.01{elsif nozzle_diameter[0]==0.6}0.04{else}0.05{endif} ; Filament gcode LA 1.5
;{elsif printer_notes=~/.*PRINTER_HAS_BOWDEN.*/}M900 K200{elsif nozzle_diameter[0]==0.6}M900 K18{elsif nozzle_diameter[0]==0.8};{else}M900 K30{endif} ; Filament gcode LA 1.0
G21 ; set units to millimeters
G90 ; use absolute coordinates
M83 ; use relative distances for extrusion
;BEFORE_LAYER_CHANGE 0.2
G92 E0.0

G1 E-0.80000 F2100.00000
G1 Z0.400 F10800.000
;AFTER_LAYER_CHANGE 0.2
G1 X88.056 Y86.033 F10800.000
G1 Z0.200 F10800.000
G1 E0.80000 F2100.00000
M201 X1000 Y1000
M204 P1000 T1000
G1 F1200
G1 X88.684 Y85.389 E0.02820
G1 X113.601 Y68.049 E0.95181
G1 X114.958 Y67.623 E0.04462
G1 X134.958 Y67.623 E0.62709
G1 X136.120 Y67.926 E0.03764
G1 X161.120 Y81.926 E0.89840
G1 X162.069 Y82.906 E0.04278
G1 X162.336 Y84.000 E0.03530
G1 X162.336 Y126.000 E1.31688
G1 X161.944 Y127.307 E0.04278
G1 X161.120 Y128.074 E0.03530
G1 X136.120 Y142.074 E0.89840
G1 X134.958 Y142.377 E0.03764
G1 X114.958 Y142.377 E0.62709
G1 X114.567 Y142.345 E0.01232
G1 X89.650 Y138.185 E0.79206
G1 X88.425 Y137.583 E0.04278
G1 X87.664 Y135.840 E0.05964
G1 X87.664 Y87.340 E1.52068
G1 X88.039 Y86.091 E0.04090
G1 F8640
G1 X88.684 Y85.389 E-0.22003
G1 F8640
G1 X90.603 Y84.053 E-0.53997
G1 E-0.04000 F2100.00000
G1 Z0.600 F10800.000
G1 X126.069 Y135.111 F10800.000
G1 Z0.200 F10800.000
G1 E0.80000 F2100.00000
G1 F1200
G1 X123.958 Y135.985 E0.07164
G1 X121.847 Y135.111 E0.07164
G1 X120.973 Y133.000 E0.07164
G1 X121.847 Y130.889 E0.07164
G1 X123.958 Y130.015 E0.07164
G1 X126.069 Y130.889 E0.07164
G1 X126.944 Y133.000 E0.07164
G1 X126.092 Y135.056 E0.06976
G1 X125.781 Y134.822 F10800.000
G1 F1200
G1 X123.958 Y135.577 E0.06185
G1 X122.136 Y134.822 E0.06185
G1 X121.381 Y133.000 E0.06185
G1 X122.136 Y131.178 E0.06185
G1 X123.958 Y130.423 E0.06185
G1 X125.781 Y131.178 E0.06185
G1 X126.536 Y133.000 E0.06185
G1 X125.804 Y134.767 E0.05997
G1 X125.884 Y135.209 F10800.000
G1 F8640
G1 X123.958 Y135.577 E-0.46537
G1 F8640
G1 X122.780 Y135.089 E-0.29463
G1 E-0.04000 F2100.00000
G1 Z0.600 F10800.000
G1 X124.722 Y122.689 F10800.000
G1 Z0.200 F10800.000
G1 E0.80000 F2100.00000
G1 F1200
G1 X122.194 Y122.689 E0.07926
G1 X120.931 Y120.500 E0.07926
G1 X122.194 Y118.311 E0.07926
G1 X124.722 Y118.311 E0.07926
G1 X125.986 Y120.500 E0.07926
G1 X124.752 Y122.637 E0.07738
G1 X124.505 Y122.312 F10800.000
G1 F1200
G1 X122.412 Y122.312 E0.06561
G1 X121.366 Y120.500 E0.06561
G1 X122.412 Y118.688 E0.06561
G1 X124.505 Y118.688 E0.06561
G1 X125.551 Y120.500 E0.06561
G1 X124.535 Y122.260 E0.06373
G1 X124.505 Y122.712 F10800.000
G1 F8640
G1 X122.412 Y122.312 E-0.49024
G1 F8640
G1 X121.828 Y121.300 E-0.26976
G1 E-0.04000 F2100.00000
G1 Z0.600 F10800.000
G1 X130.908 Y114.014 F10800.000
G1 Z0.200 F10800.000
G1 E0.80000 F2100.00000
G1 F1200
G1 X129.178 Y112.108 E0.08073
G1 X127.913 Y109.918 E0.07929
G1 X127.132 Y107.514 E0.07925
G1 X126.868 Y105.000 E0.07925
G1 X127.132 Y102.486 E0.07925
G1 X127.913 Y100.082 E0.07925
G1 X129.177 Y97.894 E0.07925
G1 X130.868 Y96.015 E0.07925
G1 X132.913 Y94.529 E0.07925
G1 X135.222 Y93.501 E0.07925
G1 X137.695 Y92.976 E0.07925
G1 X140.222 Y92.976 E0.07925
G1 X142.695 Y93.501 E0.07925
G1 X145.004 Y94.529 E0.07925
G1 X147.048 Y96.015 E0.07925
G1 X148.740 Y97.894 E0.07925
G1 X149.979 Y100.040 E0.07770
G1 X150.784 Y102.485 E0.08073
G1 X151.049 Y105.000 E0.07929
G1 X150.785 Y107.514 E0.07925
G1 X150.003 Y109.918 E0.07925
G1 X148.740 Y112.106 E0.07925
G1 X147.048 Y113.985 E0.07925
G1 X145.004 Y115.471 E0.07925
G1 X142.695 Y116.499 E0.07925
G1 X140.222 Y117.024 E0.07925
G1 X137.695 Y117.024 E0.07925
G1 X135.222 Y116.499 E0.07925
G1 X132.913 Y115.471 E0.07925
G1 X130.957 Y114.049 E0.07582
G1 X131.161 Y113.732 F10800.000
G1 F1200
G1 X129.484 Y111.884 E0.07824
G1 X128.260 Y109.763 E0.07678
G1 X127.503 Y107.435 E0.07676
G1 X127.247 Y105.000 E0.07676
G1 X127.503 Y102.565 E0.07676
G1 X128.260 Y100.237 E0.07676
G1 X129.484 Y98.116 E0.07676
G1 X131.122 Y96.297 E0.07677
G1 X133.103 Y94.858 E0.07676
G1 X135.340 Y93.862 E0.07676
G1 X137.734 Y93.353 E0.07676
G1 X140.183 Y93.353 E0.07676
G1 X142.577 Y93.862 E0.07676
G1 X144.814 Y94.858 E0.07676
G1 X146.795 Y96.297 E0.07676
G1 X148.433 Y98.116 E0.07676
G1 X149.633 Y100.195 E0.07524
G1 X150.414 Y102.565 E0.07824
G1 X150.670 Y105.000 E0.07678
G1 X150.414 Y107.435 E0.07676
G1 X149.657 Y109.763 E0.07676
G1 X148.433 Y111.884 E0.07676
G1 X146.795 Y113.703 E0.07676
G1 X144.814 Y115.142 E0.07676
G1 X142.577 Y116.138 E0.07676
G1 X140.183 Y116.647 E0.07676
G1 X137.734 Y116.647 E0.07676
G1 X135.340 Y116.138 E0.07676
G1 X133.103 Y115.142 E0.07676
G1 X131.210 Y113.767 E0.07336
G1 X130.781 Y113.856 F10800.000
G1 F8640
G1 X129.484 Y111.884 E-0.58976
G1 F8640
G1 X129.115 Y111.245 E-0.17024
G1 E-0.04000 F2100.00000
G1 Z0.600 F10800.000
G1 X124.722 Y91.689 F10800.000
G1 Z0.200 F10800.000
G1 E0.80000 F2100.00000
G1 F1200
G1 X122.195 Y91.689 E0.07926
G1 X120.931 Y89.500 E0.07926
G1 X122.194 Y87.311 E0.07926
G1 X124.722 Y87.311 E0.07926
G1 X125.986 Y89.500 E0.07926
G1 X124.752 Y91.637 E0.07738
G1 X124.505 Y91.312 F10800.000
G1 F1200
G1 X122.412 Y91.312 E0.06561
G1 X121.366 Y89.500 E0.06561
G1 X122.412 Y87.688 E0.06561
G1 X124.505 Y87.688 E0.06561
G1 X125.551 Y89.500 E0.06561
G1 X124.535 Y91.260 E0.06373
G1 X124.444 Y91.708 F10800.000
G1 F8640
G1 X122.412 Y91.312 E-0.49024
G1 F8640
G1 X121.828 Y90.300 E-0.26976
G1 E-0.04000 F2100.00000
G1 Z0.600 F10800.000
G1 X123.958 Y79.985 F10800.000
G1 Z0.200 F10800.000
G1 E0.80000 F2100.00000
G1 F1200
G1 X121.847 Y79.111 E0.07164
G1 X120.973 Y77.000 E0.07164
G1 X121.847 Y74.889 E0.07164
G1 X123.958 Y74.015 E0.07164
G1 X126.069 Y74.889 E0.07164
G1 X126.944 Y77.000 E0.07164
G1 X126.069 Y79.111 E0.07164
G1 X124.014 Y79.962 E0.06976
G1 X123.958 Y79.577 F10800.000
G1 F1200
G1 X122.136 Y78.822 E0.06185
G1 X121.381 Y77.000 E0.06185
G1 X122.136 Y75.178 E0.06185
G1 X123.958 Y74.423 E0.06185
G1 X125.781 Y75.178 E0.06185
G1 X126.536 Y77.000 E0.06185
G1 X125.781 Y78.822 E0.06185
G1 X124.014 Y79.554 E0.05997
G1 X123.758 Y79.924 F10800.000
G1 F8640
G1 X122.136 Y78.822 E-0.46537
G1 F8640
G1 X121.648 Y77.644 E-0.29463
G1 E-0.04000 F2100.00000
G1 Z0.600 F10800.000
G1 X118.546 Y83.413 F10800.000
G1 Z0.200 F10800.000
G1 E0.80000 F2100.00000
G1 F1200
G1 X115.546 Y83.413 E0.09406
G1 X115.546 Y70.587 E0.40215
G1 X134.371 Y70.587 E0.59027
G1 X134.371 Y84.587 E0.43896
G1 X159.371 Y84.587 E0.78386
G1 X159.371 Y86.663 E0.06509
G1 X152.371 Y86.663 E0.21948
G1 X152.371 Y87.311 E0.02031
G1 X151.694 Y87.311 E0.02122
G1 X150.431 Y89.500 E0.07926
G1 X151.694 Y91.689 E0.07926
G1 X152.371 Y91.689 E0.02122
G1 X152.371 Y92.337 E0.02031
G1 X159.371 Y92.337 E0.21948
G1 X159.371 Y117.663 E0.79407
G1 X152.371 Y117.663 E0.21948
G1 X152.371 Y118.311 E0.02031
G1 X151.694 Y118.311 E0.02122
G1 X150.431 Y120.500 E0.07926
G1 X151.694 Y122.689 E0.07926
G1 X152.371 Y122.689 E0.02122
G1 X152.371 Y123.337 E0.02031
G1 X159.371 Y123.337 E0.21948
G1 X159.371 Y125.413 E0.06509
G1 X134.371 Y125.413 E0.78386
G1 X134.371 Y139.413 E0.43896
G1 X115.546 Y139.413 E0.59027
G1 X115.546 Y126.587 E0.40215
G1 X118.546 Y126.587 E0.09406
G1 X118.546 Y83.473 E1.35181
G1 X118.168 Y83.790 F10800.000
G1 F1200
G1 X115.168 Y83.790 E0.09406
G1 X115.168 Y70.210 E0.42579
G1 X134.748 Y70.210 E0.61392
G1 X134.748 Y84.210 E0.43896
G1 X159.748 Y84.210 E0.78386
G1 X159.748 Y87.040 E0.08873
G1 X152.748 Y87.040 E0.21948
G1 X152.748 Y87.688 E0.02031
G1 X151.912 Y87.688 E0.02622
G1 X150.866 Y89.500 E0.06561
G1 X151.912 Y91.312 E0.06561
G1 X152.748 Y91.312 E0.02622
G1 X152.748 Y91.960 E0.02031
G1 X159.748 Y91.960 E0.21948
G1 X159.748 Y118.040 E0.81772
G1 X152.748 Y118.040 E0.21948
G1 X152.748 Y118.688 E0.02031
G1 X151.912 Y118.688 E0.02622
G1 X150.866 Y120.500 E0.06561
G1 X151.912 Y122.312 E0.06561
G1 X152.748 Y122.312 E0.02622
G1 X152.748 Y122.960 E0.02031
G1 X159.748 Y122.960 E0.21948
G1 X159.748 Y125.790 E0.08873
G1 X134.748 Y125.790 E0.78386
G1 X134.748 Y139.790 E0.43896
G1 X115.168 Y139.790 E0.61392
G1 X115.168 Y126.210 E0.42579
G1 X118.168 Y126.210 E0.09406
G1 X118.168 Y83.850 E1.32817
G1 X118.178 Y83.390 F10800.000
G1 F8640
G1 X115.168 Y83.790 E-0.69285
G1 F8640
G1 X115.168 Y83.499 E-0.06715
G1 E-0.04000 F2100.00000
G1 Z0.600 F10800.000
G1 X118.856 Y86.712 F10800.000
G1 Z0.200 F10800.000
G1 E0.80000 F2100.00000
G1 F1200
G1 X126.102 Y79.467 E0.32158
G1 X125.190 Y79.844 E0.03095
G1 X118.856 Y86.179 E0.28114
G1 X118.856 Y85.645 E0.01675
G1 X124.279 Y80.222 E0.24070
G1 X124.025 Y80.327 E0.00863
G1 X123.753 Y80.214 E0.00924
G1 X118.856 Y85.111 E0.21734
G1 X118.856 Y84.577 E0.01675
G1 X123.376 Y80.058 E0.20059
G1 X122.998 Y79.902 E0.01282
G1 X118.856 Y84.044 E0.18384
G1 X118.856 Y83.510 E0.01675
G1 X122.621 Y79.745 E0.16709
G1 X122.243 Y79.589 E0.01282
G1 X118.730 Y83.103 E0.15594
G1 X118.196 Y83.103 E0.01675
G1 X121.866 Y79.433 E0.16288
G1 X121.625 Y79.333 E0.00817
G1 X121.569 Y79.196 E0.00465
G1 X117.662 Y83.103 E0.17338
G1 X117.128 Y83.103 E0.01675
G1 X121.412 Y78.819 E0.19013
G1 X121.256 Y78.441 E0.01282
G1 X116.595 Y83.103 E0.20688
G1 X116.061 Y83.103 E0.01675
G1 X121.100 Y78.064 E0.22363
G1 X120.943 Y77.686 E0.01282
G1 X115.856 Y82.774 E0.22579
G1 X115.856 Y82.240 E0.01675
G1 X120.787 Y77.309 E0.21885
G1 X120.633 Y76.929 E0.01287
G1 X115.856 Y81.706 E0.21204
G1 X115.856 Y81.172 E0.01675
G1 X121.011 Y76.017 E0.22879
G1 X121.388 Y75.106 E0.03095
G1 X115.856 Y80.639 E0.24554
G1 X115.856 Y80.105 E0.01675
G1 F8640
G1 X115.856 Y80.639 E-0.12325
G1 F8640
G1 X117.806 Y78.689 E-0.63676
G1 E-0.04000 F2100.00000
G1 Z0.600 F10800.000
G1 X115.990 Y70.897 F10800.000
G1 Z0.200 F10800.000
G1 E0.80000 F2100.00000
G1 F1200
G1 X115.856 Y71.031 E0.00593
G1 X115.856 Y71.565 E0.01675
G1 X116.523 Y70.897 E0.02962
G1 X117.057 Y70.897 E0.01675
G1 X115.856 Y72.099 E0.05331
G1 X115.856 Y72.632 E0.01675
G1 X117.591 Y70.897 E0.07700
G1 X118.125 Y70.897 E0.01675
G1 X115.856 Y73.166 E0.10069
G1 X115.856 Y73.700 E0.01675
G1 X118.658 Y70.897 E0.12438
G1 X119.192 Y70.897 E0.01675
G1 X115.856 Y74.234 E0.14807
G1 X115.856 Y74.767 E0.01675
G1 X119.726 Y70.897 E0.17176
G1 X120.260 Y70.897 E0.01675
G1 X115.856 Y75.301 E0.19544
G1 X115.856 Y75.835 E0.01675
G1 X120.793 Y70.897 E0.21913
G1 X121.327 Y70.897 E0.01675
G1 X115.856 Y76.369 E0.24282
G1 X115.856 Y76.902 E0.01675
G1 X121.861 Y70.897 E0.26651
G1 X122.395 Y70.897 E0.01675
G1 X115.856 Y77.436 E0.29020
G1 X115.856 Y77.970 E0.01675
G1 X122.928 Y70.897 E0.31389
G1 X123.462 Y70.897 E0.01675
G1 X115.856 Y78.504 E0.33758
G1 X115.856 Y79.037 E0.01675
G1 X123.996 Y70.897 E0.36127
G1 X124.530 Y70.897 E0.01675
G1 X115.856 Y79.571 E0.38495
G1 X115.856 Y80.105 E0.01675
G1 X125.063 Y70.897 E0.40864
G1 X125.597 Y70.897 E0.01675
G1 X122.065 Y74.430 E0.15677
G1 X122.976 Y74.052 E0.03095
G1 X126.131 Y70.897 E0.14002
G1 X126.665 Y70.897 E0.01675
G1 X123.887 Y73.675 E0.12327
G1 X124.267 Y73.829 E0.01287
G1 X127.198 Y70.897 E0.13009
G1 X127.732 Y70.897 E0.01675
G1 X124.645 Y73.985 E0.13703
G1 X125.022 Y74.141 E0.01282
G1 X128.266 Y70.897 E0.14397
G1 X128.800 Y70.897 E0.01675
G1 X125.400 Y74.298 E0.15090
G1 X125.777 Y74.454 E0.01282
G1 X129.333 Y70.897 E0.15784
G1 X129.867 Y70.897 E0.01675
G1 X126.154 Y74.610 E0.16478
G1 X126.291 Y74.667 E0.00465
G1 X126.391 Y74.907 E0.00817
G1 X130.401 Y70.897 E0.17797
G1 X130.935 Y70.897 E0.01675
G1 X126.547 Y75.285 E0.19472
G1 X126.704 Y75.662 E0.01282
G1 X131.468 Y70.897 E0.21147
G1 X132.002 Y70.897 E0.01675
G1 X126.860 Y76.040 E0.22822
G1 X127.016 Y76.417 E0.01282
G1 X132.536 Y70.897 E0.24497
G1 X133.070 Y70.897 E0.01675
G1 X127.173 Y76.795 E0.26172
G1 X127.285 Y77.067 E0.00924
G1 X127.180 Y77.321 E0.00863
G1 X133.603 Y70.897 E0.28508
G1 X134.061 Y70.897 E0.01436
G1 X134.061 Y70.974 E0.00239
G1 X126.803 Y78.232 E0.32214
G1 X126.425 Y79.143 E0.03095
G1 X134.061 Y71.507 E0.33889
G1 X134.061 Y72.041 E0.01675
G1 X118.856 Y87.246 E0.67483
G1 X118.856 Y87.780 E0.01675
G1 X134.061 Y72.575 E0.67483
G1 X134.061 Y73.109 E0.01675
G1 X118.856 Y88.314 E0.67483
G1 X118.856 Y88.848 E0.01675
G1 X134.061 Y73.642 E0.67483
G1 X134.061 Y74.176 E0.01675
G1 X118.856 Y89.381 E0.67483
G1 X118.856 Y89.915 E0.01675
G1 X134.061 Y74.710 E0.67483
G1 X134.061 Y75.244 E0.01675
G1 X122.304 Y87.000 E0.52178
G1 X122.838 Y87.000 E0.01675
G1 X134.061 Y75.777 E0.49809
G1 X134.061 Y76.311 E0.01675
G1 X123.372 Y87.000 E0.47440
G1 X123.906 Y87.000 E0.01675
G1 X134.061 Y76.845 E0.45071
G1 X134.061 Y77.379 E0.01675
G1 X124.439 Y87.000 E0.42703
G1 X124.873 Y87.000 E0.01362
G1 X124.910 Y87.064 E0.00229
G1 X134.061 Y77.912 E0.40614
G1 X134.061 Y78.446 E0.01675
G1 X125.105 Y87.402 E0.39747
G1 X125.301 Y87.740 E0.01226
G1 X134.061 Y78.980 E0.38880
G1 X134.061 Y79.514 E0.01675
G1 X125.496 Y88.079 E0.38013
G1 X125.691 Y88.417 E0.01226
G1 X134.061 Y80.047 E0.37146
G1 X134.061 Y80.581 E0.01675
G1 X125.887 Y88.755 E0.36279
G1 X126.082 Y89.094 E0.01226
G1 X134.061 Y81.115 E0.35412
G1 X134.061 Y81.649 E0.01675
G1 X126.277 Y89.432 E0.34545
G1 X126.355 Y89.567 E0.00487
G1 X125.916 Y90.328 E0.02758
G1 X134.061 Y82.183 E0.36151
G1 X134.061 Y82.716 E0.01675
G1 X125.186 Y91.591 E0.39387
G1 F8640
G1 X127.514 Y89.263 E-0.76000
G1 E-0.04000 F2100.00000
G1 Z0.600 F10800.000
G1 X121.505 Y87.800 F10800.000
G1 Z0.200 F10800.000
G1 E0.80000 F2100.00000
G1 F1200
G1 X118.856 Y90.449 E0.11757
G1 X118.856 Y90.983 E0.01675
G1 X120.776 Y89.063 E0.08521
G1 X120.562 Y89.433 E0.01344
G1 X120.700 Y89.672 E0.00866
G1 X118.856 Y91.516 E0.08184
G1 X118.856 Y92.050 E0.01675
G1 X120.895 Y90.011 E0.09051
G1 X121.091 Y90.349 E0.01226
G1 X118.856 Y92.584 E0.09918
G1 X118.856 Y93.118 E0.01675
G1 X121.286 Y90.688 E0.10785
G1 X121.481 Y91.026 E0.01226
G1 X118.856 Y93.651 E0.11652
G1 X118.856 Y94.185 E0.01675
G1 X121.677 Y91.364 E0.12519
G1 X121.872 Y91.703 E0.01226
G1 X118.856 Y94.719 E0.13386
G1 X118.856 Y95.253 E0.01675
G1 X122.109 Y92.000 E0.14437
G1 X122.643 Y92.000 E0.01675
G1 X118.856 Y95.786 E0.16806
G1 X118.856 Y96.320 E0.01675
G1 X123.176 Y92.000 E0.19175
G1 X123.710 Y92.000 E0.01675
G1 X118.856 Y96.854 E0.21544
G1 X118.856 Y97.388 E0.01675
G1 X124.244 Y92.000 E0.23913
G1 X124.778 Y92.000 E0.01675
G1 X118.856 Y97.921 E0.26281
G1 X118.856 Y98.455 E0.01675
G1 X134.061 Y83.250 E0.67483
G1 X134.061 Y83.784 E0.01675
G1 X118.856 Y98.989 E0.67483
G1 X118.856 Y99.523 E0.01675
G1 X134.061 Y84.318 E0.67483
G1 X134.061 Y84.851 E0.01675
G1 X118.856 Y100.056 E0.67483
G1 X118.856 Y100.590 E0.01675
G1 X134.549 Y84.897 E0.69646
G1 X135.082 Y84.897 E0.01675
G1 X118.856 Y101.124 E0.72015
