; generated by Slic3r 1.3.0 on 2021-07-19 at 16:36:45

; Filament notes: 
; Affordable filament for everyday printing in premium quality manufactured in-house by Josef Prusa
; 
; Printer Config Notes: 
; Don't remove the following keywords! These keywords are used in the "compatible printer" condition of the print and filament profiles to link the particular print and filament profiles to this printer profile.
; PRINTER_VENDOR_PRUSA3D
; PRINTER_MODEL_MK3
; 
; external perimeters extrusion width = 0.45mm (2.19mm^3/s)
; perimeters extrusion width = 0.45mm (3.76mm^3/s)
; infill extrusion width = 0.45mm (12.53mm^3/s)
; solid infill extrusion width = 0.45mm (12.53mm^3/s)
; top infill extrusion width = 0.40mm (2.76mm^3/s)

M107
;M862.3 P "[printer_model]" ; printer model check
M862.1 P0.4 ; nozzle diameter check
M115 U3.10.0 ; tell printer latest fw version
G90 ; use absolute coordinates
M83 ; extruder relative mode
M104 S215 ; set extruder temp
M140 S60 ; set bed temp
M190 S60 ; wait for bed temp
M109 S215 ; wait for extruder temp
G28 W ; home all without mesh bed level
G80 ; mesh bed leveling
G1 Y-3.0 F1000.0 ; go outside print area
G92 E0.0
G1 X60.0 E9.0 F1000.0 ; intro line
G1 X100.0 E12.5 F1000.0 ; intro line
G92 E0.0
M221 S100{else}95{endif}

; Don't change E values below. Excessive value can damage the printer.
M907 E430 ; set extruder motor current{endif}
M907 E538 ; set extruder motor current{endif}
M900 K0.12{elsif printer_notes=~/.*PRINTER_MODEL_MINI.*/ and nozzle_diameter[0]==0.8}0.06{elsif printer_notes=~/.*PRINTER_MODEL_MINI.*/}0.2{elsif nozzle_diameter[0]==0.8}0.01{elsif nozzle_diameter[0]==0.6}0.04{else}0.05{endif} ; Filament gcode LA 1.5
;{elsif printer_notes=~/.*PRINTER_HAS_BOWDEN.*/}M900 K200{elsif nozzle_diameter[0]==0.6}M900 K18{elsif nozzle_diameter[0]==0.8};{else}M900 K30{endif} ; Filament gcode LA 1.0
G21 ; set units to millimeters
G90 ; use absolute coordinates
M83 ; use relative distances for extrusion
;BEFORE_LAYER_CHANGE
G92 E0.0
;0.2


G1 E-0.80000 F2100.00000
G1 Z0.400 F10800.000
;AFTER_LAYER_CHANGE
;0.2
G1 X42.076 Y77.465 F10800.000
G1 Z0.200 F10800.000
G1 E0.80000 F2100.00000
M201 X1000 Y1000
M204 P1000 T1000
G1 F1200
G1 X54.276 Y69.965 E0.44902
G1 X54.531 Y69.829 E0.00905
G1 X78.531 Y58.829 E0.82778
G1 X79.521 Y58.613 E0.03178
G1 X96.521 Y58.613 E0.53302
G1 X97.078 Y58.679 E0.01759
G1 X207.236 Y85.231 E3.55283
G1 X208.415 Y85.918 E0.04278
G1 X209.056 Y87.542 E0.05474
G1 X209.056 Y117.542 E0.94063
G1 X208.664 Y118.849 E0.04278
G1 X207.895 Y119.584 E0.03337
G1 X155.053 Y151.052 E1.92836
G1 X153.837 Y151.387 E0.03955
G1 X131.712 Y151.384 E0.69371
G1 X55.396 Y147.364 E2.39614
G1 X54.111 Y146.904 E0.04278
G1 X53.219 Y145.582 E0.05003
G1 X41.019 Y98.082 E1.53767
G1 X40.944 Y97.490 E0.01869
G1 X40.944 Y79.490 E0.56438
G1 X41.336 Y78.183 E0.04278
G1 X42.033 Y77.507 E0.03046
G1 F8640
G1 X44.836 Y75.781 E-0.76000
G1 E-0.04000 F2100.00000
G1 Z0.600 F10800.000
G1 X134.392 Y144.010 F10800.000
G1 Z0.200 F10800.000
G1 E0.80000 F2100.00000
G1 F1200
G1 X134.512 Y143.254 E0.02398
G1 X134.859 Y142.573 E0.02398
G1 X135.400 Y142.032 E0.02398
G1 X136.081 Y141.685 E0.02398
G1 X136.824 Y141.568 E0.02356
G1 X137.591 Y141.684 E0.02432
G1 X138.274 Y142.032 E0.02404
G1 X138.814 Y142.573 E0.02398
G1 X139.162 Y143.254 E0.02398
G1 X139.281 Y144.010 E0.02398
G1 X139.162 Y144.765 E0.02398
G1 X138.814 Y145.447 E0.02398
G1 X138.274 Y145.987 E0.02398
G1 X137.592 Y146.335 E0.02398
G1 X136.837 Y146.454 E0.02398
G1 X136.081 Y146.335 E0.02398
G1 X135.400 Y145.987 E0.02398
G1 X134.859 Y145.447 E0.02398
G1 X134.512 Y144.765 E0.02398
G1 X134.402 Y144.069 E0.02210
G1 X134.774 Y144.010 F10800.000
G1 F1200
G1 X134.875 Y143.372 E0.02023
G1 X135.168 Y142.797 E0.02023
G1 X135.624 Y142.341 E0.02023
G1 X136.199 Y142.048 E0.02023
G1 X136.825 Y141.949 E0.01985
G1 X137.474 Y142.048 E0.02058
G1 X138.049 Y142.341 E0.02025
G1 X138.505 Y142.797 E0.02023
G1 X138.798 Y143.372 E0.02023
G1 X138.899 Y144.010 E0.02023
G1 X138.798 Y144.647 E0.02023
G1 X138.505 Y145.222 E0.02023
G1 X138.049 Y145.679 E0.02023
G1 X137.474 Y145.972 E0.02023
G1 X136.837 Y146.072 E0.02023
G1 X136.199 Y145.972 E0.02023
G1 X135.624 Y145.679 E0.02023
G1 X135.168 Y145.222 E0.02023
G1 X134.875 Y144.647 E0.02023
G1 X134.784 Y144.069 E0.01835
G1 X134.428 Y143.810 F10800.000
G1 F8640
G1 X134.875 Y143.372 E-0.16225
G1 F8640
G1 X135.168 Y142.797 E-0.14901
G1 F8640
G1 X135.624 Y142.341 E-0.14901
G1 F8640
G1 X136.199 Y142.048 E-0.14901
G1 F8640
G1 X136.825 Y141.949 E-0.14618
G1 F8640
G1 X136.844 Y141.952 E-0.00455
G1 E-0.04000 F2100.00000
G1 Z0.600 F10800.000
G1 X146.392 Y144.010 F10800.000
G1 Z0.200 F10800.000
G1 E0.80000 F2100.00000
G1 F1200
G1 X146.512 Y143.254 E0.02398
G1 X146.859 Y142.573 E0.02398
G1 X147.400 Y142.032 E0.02398
G1 X148.081 Y141.685 E0.02398
G1 X148.824 Y141.568 E0.02356
G1 X149.591 Y141.684 E0.02433
G1 X150.274 Y142.032 E0.02404
G1 X150.814 Y142.573 E0.02398
G1 X151.162 Y143.254 E0.02398
G1 X151.281 Y144.010 E0.02398
G1 X151.162 Y144.765 E0.02398
G1 X150.814 Y145.447 E0.02398
G1 X150.274 Y145.987 E0.02398
G1 X149.592 Y146.335 E0.02398
G1 X148.837 Y146.454 E0.02398
G1 X148.081 Y146.335 E0.02398
G1 X147.400 Y145.987 E0.02398
G1 X146.859 Y145.447 E0.02398
G1 X146.512 Y144.765 E0.02398
G1 X146.402 Y144.069 E0.02210
G1 X146.774 Y144.010 F10800.000
G1 F1200
G1 X146.875 Y143.372 E0.02023
G1 X147.168 Y142.797 E0.02023
G1 X147.624 Y142.341 E0.02023
G1 X148.199 Y142.048 E0.02023
G1 X148.825 Y141.949 E0.01985
G1 X149.474 Y142.048 E0.02058
G1 X150.049 Y142.341 E0.02025
G1 X150.505 Y142.797 E0.02023
G1 X150.798 Y143.372 E0.02023
G1 X150.899 Y144.010 E0.02023
G1 X150.798 Y144.647 E0.02023
G1 X150.505 Y145.222 E0.02023
G1 X150.049 Y145.679 E0.02023
G1 X149.474 Y145.972 E0.02023
G1 X148.837 Y146.072 E0.02023
G1 X148.199 Y145.972 E0.02023
G1 X147.624 Y145.679 E0.02023
G1 X147.168 Y145.222 E0.02023
G1 X146.875 Y144.647 E0.02023
G1 X146.784 Y144.069 E0.01835
G1 X146.428 Y143.810 F10800.000
G1 F8640
G1 X146.875 Y143.372 E-0.16224
G1 F8640
G1 X147.168 Y142.797 E-0.14901
G1 F8640
G1 X147.624 Y142.341 E-0.14901
G1 F8640
G1 X148.199 Y142.048 E-0.14900
G1 F8640
G1 X148.825 Y141.949 E-0.14619
G1 F8640
G1 X148.844 Y141.952 E-0.00454
G1 E-0.04000 F2100.00000
G1 Z0.600 F10800.000
G1 X153.250 Y139.597 F10800.000
G1 Z0.200 F10800.000
G1 E0.80000 F2100.00000
G1 F1200
G1 X153.250 Y148.423 E0.27673
G1 X132.424 Y148.423 E0.65298
G1 X132.424 Y139.597 E0.27673
G1 X153.190 Y139.597 E0.65110
G1 X153.627 Y139.220 F10800.000
G1 F1200
G1 X153.627 Y148.800 E0.30037
G1 X132.047 Y148.800 E0.67663
G1 X132.047 Y139.220 E0.30037
G1 X153.567 Y139.220 E0.67474
G1 X153.477 Y139.591 F10800.000
G1 F8640
G1 X153.587 Y142.511 E-0.76000
G1 E-0.04000 F2100.00000
G1 Z0.600 F10800.000
G1 X151.270 Y145.318 F10800.000
G1 Z0.200 F10800.000
G1 E0.80000 F2100.00000
G1 F1200
G1 X152.939 Y143.649 E0.07511
G1 X152.939 Y143.108 E0.01722
G1 X151.526 Y144.521 E0.06361
G1 X151.596 Y144.076 E0.01434
G1 X151.573 Y143.933 E0.00464
G1 X152.939 Y142.567 E0.06146
G1 X152.939 Y142.026 E0.01722
G1 X151.500 Y143.465 E0.06479
G1 X151.458 Y143.203 E0.00845
G1 X151.378 Y143.046 E0.00562
G1 X152.939 Y141.484 E0.07027
G1 X152.939 Y140.943 E0.01722
G1 X151.195 Y142.687 E0.07849
G1 X151.057 Y142.415 E0.00971
G1 X150.991 Y142.350 E0.00294
G1 X152.939 Y140.402 E0.08767
G1 X152.939 Y139.907 E0.01574
G1 X152.893 Y139.907 E0.00148
G1 X150.721 Y142.079 E0.09775
G1 X150.450 Y141.809 E0.01218
G1 X152.351 Y139.907 E0.08557
G1 X151.810 Y139.907 E0.01722
G1 X150.098 Y141.620 E0.07707
G1 X149.739 Y141.437 E0.01280
G1 X151.269 Y139.907 E0.06885
G1 X150.728 Y139.907 E0.01722
G1 X149.300 Y141.335 E0.06427
G1 X148.830 Y141.264 E0.01512
G1 X150.187 Y139.907 E0.06105
G1 X149.645 Y139.907 E0.01722
G1 X148.214 Y141.338 E0.06440
G1 X147.897 Y141.389 E0.01023
G1 X147.338 Y141.673 E0.01995
G1 X149.104 Y139.907 E0.07947
G1 X148.563 Y139.907 E0.01722
G1 X140.358 Y148.112 E0.36924
G1 X139.817 Y148.112 E0.01722
G1 X148.022 Y139.907 E0.36924
G1 X147.481 Y139.907 E0.01722
G1 X139.275 Y148.112 E0.36924
G1 X138.734 Y148.112 E0.01722
G1 X146.939 Y139.907 E0.36924
G1 X146.398 Y139.907 E0.01722
G1 X138.193 Y148.112 E0.36924
G1 X137.652 Y148.112 E0.01722
G1 X145.857 Y139.907 E0.36924
G1 X145.316 Y139.907 E0.01722
G1 X137.111 Y148.112 E0.36924
G1 X136.569 Y148.112 E0.01722
G1 X138.335 Y146.346 E0.07947
G1 X137.777 Y146.631 E0.01995
G1 X137.459 Y146.681 E0.01023
G1 X136.028 Y148.112 E0.06440
G1 X135.487 Y148.112 E0.01722
G1 X136.840 Y146.759 E0.06089
G1 X136.373 Y146.685 E0.01505
G1 X134.946 Y148.112 E0.06422
G1 X134.405 Y148.112 E0.01722
G1 X135.935 Y146.582 E0.06885
G1 X135.576 Y146.400 E0.01280
G1 X133.863 Y148.112 E0.07707
G1 X133.322 Y148.112 E0.01722
G1 X135.224 Y146.211 E0.08557
G1 X134.953 Y145.940 E0.01218
G1 X132.781 Y148.112 E0.09775
G1 X132.734 Y148.112 E0.00149
G1 X132.734 Y147.618 E0.01574
G1 X134.682 Y145.670 E0.08767
G1 X134.617 Y145.604 E0.00294
G1 X134.478 Y145.332 E0.00971
G1 X132.734 Y147.077 E0.07849
G1 X132.734 Y146.535 E0.01722
G1 X134.296 Y144.974 E0.07027
G1 X134.216 Y144.817 E0.00562
G1 X134.174 Y144.554 E0.00845
G1 X132.734 Y145.994 E0.06480
G1 X132.734 Y145.453 E0.01722
G1 X134.100 Y144.087 E0.06147
G1 X134.077 Y143.943 E0.00464
G1 X134.148 Y143.498 E0.01433
G1 X132.734 Y144.912 E0.06361
G1 X132.734 Y144.371 E0.01722
G1 X134.403 Y142.702 E0.07511
G1 F8640
G1 X132.734 Y144.371 E-0.54501
G1 F8640
G1 X132.734 Y144.912 E-0.12497
G1 F8640
G1 X133.010 Y144.636 E-0.09002
G1 E-0.04000 F2100.00000
G1 Z0.600 F10800.000
G1 X132.868 Y139.907 F10800.000
G1 Z0.200 F10800.000
G1 E0.80000 F2100.00000
G1 F1200
G1 X132.734 Y140.041 E0.00601
G1 X132.734 Y140.582 E0.01722
G1 X133.409 Y139.907 E0.03036
G1 X133.950 Y139.907 E0.01722
G1 X132.734 Y141.123 E0.05472
G1 X132.734 Y141.664 E0.01722
G1 X134.491 Y139.907 E0.07908
G1 X135.033 Y139.907 E0.01722
G1 X132.734 Y142.206 E0.10343
G1 X132.734 Y142.747 E0.01722
G1 X135.574 Y139.907 E0.12779
G1 X136.115 Y139.907 E0.01722
G1 X132.734 Y143.288 E0.15214
G1 X132.734 Y143.829 E0.01722
G1 X136.656 Y139.907 E0.17650
G1 X137.197 Y139.907 E0.01722
G1 X135.529 Y141.576 E0.07511
G1 X135.897 Y141.389 E0.01315
G1 X136.325 Y141.321 E0.01380
G1 X137.739 Y139.907 E0.06361
G1 X138.280 Y139.907 E0.01722
G1 X136.911 Y141.276 E0.06160
G1 X137.381 Y141.348 E0.01512
G1 X138.821 Y139.907 E0.06482
G1 X139.362 Y139.907 E0.01722
G1 X137.801 Y141.469 E0.07027
G1 X138.159 Y141.651 E0.01280
G1 X139.904 Y139.907 E0.07849
G1 X140.445 Y139.907 E0.01722
G1 X138.497 Y141.855 E0.08767
G1 X138.767 Y142.126 E0.01218
G1 X140.986 Y139.907 E0.09985
G1 X141.527 Y139.907 E0.01722
G1 X139.038 Y142.397 E0.11203
G1 X139.227 Y142.749 E0.01272
G1 X142.068 Y139.907 E0.12789
G1 X142.610 Y139.907 E0.01722
G1 X139.409 Y143.108 E0.14402
G1 X139.458 Y143.203 E0.00341
G1 X139.512 Y143.546 E0.01104
G1 X143.151 Y139.907 E0.16374
G1 X143.692 Y139.907 E0.01722
G1 X139.586 Y144.013 E0.18477
G1 X139.596 Y144.076 E0.00204
G1 X139.508 Y144.632 E0.01791
G1 X144.233 Y139.907 E0.21264
G1 X144.774 Y139.907 E0.01722
G1 X139.173 Y145.508 E0.25206
G1 F8640
G1 X141.501 Y143.181 E-0.76000
G1 E-0.04000 F2100.00000
G1 Z0.600 F10800.000
G1 X146.500 Y142.511 F10800.000
G1 Z0.200 F10800.000
G1 E0.80000 F2100.00000
G1 F1200
G1 X140.899 Y148.112 E0.25206
G1 X141.440 Y148.112 E0.01722
G1 X146.165 Y143.387 E0.21263
G1 X146.077 Y143.943 E0.01790
G1 X146.087 Y144.007 E0.00204
G1 X141.982 Y148.112 E0.18477
G1 X142.523 Y148.112 E0.01722
G1 X146.161 Y144.474 E0.16374
G1 X146.216 Y144.817 E0.01104
G1 X146.264 Y144.912 E0.00341
G1 X143.064 Y148.112 E0.14402
G1 X143.605 Y148.112 E0.01722
G1 X146.447 Y145.271 E0.12788
G1 X146.636 Y145.623 E0.01272
G1 X144.146 Y148.112 E0.11202
G1 X144.688 Y148.112 E0.01722
G1 X146.906 Y145.894 E0.09985
G1 X147.177 Y146.164 E0.01218
G1 X145.229 Y148.112 E0.08767
G1 X145.770 Y148.112 E0.01722
G1 X147.514 Y146.368 E0.07849
G1 X147.873 Y146.551 E0.01280
G1 X146.311 Y148.112 E0.07027
G1 X146.852 Y148.112 E0.01722
G1 X148.292 Y146.673 E0.06479
G1 X148.760 Y146.747 E0.01505
G1 X147.394 Y148.112 E0.06147
G1 X147.935 Y148.112 E0.01722
G1 X149.348 Y146.699 E0.06361
G1 X149.777 Y146.631 E0.01380
G1 X150.145 Y146.443 E0.01316
G1 X148.476 Y148.112 E0.07511
G1 X149.017 Y148.112 E0.01722
G1 X152.939 Y144.190 E0.17650
G1 X152.939 Y144.732 E0.01722
G1 X149.559 Y148.112 E0.15214
G1 X150.100 Y148.112 E0.01722
G1 X152.939 Y145.273 E0.12778
G1 X152.939 Y145.814 E0.01722
G1 X150.641 Y148.112 E0.10343
G1 X151.182 Y148.112 E0.01722
G1 X152.939 Y146.355 E0.07907
G1 X152.939 Y146.896 E0.01722
G1 X151.723 Y148.112 E0.05472
G1 X152.265 Y148.112 E0.01722
G1 X152.939 Y147.438 E0.03036
G1 X152.939 Y147.979 E0.01722
G1 X152.806 Y148.112 E0.00601
G1 F8640
G1 X152.939 Y147.979 E-0.04358
G1 F8640
G1 X152.939 Y147.438 E-0.12497
G1 F8640
G1 X152.265 Y148.112 E-0.22031
G1 F8640
G1 X151.723 Y148.112 E-0.12497
G1 F8640
G1 X152.477 Y147.358 E-0.24617
G1 E-0.04000 F2100.00000
G1 Z0.600 F10800.000
G1 X152.630 Y129.943 F10800.000
G1 Z0.200 F10800.000
G1 E0.80000 F2100.00000
G1 F1200
G1 X151.875 Y129.823 E0.02398
G1 X151.193 Y129.476 E0.02398
G1 X150.652 Y128.935 E0.02398
G1 X150.311 Y128.266 E0.02356
G1 X150.185 Y127.500 E0.02433
G1 X150.305 Y126.743 E0.02404
G1 X150.652 Y126.062 E0.02398
G1 X151.193 Y125.521 E0.02398
G1 X151.875 Y125.174 E0.02398
G1 X152.617 Y125.056 E0.02356
G1 X153.384 Y125.173 E0.02432
G1 X154.067 Y125.521 E0.02404
G1 X154.608 Y126.062 E0.02398
G1 X154.955 Y126.743 E0.02398
G1 X155.074 Y127.499 E0.02398
G1 X154.955 Y128.254 E0.02398
G1 X154.608 Y128.935 E0.02398
G1 X154.067 Y129.476 E0.02398
G1 X153.385 Y129.823 E0.02398
G1 X152.689 Y129.934 E0.02210
G1 X152.630 Y129.561 F10800.000
G1 F1200
G1 X151.993 Y129.460 E0.02023
G1 X151.418 Y129.167 E0.02023
G1 X150.961 Y128.711 E0.02023
G1 X150.674 Y128.147 E0.01985
G1 X150.567 Y127.499 E0.02058
G1 X150.668 Y126.861 E0.02025
G1 X150.961 Y126.286 E0.02023
G1 X151.418 Y125.830 E0.02023
G1 X151.993 Y125.537 E0.02023
G1 X152.618 Y125.438 E0.01985
G1 X153.267 Y125.537 E0.02058
G1 X153.842 Y125.830 E0.02025
G1 X154.299 Y126.286 E0.02023
G1 X154.592 Y126.861 E0.02023
G1 X154.693 Y127.499 E0.02023
G1 X154.592 Y128.136 E0.02023
G1 X154.299 Y128.711 E0.02023
G1 X153.842 Y129.167 E0.02023
G1 X153.267 Y129.460 E0.02023
G1 X152.689 Y129.552 E0.01835
G1 X152.430 Y129.908 F10800.000
G1 F8640
G1 X151.993 Y129.460 E-0.16224
G1 F8640
G1 X151.418 Y129.167 E-0.14901
G1 F8640
G1 X150.961 Y128.711 E-0.14901
G1 F8640
G1 X150.674 Y128.147 E-0.14618
G1 F8640
G1 X150.567 Y127.499 E-0.15156
G1 F8640
G1 X150.569 Y127.491 E-0.00200
G1 E-0.04000 F2100.00000
G1 Z0.600 F10800.000
G1 X142.955 Y128.254 F10800.000
G1 Z0.200 F10800.000
G1 E0.80000 F2100.00000
G1 F1200
G1 X142.608 Y128.935 E0.02398
G1 X142.067 Y129.476 E0.02398
G1 X141.385 Y129.823 E0.02398
G1 X140.630 Y129.943 E0.02398
G1 X139.875 Y129.823 E0.02398
G1 X139.193 Y129.476 E0.02398
G1 X138.652 Y128.935 E0.02398
G1 X138.305 Y128.254 E0.02398
G1 X138.186 Y127.499 E0.02398
G1 X138.305 Y126.743 E0.02398
G1 X138.652 Y126.062 E0.02398
G1 X139.193 Y125.521 E0.02398
G1 X139.875 Y125.174 E0.02398
G1 X140.617 Y125.056 E0.02356
G1 X141.384 Y125.173 E0.02432
G1 X142.067 Y125.521 E0.02404
G1 X142.608 Y126.062 E0.02398
G1 X142.955 Y126.743 E0.02398
G1 X143.074 Y127.499 E0.02398
G1 X142.964 Y128.195 E0.02210
G1 X142.592 Y128.136 F10800.000
G1 F1200
G1 X142.299 Y128.711 E0.02023
G1 X141.842 Y129.167 E0.02023
G1 X141.267 Y129.460 E0.02023
G1 X140.630 Y129.561 E0.02023
G1 X139.993 Y129.460 E0.02023
G1 X139.418 Y129.167 E0.02023
G1 X138.961 Y128.711 E0.02023
G1 X138.668 Y128.136 E0.02023
G1 X138.567 Y127.499 E0.02023
G1 X138.668 Y126.861 E0.02023
G1 X138.961 Y126.286 E0.02023
G1 X139.418 Y125.830 E0.02023
G1 X139.993 Y125.537 E0.02023
G1 X140.618 Y125.438 E0.01985
G1 X141.267 Y125.537 E0.02058
G1 X141.842 Y125.830 E0.02025
G1 X142.299 Y126.286 E0.02023
G1 X142.592 Y126.861 E0.02023
G1 X142.693 Y127.499 E0.02023
G1 X142.601 Y128.077 E0.01835
G1 X142.859 Y128.433 F10800.000
G1 F8640
G1 X142.299 Y128.711 E-0.16224
G1 F8640
G1 X141.842 Y129.167 E-0.14901
G1 F8640
G1 X141.267 Y129.460 E-0.14901
G1 F8640
G1 X140.630 Y129.561 E-0.14901
