; generated by Slic3r 1.3.0 on 2021-07-17 at 17:21:42

; Filament notes: 
; Affordable filament for everyday printing in premium quality manufactured in-house by Josef Prusa
; 
; Printer Config Notes: 
; Don't remove the following keywords! These keywords are used in the "compatible printer" condition of the print and filament profiles to link the particular print and filament profiles to this printer profile.
; PRINTER_VENDOR_PRUSA3D
; PRINTER_MODEL_MK3
; 
; external perimeters extrusion width = 0.45mm (2.19mm^3/s)
; perimeters extrusion width = 0.45mm (3.76mm^3/s)
; infill extrusion width = 0.45mm (12.53mm^3/s)
; solid infill extrusion width = 0.45mm (12.53mm^3/s)
; top infill extrusion width = 0.40mm (2.76mm^3/s)

M107
;M862.3 P "[printer_model]" ; printer model check
M862.1 P0.4 ; nozzle diameter check
M115 U3.10.0 ; tell printer latest fw version
G90 ; use absolute coordinates
M83 ; extruder relative mode
M104 S215 ; set extruder temp
M140 S60 ; set bed temp
M190 S60 ; wait for bed temp
M109 S215 ; wait for extruder temp
G28 W ; home all without mesh bed level
G80 ; mesh bed leveling
G1 Y-3.0 F1000.0 ; go outside print area
G92 E0.0
G1 X60.0 E9.0 F1000.0 ; intro line
G1 X100.0 E12.5 F1000.0 ; intro line
G92 E0.0
M221 S100{else}95{endif}

; Don't change E values below. Excessive value can damage the printer.
M907 E430 ; set extruder motor current{endif}
M907 E538 ; set extruder motor current{endif}
M900 K0.12{elsif printer_notes=~/.*PRINTER_MODEL_MINI.*/ and nozzle_diameter[0]==0.8}0.06{elsif printer_notes=~/.*PRINTER_MODEL_MINI.*/}0.2{elsif nozzle_diameter[0]==0.8}0.01{elsif nozzle_diameter[0]==0.6}0.04{else}0.05{endif} ; Filament gcode LA 1.5
;{elsif printer_notes=~/.*PRINTER_HAS_BOWDEN.*/}M900 K200{elsif nozzle_diameter[0]==0.6}M900 K18{elsif nozzle_diameter[0]==0.8};{else}M900 K30{endif} ; Filament gcode LA 1.0
G21 ; set units to millimeters
G90 ; use absolute coordinates
M83 ; use relative distances for extrusion
;BEFORE_LAYER_CHANGE
G92 E0.0
;0.2


G1 E-0.80000 F2100.00000
G1 Z0.400 F10800.000
;AFTER_LAYER_CHANGE
;0.2
G1 X93.015 Y94.193 F10800.000
G1 Z0.200 F10800.000
G1 E0.80000 F2100.00000
M201 X1000 Y1000
M204 P1000 T1000
G1 F1200
G1 X94.060 Y93.317 E0.04278
G1 X95.000 Y93.123 E0.03008
G1 X155.000 Y93.123 E1.88126
G1 X156.307 Y93.515 E0.04278
G1 X157.183 Y94.560 E0.04278
G1 X157.377 Y95.500 E0.03008
G1 X157.377 Y114.500 E0.59573
G1 X156.985 Y115.807 E0.04278
G1 X155.940 Y116.683 E0.04278
G1 X155.000 Y116.877 E0.03008
G1 X95.000 Y116.877 E1.88126
G1 X93.693 Y116.485 E0.04278
G1 X92.817 Y115.440 E0.04278
G1 X92.623 Y114.500 E0.03008
G1 X92.623 Y95.500 E0.59573
G1 X92.997 Y94.250 E0.04090
G1 F8640
G1 X94.060 Y93.317 E-0.32671
G1 F8640
G1 X95.000 Y93.123 E-0.22155
G1 F8640
G1 X95.917 Y93.123 E-0.21174
G1 E-0.04000 F2100.00000
G1 Z0.600 F10800.000
G1 X107.066 Y107.795 F10800.000
G1 Z0.200 F10800.000
G1 E0.80000 F2100.00000
G1 F1200
G1 X106.815 Y107.998 E0.01013
G1 X106.544 Y108.174 E0.01014
G1 X106.256 Y108.321 E0.01014
G1 X105.954 Y108.437 E0.01013
G1 X105.642 Y108.520 E0.01013
G1 X105.323 Y108.571 E0.01014
G1 X105.000 Y108.588 E0.01013
G1 X104.677 Y108.571 E0.01013
G1 X104.358 Y108.520 E0.01014
G1 X104.046 Y108.437 E0.01013
G1 X103.744 Y108.321 E0.01013
G1 X103.456 Y108.174 E0.01014
G1 X103.185 Y107.998 E0.01013
G1 X102.934 Y107.795 E0.01013
G1 X102.705 Y107.566 E0.01014
G1 X102.502 Y107.315 E0.01013
G1 X102.326 Y107.044 E0.01014
G1 X102.179 Y106.756 E0.01013
G1 X102.063 Y106.454 E0.01013
G1 X101.980 Y106.142 E0.01013
G1 X101.929 Y105.823 E0.01014
G1 X101.912 Y105.500 E0.01013
G1 X101.929 Y105.177 E0.01013
G1 X101.980 Y104.858 E0.01014
G1 X102.063 Y104.546 E0.01013
G1 X102.179 Y104.244 E0.01013
G1 X102.326 Y103.956 E0.01013
G1 X102.502 Y103.685 E0.01014
G1 X102.705 Y103.434 E0.01013
G1 X102.934 Y103.205 E0.01014
G1 X103.185 Y103.002 E0.01013
G1 X103.456 Y102.826 E0.01013
G1 X103.744 Y102.679 E0.01014
G1 X104.046 Y102.563 E0.01013
G1 X104.358 Y102.480 E0.01013
G1 X104.677 Y102.429 E0.01014
G1 X104.993 Y102.412 E0.00990
G1 X105.322 Y102.429 E0.01034
G1 X105.642 Y102.480 E0.01016
G1 X105.954 Y102.563 E0.01013
G1 X106.256 Y102.679 E0.01013
G1 X106.544 Y102.826 E0.01014
G1 X106.815 Y103.002 E0.01014
G1 X107.066 Y103.205 E0.01013
G1 X107.295 Y103.434 E0.01014
G1 X107.498 Y103.685 E0.01013
G1 X107.674 Y103.956 E0.01014
G1 X107.821 Y104.244 E0.01014
G1 X107.937 Y104.546 E0.01013
G1 X108.020 Y104.858 E0.01013
G1 X108.071 Y105.177 E0.01014
G1 X108.088 Y105.500 E0.01013
G1 X108.071 Y105.823 E0.01013
G1 X108.020 Y106.142 E0.01014
G1 X107.937 Y106.454 E0.01013
G1 X107.821 Y106.756 E0.01013
G1 X107.674 Y107.044 E0.01014
G1 X107.498 Y107.315 E0.01014
G1 X107.295 Y107.566 E0.01013
G1 X107.109 Y107.752 E0.00826
G1 X106.814 Y107.514 F10800.000
G1 F1200
G1 X106.593 Y107.693 E0.00889
G1 X106.355 Y107.847 E0.00890
G1 X106.102 Y107.976 E0.00890
G1 X105.837 Y108.078 E0.00889
G1 X105.564 Y108.151 E0.00889
G1 X105.283 Y108.195 E0.00890
G1 X105.000 Y108.210 E0.00889
G1 X104.717 Y108.195 E0.00889
G1 X104.436 Y108.151 E0.00890
G1 X104.162 Y108.078 E0.00889
G1 X103.898 Y107.976 E0.00889
G1 X103.645 Y107.847 E0.00890
G1 X103.407 Y107.693 E0.00890
G1 X103.186 Y107.514 E0.00889
G1 X102.986 Y107.314 E0.00890
G1 X102.807 Y107.093 E0.00889
G1 X102.653 Y106.855 E0.00890
G1 X102.524 Y106.602 E0.00890
G1 X102.422 Y106.337 E0.00889
G1 X102.349 Y106.064 E0.00889
G1 X102.305 Y105.783 E0.00890
G1 X102.290 Y105.500 E0.00889
G1 X102.305 Y105.217 E0.00889
G1 X102.349 Y104.936 E0.00890
G1 X102.422 Y104.663 E0.00889
G1 X102.524 Y104.398 E0.00889
G1 X102.653 Y104.145 E0.00890
G1 X102.807 Y103.907 E0.00890
G1 X102.986 Y103.686 E0.00889
G1 X103.186 Y103.486 E0.00890
G1 X103.407 Y103.307 E0.00889
G1 X103.645 Y103.153 E0.00890
G1 X103.898 Y103.024 E0.00890
G1 X104.162 Y102.922 E0.00889
G1 X104.436 Y102.849 E0.00889
G1 X104.717 Y102.805 E0.00890
G1 X104.993 Y102.790 E0.00868
G1 X105.283 Y102.805 E0.00910
G1 X105.564 Y102.849 E0.00891
G1 X105.837 Y102.922 E0.00889
G1 X106.102 Y103.024 E0.00889
G1 X106.355 Y103.153 E0.00890
G1 X106.593 Y103.307 E0.00890
G1 X106.814 Y103.486 E0.00889
G1 X107.014 Y103.686 E0.00890
G1 X107.193 Y103.907 E0.00889
G1 X107.347 Y104.145 E0.00890
G1 X107.476 Y104.398 E0.00890
G1 X107.578 Y104.663 E0.00889
G1 X107.651 Y104.936 E0.00889
G1 X107.695 Y105.217 E0.00890
G1 X107.710 Y105.500 E0.00889
G1 X107.695 Y105.783 E0.00889
G1 X107.651 Y106.064 E0.00890
G1 X107.578 Y106.337 E0.00889
G1 X107.476 Y106.602 E0.00889
G1 X107.347 Y106.855 E0.00890
G1 X107.193 Y107.093 E0.00890
G1 X107.014 Y107.314 E0.00889
G1 X106.856 Y107.472 E0.00702
G1 X106.872 Y107.792 F10800.000
G1 F8640
G1 X106.593 Y107.693 E-0.07927
G1 F8640
G1 X106.355 Y107.847 E-0.06552
G1 F8640
G1 X106.102 Y107.976 E-0.06552
G1 F8640
G1 X105.837 Y108.078 E-0.06549
G1 F8640
G1 X105.564 Y108.151 E-0.06549
G1 F8640
G1 X105.283 Y108.195 E-0.06552
G1 F8640
G1 X105.000 Y108.210 E-0.06550
G1 F8640
G1 X104.717 Y108.195 E-0.06550
G1 F8640
G1 X104.436 Y108.151 E-0.06551
G1 F8640
G1 X104.162 Y108.078 E-0.06550
G1 F8640
G1 X103.898 Y107.976 E-0.06549
G1 F8640
G1 X103.799 Y107.926 E-0.02568
G1 E-0.04000 F2100.00000
G1 Z0.600 F10800.000
G1 X141.929 Y105.823 F10800.000
G1 Z0.200 F10800.000
G1 E0.80000 F2100.00000
G1 F1200
G1 X141.912 Y105.500 E0.01013
G1 X141.929 Y105.177 E0.01013
G1 X141.980 Y104.858 E0.01014
G1 X142.063 Y104.546 E0.01013
G1 X142.179 Y104.244 E0.01013
G1 X142.326 Y103.956 E0.01014
G1 X142.502 Y103.685 E0.01014
G1 X142.705 Y103.434 E0.01013
G1 X142.934 Y103.205 E0.01014
G1 X143.185 Y103.002 E0.01013
G1 X143.456 Y102.826 E0.01014
G1 X143.744 Y102.679 E0.01014
G1 X144.046 Y102.563 E0.01013
G1 X144.358 Y102.480 E0.01013
G1 X144.677 Y102.429 E0.01014
G1 X144.993 Y102.412 E0.00990
G1 X145.322 Y102.429 E0.01034
G1 X145.642 Y102.480 E0.01016
G1 X145.954 Y102.563 E0.01013
G1 X146.256 Y102.679 E0.01013
G1 X146.544 Y102.826 E0.01014
G1 X146.815 Y103.002 E0.01014
G1 X147.066 Y103.205 E0.01013
G1 X147.295 Y103.434 E0.01014
G1 X147.498 Y103.685 E0.01013
G1 X147.674 Y103.956 E0.01014
G1 X147.821 Y104.244 E0.01014
G1 X147.937 Y104.546 E0.01013
G1 X148.020 Y104.858 E0.01013
G1 X148.071 Y105.177 E0.01014
G1 X148.088 Y105.500 E0.01013
G1 X148.071 Y105.823 E0.01013
G1 X148.020 Y106.142 E0.01014
G1 X147.937 Y106.454 E0.01013
G1 X147.821 Y106.756 E0.01013
G1 X147.674 Y107.044 E0.01014
G1 X147.498 Y107.315 E0.01014
G1 X147.295 Y107.566 E0.01013
G1 X147.066 Y107.795 E0.01014
G1 X146.815 Y107.998 E0.01013
G1 X146.544 Y108.174 E0.01014
G1 X146.256 Y108.321 E0.01014
G1 X145.954 Y108.437 E0.01013
G1 X145.642 Y108.520 E0.01013
G1 X145.323 Y108.571 E0.01014
G1 X145.000 Y108.588 E0.01013
G1 X144.677 Y108.571 E0.01013
G1 X144.358 Y108.520 E0.01014
G1 X144.046 Y108.437 E0.01013
G1 X143.744 Y108.321 E0.01013
G1 X143.456 Y108.174 E0.01014
G1 X143.185 Y107.998 E0.01014
G1 X142.934 Y107.795 E0.01013
G1 X142.705 Y107.566 E0.01014
G1 X142.502 Y107.315 E0.01013
G1 X142.326 Y107.044 E0.01014
G1 X142.179 Y106.756 E0.01014
G1 X142.063 Y106.454 E0.01013
G1 X141.980 Y106.142 E0.01013
G1 X141.938 Y105.882 E0.00826
G1 X142.305 Y105.783 F10800.000
G1 F1200
G1 X142.290 Y105.500 E0.00889
G1 X142.305 Y105.217 E0.00889
G1 X142.349 Y104.936 E0.00890
G1 X142.422 Y104.663 E0.00889
G1 X142.524 Y104.398 E0.00889
G1 X142.653 Y104.145 E0.00890
G1 X142.807 Y103.907 E0.00890
G1 X142.986 Y103.686 E0.00889
G1 X143.186 Y103.486 E0.00890
G1 X143.407 Y103.307 E0.00889
G1 X143.645 Y103.153 E0.00890
G1 X143.898 Y103.024 E0.00890
G1 X144.163 Y102.922 E0.00889
G1 X144.436 Y102.849 E0.00889
G1 X144.717 Y102.805 E0.00890
G1 X144.993 Y102.790 E0.00868
G1 X145.283 Y102.805 E0.00910
G1 X145.564 Y102.849 E0.00891
G1 X145.837 Y102.922 E0.00889
G1 X146.102 Y103.024 E0.00889
G1 X146.355 Y103.153 E0.00890
G1 X146.593 Y103.307 E0.00890
G1 X146.814 Y103.486 E0.00889
G1 X147.014 Y103.686 E0.00890
G1 X147.193 Y103.907 E0.00889
G1 X147.347 Y104.145 E0.00890
G1 X147.476 Y104.398 E0.00890
G1 X147.578 Y104.663 E0.00889
G1 X147.651 Y104.936 E0.00889
G1 X147.695 Y105.217 E0.00890
G1 X147.710 Y105.500 E0.00889
G1 X147.695 Y105.783 E0.00889
G1 X147.651 Y106.064 E0.00890
G1 X147.578 Y106.337 E0.00889
G1 X147.476 Y106.602 E0.00889
G1 X147.347 Y106.855 E0.00890
G1 X147.193 Y107.093 E0.00890
G1 X147.014 Y107.314 E0.00889
G1 X146.814 Y107.514 E0.00890
G1 X146.593 Y107.693 E0.00889
G1 X146.355 Y107.847 E0.00890
G1 X146.102 Y107.976 E0.00890
G1 X145.837 Y108.078 E0.00889
G1 X145.564 Y108.151 E0.00889
G1 X145.283 Y108.195 E0.00890
G1 X145.000 Y108.210 E0.00889
G1 X144.717 Y108.195 E0.00889
G1 X144.436 Y108.151 E0.00890
G1 X144.163 Y108.078 E0.00889
G1 X143.898 Y107.976 E0.00889
G1 X143.645 Y107.847 E0.00890
G1 X143.407 Y107.693 E0.00890
G1 X143.186 Y107.514 E0.00889
G1 X142.986 Y107.314 E0.00890
G1 X142.807 Y107.093 E0.00889
G1 X142.653 Y106.855 E0.00890
G1 X142.524 Y106.602 E0.00890
G1 X142.422 Y106.337 E0.00889
G1 X142.349 Y106.064 E0.00889
G1 X142.314 Y105.843 E0.00702
G1 X142.045 Y105.668 F10800.000
G1 F8640
G1 X142.290 Y105.500 E-0.07929
G1 F8640
G1 X142.305 Y105.217 E-0.06550
G1 F8640
G1 X142.349 Y104.936 E-0.06552
G1 F8640
G1 X142.422 Y104.663 E-0.06549
G1 F8640
G1 X142.524 Y104.398 E-0.06549
G1 F8640
G1 X142.653 Y104.145 E-0.06552
G1 F8640
G1 X142.807 Y103.907 E-0.06552
G1 F8640
G1 X142.986 Y103.686 E-0.06548
G1 F8640
G1 X143.186 Y103.486 E-0.06553
G1 F8640
G1 X143.407 Y103.307 E-0.06548
G1 F8640
G1 X143.645 Y103.153 E-0.06552
G1 F8640
G1 X143.744 Y103.102 E-0.02566
G1 E-0.04000 F2100.00000
G1 Z0.600 F10800.000
G1 X154.413 Y113.913 F10800.000
G1 Z0.200 F10800.000
G1 E0.80000 F2100.00000
G1 F1200
G1 X95.587 Y113.913 E1.84444
G1 X95.587 Y96.087 E0.55892
G1 X154.413 Y96.087 E1.84444
G1 X154.413 Y113.853 E0.55704
G1 X154.790 Y114.290 F10800.000
G1 F1200
G1 X95.210 Y114.290 E1.86809
G1 X95.210 Y95.710 E0.58256
G1 X154.790 Y95.710 E1.86809
G1 X154.790 Y114.230 E0.58068
G1 X154.392 Y114.250 F10800.000
G1 F8640
G1 X151.499 Y114.233 E-0.76000
G1 E-0.04000 F2100.00000
G1 Z0.600 F10800.000
G1 X153.969 Y113.603 F10800.000
G1 Z0.200 F10800.000
G1 E0.80000 F2100.00000
G1 F1200
G1 X154.103 Y113.469 E0.00596
G1 X154.103 Y112.932 E0.01694
G1 X153.432 Y113.603 E0.02991
G1 X152.896 Y113.603 E0.01694
G1 X154.103 Y112.396 E0.05387
G1 X154.103 Y111.859 E0.01694
G1 X152.359 Y113.603 E0.07782
G1 X151.822 Y113.603 E0.01694
G1 X154.103 Y111.322 E0.10177
G1 X154.103 Y110.785 E0.01694
G1 X151.285 Y113.603 E0.12573
G1 X150.749 Y113.603 E0.01694
G1 X154.103 Y110.249 E0.14968
G1 X154.103 Y109.712 E0.01694
G1 X150.212 Y113.603 E0.17364
G1 X149.675 Y113.603 E0.01694
G1 X154.103 Y109.175 E0.19759
G1 X154.103 Y108.638 E0.01694
G1 X149.138 Y113.603 E0.22155
G1 X148.602 Y113.603 E0.01694
G1 X154.103 Y108.102 E0.24550
G1 X154.103 Y107.565 E0.01694
G1 X148.065 Y113.603 E0.26946
G1 X147.528 Y113.603 E0.01694
G1 X154.103 Y107.028 E0.29341
G1 X154.103 Y106.491 E0.01694
G1 X146.991 Y113.603 E0.31736
G1 X146.455 Y113.603 E0.01694
G1 X154.103 Y105.955 E0.34132
G1 X154.103 Y105.418 E0.01694
G1 X145.918 Y113.603 E0.36527
G1 X145.381 Y113.603 E0.01694
G1 X154.103 Y104.881 E0.38923
G1 X154.103 Y104.345 E0.01694
G1 X144.845 Y113.603 E0.41318
G1 X144.308 Y113.603 E0.01694
G1 X154.103 Y103.808 E0.43714
G1 X154.103 Y103.271 E0.01694
G1 X143.771 Y113.603 E0.46109
G1 X143.234 Y113.603 E0.01694
G1 X154.103 Y102.734 E0.48505
G1 X154.103 Y102.198 E0.01694
G1 X142.698 Y113.603 E0.50900
G1 X142.161 Y113.603 E0.01694
G1 X154.103 Y101.661 E0.53295
G1 X154.103 Y101.124 E0.01694
G1 X147.942 Y107.285 E0.27494
G1 X148.099 Y106.976 E0.01093
G1 X148.229 Y106.638 E0.01144
G1 X148.294 Y106.396 E0.00789
G1 X154.103 Y100.587 E0.25924
G1 X154.103 Y100.051 E0.01694
G1 X148.388 Y105.765 E0.25502
G1 X148.399 Y105.567 E0.00626
G1 X148.381 Y105.235 E0.01048
G1 X154.103 Y99.514 E0.25533
G1 X154.103 Y98.977 E0.01694
G1 X148.304 Y104.776 E0.25878
G1 X148.179 Y104.364 E0.01357
G1 X154.103 Y98.440 E0.26438
G1 X154.103 Y97.904 E0.01694
G1 X148.015 Y103.991 E0.27169
G1 X147.817 Y103.653 E0.01238
G1 X154.103 Y97.367 E0.28053
G1 X154.103 Y96.830 E0.01694
G1 X147.588 Y103.345 E0.29076
G1 X147.328 Y103.068 E0.01198
G1 X153.999 Y96.397 E0.29769
G1 X153.462 Y96.397 E0.01694
G1 X147.040 Y102.819 E0.28661
G1 X146.721 Y102.601 E0.01219
G1 X152.925 Y96.397 E0.27687
G1 X152.388 Y96.397 E0.01694
G1 X146.371 Y102.415 E0.26856
G1 X145.984 Y102.265 E0.01310
G1 X151.852 Y96.397 E0.26188
G1 X151.315 Y96.397 E0.01694
G1 X145.552 Y102.161 E0.25721
G1 X145.294 Y102.120 E0.00822
G1 X145.067 Y102.109 E0.00718
G1 X150.778 Y96.397 E0.25489
G1 X150.241 Y96.397 E0.01694
G1 X144.509 Y102.130 E0.25584
G1 X144.213 Y102.177 E0.00946
G1 X143.812 Y102.290 E0.01315
G1 X149.705 Y96.397 E0.26300
G1 X149.168 Y96.397 E0.01694
G1 X131.963 Y113.603 E0.76786
G1 X131.426 Y113.603 E0.01694
G1 X148.631 Y96.397 E0.76786
G1 X148.094 Y96.397 E0.01694
G1 X130.889 Y113.603 E0.76786
G1 X130.353 Y113.603 E0.01694
G1 X147.558 Y96.397 E0.76786
G1 X147.021 Y96.397 E0.01694
G1 X129.816 Y113.603 E0.76786
G1 X129.279 Y113.603 E0.01694
G1 X146.484 Y96.397 E0.76786
G1 X145.947 Y96.397 E0.01694
G1 X128.742 Y113.603 E0.76786
G1 X128.206 Y113.603 E0.01694
G1 X145.411 Y96.397 E0.76786
G1 X144.874 Y96.397 E0.01694
G1 X127.669 Y113.603 E0.76786
G1 X127.132 Y113.603 E0.01694
G1 X144.337 Y96.397 E0.76786
G1 X143.801 Y96.397 E0.01694
G1 X126.595 Y113.603 E0.76786
G1 X126.059 Y113.603 E0.01694
G1 X143.264 Y96.397 E0.76786
G1 X142.727 Y96.397 E0.01694
G1 X125.522 Y113.603 E0.76786
G1 X124.985 Y113.603 E0.01694
G1 X142.190 Y96.397 E0.76786
G1 X141.654 Y96.397 E0.01694
G1 X124.449 Y113.603 E0.76786
G1 X123.912 Y113.603 E0.01694
G1 X141.117 Y96.397 E0.76786
G1 X140.580 Y96.397 E0.01694
G1 X123.375 Y113.603 E0.76786
G1 X122.838 Y113.603 E0.01694
G1 X140.043 Y96.397 E0.76786
G1 X139.507 Y96.397 E0.01694
G1 X122.302 Y113.603 E0.76786
G1 X121.765 Y113.603 E0.01694
G1 X138.970 Y96.397 E0.76786
G1 X138.433 Y96.397 E0.01694
G1 X121.228 Y113.603 E0.76786
G1 X120.691 Y113.603 E0.01694
G1 X137.896 Y96.397 E0.76786
G1 X137.360 Y96.397 E0.01694
G1 X120.155 Y113.603 E0.76786
G1 X119.618 Y113.603 E0.01694
G1 X136.823 Y96.397 E0.76786
G1 X136.286 Y96.397 E0.01694
G1 X119.081 Y113.603 E0.76786
