; generated by Slic3r 1.3.0 on 2021-07-27 at 17:31:59

; Filament notes: 
; Affordable filament for everyday printing in premium quality manufactured in-house by Josef Prusa
; 
; Printer Config Notes: 
; Don't remove the following keywords! These keywords are used in the "compatible printer" condition of the print and filament profiles to link the particular print and filament profiles to this printer profile.
; PRINTER_VENDOR_PRUSA3D
; PRINTER_MODEL_MK3
; 
; external perimeters extrusion width = 0.45mm (2.19mm^3/s)
; perimeters extrusion width = 0.45mm (3.76mm^3/s)
; infill extrusion width = 0.45mm (12.53mm^3/s)
; solid infill extrusion width = 0.45mm (12.53mm^3/s)
; top infill extrusion width = 0.40mm (2.76mm^3/s)

M107
;M862.3 P "[printer_model]" ; printer model check
M862.1 P0.4 ; nozzle diameter check
M115 U3.10.0 ; tell printer latest fw version
G90 ; use absolute coordinates
M83 ; extruder relative mode
M104 S215 ; set extruder temp
M140 S60 ; set bed temp
M190 S60 ; wait for bed temp
M109 S215 ; wait for extruder temp
G28 W ; home all without mesh bed level
G80 ; mesh bed leveling
G1 Y-3.0 F1000.0 ; go outside print area
G92 E0.0
G1 X60.0 E9.0 F1000.0 ; intro line
G1 X100.0 E12.5 F1000.0 ; intro line
G92 E0.0
M221 S100{else}95{endif}

; Don't change E values below. Excessive value can damage the printer.
M907 E430 ; set extruder motor current{endif}
M907 E538 ; set extruder motor current{endif}
M900 K0.12{elsif printer_notes=~/.*PRINTER_MODEL_MINI.*/ and nozzle_diameter[0]==0.8}0.06{elsif printer_notes=~/.*PRINTER_MODEL_MINI.*/}0.2{elsif nozzle_diameter[0]==0.8}0.01{elsif nozzle_diameter[0]==0.6}0.04{else}0.05{endif} ; Filament gcode LA 1.5
;{elsif printer_notes=~/.*PRINTER_HAS_BOWDEN.*/}M900 K200{elsif nozzle_diameter[0]==0.6}M900 K18{elsif nozzle_diameter[0]==0.8};{else}M900 K30{endif} ; Filament gcode LA 1.0
G21 ; set units to millimeters
G90 ; use absolute coordinates
M83 ; use relative distances for extrusion
;BEFORE_LAYER_CHANGE 0.2
G92 E0.0

G1 E-0.80000 F2100.00000
G1 Z0.400 F10800.000
;AFTER_LAYER_CHANGE 0.2
G1 X96.687 Y75.513 F10800.000
G1 Z0.200 F10800.000
G1 E0.80000 F2100.00000
M201 X1000 Y1000
M204 P1000 T1000
G1 F1200
G1 X98.020 Y74.535 E0.05185
G1 X130.675 Y65.214 E1.06478
G1 X131.328 Y65.123 E0.02065
G1 X151.328 Y65.123 E0.62709
G1 X152.635 Y65.515 E0.04278
G1 X153.511 Y66.560 E0.04278
G1 X153.705 Y67.500 E0.03008
G1 X153.705 Y142.500 E2.35157
G1 X153.313 Y143.807 E0.04278
G1 X152.268 Y144.683 E0.04278
G1 X151.328 Y144.877 E0.03008
G1 X131.328 Y144.877 E0.62709
G1 X129.972 Y144.452 E0.04455
G1 X97.316 Y121.773 E1.24660
G1 X96.466 Y120.706 E0.04278
G1 X96.295 Y119.820 E0.02827
G1 X96.295 Y76.820 E1.34823
G1 X96.670 Y75.571 E0.04090
G1 F8640
G1 X98.020 Y74.535 E-0.39302
G1 F8640
G1 X99.548 Y74.098 E-0.36698
G1 E-0.04000 F2100.00000
G1 Z0.600 F10800.000
G1 X144.337 Y93.237 F10800.000
G1 Z0.200 F10800.000
G1 E0.80000 F2100.00000
G1 F1200
G1 X142.516 Y94.765 E0.07453
G1 X140.139 Y94.765 E0.07453
G1 X138.319 Y93.237 E0.07453
G1 X137.906 Y90.897 E0.07453
G1 X139.094 Y88.838 E0.07453
G1 X141.328 Y88.025 E0.07453
G1 X143.561 Y88.838 E0.07453
G1 X144.750 Y90.897 E0.07453
G1 X144.347 Y93.178 E0.07264
G1 X143.989 Y93.037 F10800.000
G1 F1200
G1 X142.379 Y94.388 E0.06592
G1 X140.277 Y94.388 E0.06592
G1 X138.666 Y93.037 E0.06592
G1 X138.301 Y90.966 E0.06592
G1 X139.352 Y89.146 E0.06592
G1 X141.328 Y88.427 E0.06592
G1 X143.303 Y89.146 E0.06592
G1 X144.355 Y90.966 E0.06592
G1 X144.000 Y92.978 E0.06404
G1 X144.189 Y93.383 F10800.000
G1 F8640
G1 X142.379 Y94.388 E-0.49614
G1 F8640
G1 X141.236 Y94.388 E-0.26386
G1 E-0.04000 F2100.00000
G1 Z0.600 F10800.000
G1 X142.516 Y77.765 F10800.000
G1 Z0.200 F10800.000
G1 E0.80000 F2100.00000
G1 F1200
G1 X140.139 Y77.765 E0.07453
G1 X138.319 Y76.237 E0.07453
G1 X137.906 Y73.897 E0.07453
G1 X139.094 Y71.838 E0.07453
G1 X141.328 Y71.025 E0.07453
G1 X143.561 Y71.838 E0.07452
G1 X144.750 Y73.897 E0.07453
G1 X144.337 Y76.237 E0.07453
G1 X142.562 Y77.727 E0.07264
G1 X142.379 Y77.388 F10800.000
G1 F1200
G1 X140.277 Y77.388 E0.06592
G1 X138.666 Y76.037 E0.06592
G1 X138.301 Y73.966 E0.06592
G1 X139.352 Y72.146 E0.06592
G1 X141.328 Y71.427 E0.06592
G1 X143.303 Y72.146 E0.06592
G1 X144.355 Y73.966 E0.06592
G1 X143.989 Y76.037 E0.06592
G1 X142.425 Y77.350 E0.06404
G1 X142.309 Y77.782 F10800.000
G1 F8640
G1 X140.277 Y77.388 E-0.49614
G1 F8640
G1 X139.401 Y76.654 E-0.26386
G1 E-0.04000 F2100.00000
G1 Z0.600 F10800.000
G1 X150.741 Y68.087 F10800.000
G1 Z0.200 F10800.000
G1 E0.80000 F2100.00000
G1 F1200
G1 X150.741 Y141.913 E2.31476
G1 X131.915 Y141.913 E0.59027
G1 X131.915 Y68.087 E2.31476
G1 X150.681 Y68.087 E0.58839
G1 X151.118 Y67.710 F10800.000
G1 F1200
G1 X151.118 Y142.290 E2.33840
G1 X131.538 Y142.290 E0.61392
G1 X131.538 Y67.710 E2.33840
G1 X151.058 Y67.710 E0.61204
G1 X151.084 Y68.109 F10800.000
G1 F8640
G1 X151.060 Y71.001 E-0.76000
G1 E-0.04000 F2100.00000
G1 Z0.600 F10800.000
G1 X132.359 Y68.397 F10800.000
G1 Z0.200 F10800.000
G1 E0.80000 F2100.00000
G1 F1200
G1 X132.225 Y68.531 E0.00596
G1 X132.225 Y69.067 E0.01690
G1 X132.895 Y68.397 E0.02986
G1 X133.431 Y68.397 E0.01690
G1 X132.225 Y69.603 E0.05376
G1 X132.225 Y70.139 E0.01690
G1 X133.967 Y68.397 E0.07766
G1 X134.503 Y68.397 E0.01690
G1 X132.225 Y70.676 E0.10156
G1 X132.225 Y71.212 E0.01690
G1 X135.040 Y68.397 E0.12546
G1 X135.576 Y68.397 E0.01690
G1 X132.225 Y71.748 E0.14936
G1 X132.225 Y72.284 E0.01690
G1 X136.112 Y68.397 E0.17326
G1 X136.648 Y68.397 E0.01690
G1 X132.225 Y72.820 E0.19716
G1 X132.225 Y73.356 E0.01690
G1 X137.184 Y68.397 E0.22106
G1 X137.720 Y68.397 E0.01690
G1 X132.225 Y73.892 E0.24496
G1 X132.225 Y74.429 E0.01690
G1 X138.256 Y68.397 E0.26887
G1 X138.792 Y68.397 E0.01690
G1 X132.225 Y74.965 E0.29277
G1 X132.225 Y75.501 E0.01690
G1 X139.329 Y68.397 E0.31667
G1 X139.865 Y68.397 E0.01690
G1 X132.225 Y76.037 E0.34057
G1 X132.225 Y76.573 E0.01690
G1 X140.401 Y68.397 E0.36447
G1 X140.937 Y68.397 E0.01690
G1 X132.225 Y77.109 E0.38837
G1 X132.225 Y77.645 E0.01690
G1 X141.473 Y68.397 E0.41227
G1 X142.009 Y68.397 E0.01690
G1 X138.832 Y71.575 E0.14164
G1 X139.675 Y71.268 E0.02828
G1 X142.545 Y68.397 E0.12797
G1 X143.082 Y68.397 E0.01690
G1 X140.518 Y70.961 E0.11429
G1 X141.261 Y70.691 E0.02493
G1 X141.308 Y70.708 E0.00156
G1 X143.618 Y68.397 E0.10298
G1 X144.154 Y68.397 E0.01690
G1 X141.701 Y70.851 E0.10936
G1 X142.094 Y70.994 E0.01319
G1 X144.690 Y68.397 E0.11574
G1 X145.226 Y68.397 E0.01690
G1 X142.487 Y71.137 E0.12212
G1 X142.880 Y71.280 E0.01319
G1 X145.762 Y68.397 E0.12849
G1 X146.298 Y68.397 E0.01690
G1 X143.273 Y71.423 E0.13487
G1 X143.666 Y71.566 E0.01319
G1 X146.835 Y68.397 E0.14125
G1 X147.371 Y68.397 E0.01690
G1 X143.906 Y71.863 E0.15447
G1 X144.102 Y72.202 E0.01237
G1 X147.907 Y68.397 E0.16962
G1 X148.443 Y68.397 E0.01690
G1 X144.298 Y72.542 E0.18478
G1 X144.494 Y72.882 E0.01237
G1 X148.979 Y68.397 E0.19993
G1 X149.515 Y68.397 E0.01690
G1 X144.691 Y73.222 E0.21508
G1 X144.887 Y73.562 E0.01237
G1 X150.051 Y68.397 E0.23023
G1 X150.430 Y68.397 E0.01195
G1 X150.430 Y68.555 E0.00495
G1 X145.075 Y73.910 E0.23872
G1 X144.961 Y74.560 E0.02083
G1 X150.430 Y69.091 E0.24384
G1 X150.430 Y69.627 E0.01690
G1 X144.846 Y75.211 E0.24895
G1 X144.731 Y75.862 E0.02083
G1 X150.430 Y70.163 E0.25407
G1 X150.430 Y70.699 E0.01690
G1 X132.225 Y88.904 E0.81158
G1 X132.225 Y89.440 E0.01690
G1 X150.430 Y71.235 E0.81158
G1 X150.430 Y71.771 E0.01690
G1 X132.225 Y89.977 E0.81158
G1 X132.225 Y90.513 E0.01690
G1 X150.430 Y72.308 E0.81158
G1 X150.430 Y72.844 E0.01690
G1 X132.225 Y91.049 E0.81158
G1 X132.225 Y91.585 E0.01690
G1 X150.430 Y73.380 E0.81158
G1 X150.430 Y73.916 E0.01690
G1 X132.225 Y92.121 E0.81158
G1 X132.225 Y92.657 E0.01690
G1 X150.430 Y74.452 E0.81158
G1 X150.430 Y74.988 E0.01690
G1 X132.225 Y93.193 E0.81158
G1 X132.225 Y93.729 E0.01690
G1 X150.430 Y75.524 E0.81158
G1 X150.430 Y76.061 E0.01690
G1 X132.225 Y94.266 E0.81158
G1 X132.225 Y94.802 E0.01690
G1 X150.430 Y76.597 E0.81158
G1 X150.430 Y77.133 E0.01690
G1 X139.078 Y88.485 E0.50609
G1 X139.921 Y88.178 E0.02828
G1 X150.430 Y77.669 E0.46851
G1 X150.430 Y78.205 E0.01690
G1 X140.764 Y87.872 E0.43093
G1 X141.261 Y87.691 E0.01669
G1 X141.422 Y87.749 E0.00541
G1 X150.430 Y78.741 E0.40158
G1 X150.430 Y79.277 E0.01690
G1 X141.815 Y87.892 E0.38405
G1 X142.208 Y88.035 E0.01319
G1 X150.430 Y79.813 E0.36653
G1 X150.430 Y80.350 E0.01690
G1 X142.601 Y88.178 E0.34901
G1 X142.994 Y88.322 E0.01319
G1 X150.430 Y80.886 E0.33149
G1 X150.430 Y81.422 E0.01690
G1 X143.388 Y88.465 E0.31396
G1 X143.753 Y88.597 E0.01224
G1 X143.767 Y88.622 E0.00088
G1 X150.430 Y81.958 E0.29707
G1 X150.430 Y82.494 E0.01690
G1 X143.963 Y88.962 E0.28832
G1 X144.159 Y89.302 E0.01237
G1 X150.430 Y83.030 E0.27957
G1 X150.430 Y83.566 E0.01690
G1 X144.355 Y89.641 E0.27082
G1 X144.552 Y89.981 E0.01237
G1 X150.430 Y84.103 E0.26207
G1 X150.430 Y84.639 E0.01690
G1 X144.748 Y90.321 E0.25333
G1 X144.944 Y90.661 E0.01237
G1 X150.430 Y85.175 E0.24458
G1 X150.430 Y85.711 E0.01690
G1 X145.042 Y91.099 E0.24021
G1 X144.927 Y91.750 E0.02083
G1 X150.430 Y86.247 E0.24533
G1 X150.430 Y86.783 E0.01690
G1 X144.812 Y92.401 E0.25044
G1 X144.698 Y93.052 E0.02083
G1 X150.430 Y87.319 E0.25556
G1 X150.430 Y87.856 E0.01690
G1 X132.225 Y106.061 E0.81158
G1 X132.225 Y106.597 E0.01690
G1 X150.430 Y88.392 E0.81158
G1 X150.430 Y88.928 E0.01690
G1 X132.225 Y107.133 E0.81158
G1 X132.225 Y107.669 E0.01690
G1 X150.430 Y89.464 E0.81158
G1 X150.430 Y90.000 E0.01690
G1 X132.225 Y108.205 E0.81158
G1 X132.225 Y108.741 E0.01690
G1 X150.430 Y90.536 E0.81158
G1 X150.430 Y91.072 E0.01690
G1 X132.225 Y109.277 E0.81158
G1 X132.225 Y109.814 E0.01690
G1 X150.430 Y91.608 E0.81158
G1 X150.430 Y92.145 E0.01690
G1 X132.225 Y110.350 E0.81158
G1 X132.225 Y110.886 E0.01690
G1 X150.430 Y92.681 E0.81158
G1 X150.430 Y93.217 E0.01690
G1 X132.225 Y111.422 E0.81158
G1 X132.225 Y111.958 E0.01690
G1 X150.430 Y93.753 E0.81158
G1 X150.430 Y94.289 E0.01690
G1 X132.225 Y112.494 E0.81158
G1 X132.225 Y113.030 E0.01690
G1 X150.430 Y94.825 E0.81158
G1 X150.430 Y95.361 E0.01690
G1 X132.225 Y113.566 E0.81158
G1 X132.225 Y114.103 E0.01690
G1 X150.430 Y95.898 E0.81158
G1 X150.430 Y96.434 E0.01690
G1 X132.225 Y114.639 E0.81158
G1 X132.225 Y115.175 E0.01690
G1 X150.430 Y96.970 E0.81158
G1 X150.430 Y97.506 E0.01690
G1 X132.225 Y115.711 E0.81158
G1 X132.225 Y116.247 E0.01690
G1 X150.430 Y98.042 E0.81158
G1 X150.430 Y98.578 E0.01690
G1 X132.225 Y116.783 E0.81158
G1 X132.225 Y117.319 E0.01690
G1 X150.430 Y99.114 E0.81158
G1 X150.430 Y99.651 E0.01690
G1 X132.225 Y117.856 E0.81158
G1 X132.225 Y118.392 E0.01690
G1 X150.430 Y100.187 E0.81158
G1 X150.430 Y100.723 E0.01690
G1 X132.225 Y118.928 E0.81158
G1 X132.225 Y119.464 E0.01690
G1 X150.430 Y101.259 E0.81158
G1 X150.430 Y101.795 E0.01690
G1 X132.225 Y120.000 E0.81158
G1 X132.225 Y120.536 E0.01690
G1 X150.430 Y102.331 E0.81158
G1 X150.430 Y102.867 E0.01690
G1 X132.225 Y121.072 E0.81158
G1 X132.225 Y121.608 E0.01690
G1 X150.430 Y103.403 E0.81158
G1 X150.430 Y103.940 E0.01690
G1 X132.225 Y122.145 E0.81158
G1 X132.225 Y122.681 E0.01690
G1 X150.430 Y104.476 E0.81158
G1 X150.430 Y105.012 E0.01690
G1 X132.225 Y123.217 E0.81158
G1 X132.225 Y123.753 E0.01690
G1 X150.430 Y105.548 E0.81158
G1 X150.430 Y106.084 E0.01690
G1 X132.225 Y124.289 E0.81158
G1 X132.225 Y124.825 E0.01690
G1 X150.430 Y106.620 E0.81158
G1 X150.430 Y107.156 E0.01690
G1 X132.225 Y125.361 E0.81158
G1 X132.225 Y125.898 E0.01690
G1 X150.430 Y107.693 E0.81158
G1 X150.430 Y108.229 E0.01690
G1 X132.225 Y126.434 E0.81158
G1 X132.225 Y126.970 E0.01690
G1 X150.430 Y108.765 E0.81158
G1 X150.430 Y109.301 E0.01690
G1 X132.225 Y127.506 E0.81158
G1 X132.225 Y128.042 E0.01690
G1 X150.430 Y109.837 E0.81158
G1 X150.430 Y110.373 E0.01690
G1 X132.225 Y128.578 E0.81158
G1 X132.225 Y129.114 E0.01690
G1 X150.430 Y110.909 E0.81158
G1 X150.430 Y111.445 E0.01690
G1 X132.225 Y129.651 E0.81158
G1 X132.225 Y130.187 E0.01690
G1 X150.430 Y111.982 E0.81158
G1 X150.430 Y112.518 E0.01690
G1 X132.225 Y130.723 E0.81158
G1 X132.225 Y131.259 E0.01690
G1 X150.430 Y113.054 E0.81158
G1 X150.430 Y113.590 E0.01690
G1 X132.225 Y131.795 E0.81158
G1 X132.225 Y132.331 E0.01690
G1 X150.430 Y114.126 E0.81158
G1 X150.430 Y114.662 E0.01690
G1 X132.225 Y132.867 E0.81158
G1 X132.225 Y133.403 E0.01690
G1 X150.430 Y115.198 E0.81158
G1 X150.430 Y115.735 E0.01690
G1 X132.225 Y133.940 E0.81158
G1 X132.225 Y134.476 E0.01690
G1 X150.430 Y116.271 E0.81158
G1 X150.430 Y116.807 E0.01690
G1 X132.225 Y135.012 E0.81158
G1 X132.225 Y135.548 E0.01690
G1 X150.430 Y117.343 E0.81158
G1 X150.430 Y117.879 E0.01690
G1 X132.225 Y136.084 E0.81158
G1 X132.225 Y136.620 E0.01690
G1 X150.430 Y118.415 E0.81158
G1 X150.430 Y118.951 E0.01690
G1 X132.225 Y137.156 E0.81158
G1 X132.225 Y137.693 E0.01690
G1 X150.430 Y119.488 E0.81158
G1 X150.430 Y120.024 E0.01690
G1 X132.225 Y138.229 E0.81158
G1 X132.225 Y138.765 E0.01690
G1 X150.430 Y120.560 E0.81158
G1 X150.430 Y121.096 E0.01690
G1 X132.225 Y139.301 E0.81158
G1 X132.225 Y139.837 E0.01690
G1 X150.430 Y121.632 E0.81158
G1 X150.430 Y122.168 E0.01690
G1 X132.225 Y140.373 E0.81158
G1 X132.225 Y140.909 E0.01690
G1 X150.430 Y122.704 E0.81158
G1 X150.430 Y123.240 E0.01690
G1 X132.225 Y141.445 E0.81158
G1 X132.225 Y141.603 E0.00495
G1 X132.604 Y141.603 E0.01195
G1 X150.430 Y123.777 E0.79468
G1 X150.430 Y124.313 E0.01690
G1 X133.140 Y141.603 E0.77078
G1 X133.677 Y141.603 E0.01690
G1 X150.430 Y124.849 E0.74688
G1 X150.430 Y125.385 E0.01690
G1 X134.213 Y141.603 E0.72297
G1 X134.749 Y141.603 E0.01690
G1 X150.430 Y125.921 E0.69907
G1 X150.430 Y126.457 E0.01690
G1 X135.285 Y141.603 E0.67517
G1 X135.821 Y141.603 E0.01690
G1 X150.430 Y126.993 E0.65127
G1 X150.430 Y127.530 E0.01690
G1 X136.357 Y141.603 E0.62737
G1 X136.893 Y141.603 E0.01690
G1 X150.430 Y128.066 E0.60347
G1 X150.430 Y128.602 E0.01690
G1 X137.430 Y141.603 E0.57957
G1 X137.966 Y141.603 E0.01690
G1 X150.430 Y129.138 E0.55567
G1 X150.430 Y129.674 E0.01690
G1 X138.502 Y141.603 E0.53177
G1 X139.038 Y141.603 E0.01690
G1 X150.430 Y130.210 E0.50787
G1 X150.430 Y130.746 E0.01690
G1 X139.574 Y141.603 E0.48397
G1 X140.110 Y141.603 E0.01690
G1 X150.430 Y131.282 E0.46007
G1 X150.430 Y131.819 E0.01690
G1 X140.646 Y141.603 E0.43616
G1 X141.183 Y141.603 E0.01690
G1 X150.430 Y132.355 E0.41226
G1 X150.430 Y132.891 E0.01690
G1 X141.719 Y141.603 E0.38836
G1 X142.255 Y141.603 E0.01690
G1 X150.430 Y133.427 E0.36446
G1 X150.430 Y133.963 E0.01690
G1 X142.791 Y141.603 E0.34056
G1 X143.327 Y141.603 E0.01690
G1 X150.430 Y134.499 E0.31666
G1 X150.430 Y135.035 E0.01690
G1 X143.863 Y141.603 E0.29276
G1 X144.399 Y141.603 E0.01690
G1 X150.430 Y135.572 E0.26886
G1 X150.430 Y136.108 E0.01690
G1 X144.935 Y141.603 E0.24496
G1 X145.472 Y141.603 E0.01690
G1 X150.430 Y136.644 E0.22106
G1 X150.430 Y137.180 E0.01690
G1 X146.008 Y141.603 E0.19716
G1 X146.544 Y141.603 E0.01690
G1 X150.430 Y137.716 E0.17326
G1 X150.430 Y138.252 E0.01690
G1 X147.080 Y141.603 E0.14935
G1 X147.616 Y141.603 E0.01690
G1 X150.430 Y138.788 E0.12545
G1 X150.430 Y139.325 E0.01690
G1 X148.152 Y141.603 E0.10155
G1 X148.688 Y141.603 E0.01690
G1 X150.430 Y139.861 E0.07765
G1 X150.430 Y140.397 E0.01690
G1 X149.225 Y141.603 E0.05375
G1 X149.761 Y141.603 E0.01690
G1 X150.430 Y140.933 E0.02985
G1 X150.430 Y141.469 E0.01690
G1 X150.297 Y141.603 E0.00595
G1 F8640
G1 X150.430 Y141.469 E-0.04358
G1 F8640
G1 X150.430 Y140.933 E-0.12380
G1 F8640
G1 X149.761 Y141.603 E-0.21865
G1 F8640
G1 X149.225 Y141.603 E-0.12380
G1 F8640
G1 X149.991 Y140.836 E-0.25018
G1 E-0.04000 F2100.00000
G1 Z0.600 F10800.000
G1 X132.225 Y105.524 F10800.000
G1 Z0.200 F10800.000
G1 E0.80000 F2100.00000
G1 F1200
G1 X142.674 Y95.076 E0.46581
G1 X142.138 Y95.076 E0.01690
G1 X132.225 Y104.988 E0.44191
G1 X132.225 Y104.452 E0.01690
G1 X141.602 Y95.076 E0.41801
G1 X141.066 Y95.076 E0.01690
G1 X132.225 Y103.916 E0.39410
G1 X132.225 Y103.380 E0.01690
G1 X140.530 Y95.076 E0.37020
G1 X140.069 Y95.076 E0.01453
G1 X140.028 Y95.041 E0.00169
G1 X132.225 Y102.844 E0.34784
G1 X132.225 Y102.308 E0.01690
G1 X139.736 Y94.797 E0.33484
G1 X139.445 Y94.552 E0.01200
