; generated by Slic3r 1.3.0 on 2021-08-20 at 17:19:48

; Filament notes: 
; Affordable filament for everyday printing in premium quality manufactured in-house by Josef Prusa
; 
; Printer Config Notes: 
; Don't remove the following keywords! These keywords are used in the "compatible printer" condition of the print and filament profiles to link the particular print and filament profiles to this printer profile.
; PRINTER_VENDOR_PRUSA3D
; PRINTER_MODEL_MK3
; 
; external perimeters extrusion width = 0.45mm (2.19mm^3/s)
; perimeters extrusion width = 0.45mm (3.76mm^3/s)
; infill extrusion width = 0.45mm (12.53mm^3/s)
; solid infill extrusion width = 0.45mm (12.53mm^3/s)
; top infill extrusion width = 0.40mm (2.76mm^3/s)

M107
;M862.3 P "[printer_model]" ; printer model check
M862.1 P0.4 ; nozzle diameter check
M115 U3.10.0 ; tell printer latest fw version
G90 ; use absolute coordinates
M83 ; extruder relative mode
M104 S215 ; set extruder temp
M140 S60 ; set bed temp
M190 S60 ; wait for bed temp
M109 S215 ; wait for extruder temp
G28 W ; home all without mesh bed level
G80 ; mesh bed leveling
G1 Y-3.0 F1000.0 ; go outside print area
G92 E0.0
G1 X60.0 E9.0 F1000.0 ; intro line
G1 X100.0 E12.5 F1000.0 ; intro line
G92 E0.0
M221 S100{else}95{endif}

; Don't change E values below. Excessive value can damage the printer.
M907 E430 ; set extruder motor current{endif}
M907 E538 ; set extruder motor current{endif}
M900 K0.12{elsif printer_notes=~/.*PRINTER_MODEL_MINI.*/ and nozzle_diameter[0]==0.8}0.06{elsif printer_notes=~/.*PRINTER_MODEL_MINI.*/}0.2{elsif nozzle_diameter[0]==0.8}0.01{elsif nozzle_diameter[0]==0.6}0.04{else}0.05{endif} ; Filament gcode LA 1.5
;{elsif printer_notes=~/.*PRINTER_HAS_BOWDEN.*/}M900 K200{elsif nozzle_diameter[0]==0.6}M900 K18{elsif nozzle_diameter[0]==0.8};{else}M900 K30{endif} ; Filament gcode LA 1.0
G21 ; set units to millimeters
G90 ; use absolute coordinates
M83 ; use relative distances for extrusion
;BEFORE_LAYER_CHANGE 0.2
G92 E0.0

G1 E-0.80000 F2100.00000
G1 Z0.400 F10800.000
;AFTER_LAYER_CHANGE 0.2
G1 X108.062 Y68.468 F10800.000
G1 Z0.200 F10800.000
G1 E0.80000 F2100.00000
M201 X1000 Y1000
M204 P1000 T1000
G1 F1200
G1 X108.989 Y67.468 E0.04278
G1 X110.196 Y67.139 E0.03922
G1 X153.196 Y67.139 E1.34823
G1 X154.503 Y67.530 E0.04278
G1 X155.380 Y68.576 E0.04278
G1 X155.571 Y69.403 E0.02661
G1 X157.374 Y107.372 E1.19183
G1 X157.377 Y132.484 E0.78739
G1 X156.985 Y133.791 E0.04278
G1 X155.466 Y134.815 E0.05744
G1 X115.466 Y142.815 E1.27901
G1 X115.000 Y142.861 E0.01469
G1 X95.000 Y142.861 E0.62709
G1 X93.693 Y142.470 E0.04278
G1 X92.817 Y141.424 E0.04278
G1 X92.623 Y140.484 E0.03008
G1 X92.623 Y100.484 E1.25417
G1 X92.866 Y99.437 E0.03371
G1 X108.036 Y68.522 E1.07972
G1 F8640
G1 X108.989 Y67.468 E-0.32835
G1 F8640
G1 X110.196 Y67.139 E-0.28880
G1 F8640
G1 X110.815 Y67.139 E-0.14285
G1 E-0.04000 F2100.00000
G1 Z0.600 F10800.000
G1 X150.366 Y121.199 F10800.000
G1 Z0.200 F10800.000
G1 E0.80000 F2100.00000
G1 F1200
G1 X150.143 Y121.884 E0.02259
G1 X149.783 Y122.507 E0.02255
G1 X149.302 Y123.041 E0.02255
G1 X148.720 Y123.464 E0.02255
G1 X148.063 Y123.756 E0.02255
G1 X147.360 Y123.906 E0.02255
G1 X146.640 Y123.906 E0.02255
G1 X145.937 Y123.756 E0.02255
G1 X145.280 Y123.464 E0.02255
G1 X144.698 Y123.041 E0.02255
G1 X144.217 Y122.507 E0.02255
G1 X143.857 Y121.884 E0.02255
G1 X143.635 Y121.200 E0.02255
G1 X143.561 Y120.497 E0.02214
G1 X143.634 Y119.770 E0.02292
G1 X143.857 Y119.085 E0.02259
G1 X144.217 Y118.462 E0.02255
G1 X144.698 Y117.928 E0.02255
G1 X145.280 Y117.505 E0.02255
G1 X145.937 Y117.212 E0.02255
G1 X146.640 Y117.063 E0.02255
G1 X147.360 Y117.063 E0.02255
G1 X148.063 Y117.212 E0.02255
G1 X148.720 Y117.505 E0.02255
G1 X149.302 Y117.928 E0.02255
G1 X149.783 Y118.462 E0.02255
G1 X150.143 Y119.085 E0.02255
G1 X150.365 Y119.769 E0.02255
G1 X150.439 Y120.471 E0.02214
G1 X150.372 Y121.139 E0.02104
G1 X149.994 Y121.120 F10800.000
G1 F1200
G1 X149.797 Y121.729 E0.02008
G1 X149.477 Y122.284 E0.02007
G1 X149.048 Y122.759 E0.02007
G1 X148.531 Y123.135 E0.02006
G1 X147.946 Y123.396 E0.02007
G1 X147.320 Y123.529 E0.02007
G1 X146.680 Y123.529 E0.02007
G1 X146.054 Y123.396 E0.02007
G1 X145.469 Y123.135 E0.02007
G1 X144.952 Y122.759 E0.02006
G1 X144.523 Y122.284 E0.02007
G1 X144.203 Y121.729 E0.02007
G1 X144.006 Y121.121 E0.02007
G1 X143.940 Y120.497 E0.01968
G1 X144.006 Y119.848 E0.02043
G1 X144.203 Y119.239 E0.02008
G1 X144.523 Y118.685 E0.02007
G1 X144.952 Y118.210 E0.02007
G1 X145.469 Y117.833 E0.02006
G1 X146.054 Y117.573 E0.02007
G1 X146.680 Y117.440 E0.02007
G1 X147.320 Y117.440 E0.02007
G1 X147.946 Y117.573 E0.02007
G1 X148.531 Y117.833 E0.02007
G1 X149.048 Y118.210 E0.02006
G1 X149.477 Y118.685 E0.02007
G1 X149.797 Y119.239 E0.02007
G1 X149.994 Y119.848 E0.02007
G1 X150.060 Y120.472 E0.01968
G1 X150.000 Y121.061 E0.01855
G1 X150.292 Y121.388 F10800.000
G1 F8640
G1 X149.797 Y121.729 E-0.16143
G1 F8640
G1 X149.477 Y122.284 E-0.14777
G1 F8640
G1 X149.048 Y122.759 E-0.14777
G1 F8640
G1 X148.531 Y123.135 E-0.14776
G1 F8640
G1 X147.946 Y123.396 E-0.14777
G1 F8640
G1 X147.914 Y123.402 E-0.00750
G1 E-0.04000 F2100.00000
G1 Z0.600 F10800.000
G1 X130.439 Y120.471 F10800.000
G1 Z0.200 F10800.000
G1 E0.80000 F2100.00000
G1 F1200
G1 X130.366 Y121.199 E0.02292
G1 X130.143 Y121.884 E0.02259
G1 X129.783 Y122.507 E0.02255
G1 X129.302 Y123.041 E0.02255
G1 X128.720 Y123.464 E0.02255
G1 X128.063 Y123.756 E0.02255
G1 X127.360 Y123.906 E0.02255
G1 X126.640 Y123.906 E0.02255
G1 X125.937 Y123.756 E0.02255
G1 X125.280 Y123.464 E0.02255
G1 X124.698 Y123.041 E0.02255
G1 X124.217 Y122.507 E0.02255
G1 X123.857 Y121.884 E0.02255
G1 X123.635 Y121.200 E0.02255
G1 X123.560 Y120.484 E0.02255
G1 X123.635 Y119.769 E0.02255
G1 X123.857 Y119.085 E0.02255
G1 X124.217 Y118.462 E0.02255
G1 X124.698 Y117.928 E0.02255
G1 X125.280 Y117.505 E0.02255
G1 X125.937 Y117.212 E0.02255
G1 X126.640 Y117.063 E0.02255
G1 X127.360 Y117.063 E0.02255
G1 X128.063 Y117.212 E0.02255
G1 X128.720 Y117.505 E0.02255
G1 X129.302 Y117.928 E0.02255
G1 X129.783 Y118.462 E0.02255
G1 X130.143 Y119.085 E0.02255
G1 X130.365 Y119.769 E0.02255
G1 X130.433 Y120.412 E0.02026
G1 X130.060 Y120.472 F10800.000
G1 F1200
G1 X129.994 Y121.120 E0.02043
G1 X129.797 Y121.729 E0.02008
G1 X129.477 Y122.284 E0.02007
G1 X129.048 Y122.759 E0.02007
G1 X128.531 Y123.135 E0.02006
G1 X127.946 Y123.396 E0.02007
G1 X127.320 Y123.529 E0.02007
G1 X126.680 Y123.529 E0.02007
G1 X126.054 Y123.396 E0.02007
G1 X125.469 Y123.135 E0.02007
G1 X124.952 Y122.759 E0.02007
G1 X124.523 Y122.284 E0.02007
G1 X124.203 Y121.729 E0.02007
G1 X124.006 Y121.121 E0.02007
G1 X123.939 Y120.484 E0.02007
G1 X124.006 Y119.848 E0.02007
G1 X124.203 Y119.239 E0.02007
G1 X124.523 Y118.685 E0.02007
G1 X124.952 Y118.210 E0.02007
G1 X125.469 Y117.833 E0.02007
G1 X126.054 Y117.573 E0.02007
G1 X126.680 Y117.440 E0.02007
G1 X127.320 Y117.440 E0.02007
G1 X127.946 Y117.573 E0.02007
G1 X128.531 Y117.833 E0.02007
G1 X129.048 Y118.210 E0.02006
G1 X129.477 Y118.685 E0.02007
G1 X129.797 Y119.239 E0.02007
G1 X129.994 Y119.848 E0.02007
G1 X130.054 Y120.412 E0.01780
G1 X130.407 Y120.671 F10800.000
G1 F8640
G1 X129.994 Y121.120 E-0.16405
G1 F8640
G1 X129.797 Y121.729 E-0.14787
G1 F8640
G1 X129.477 Y122.284 E-0.14777
G1 F8640
G1 X129.048 Y122.759 E-0.14777
G1 F8640
G1 X128.531 Y123.135 E-0.14776
G1 F8640
G1 X128.512 Y123.144 E-0.00478
G1 E-0.04000 F2100.00000
G1 Z0.600 F10800.000
G1 X114.413 Y131.897 F10800.000
G1 Z0.200 F10800.000
G1 E0.80000 F2100.00000
G1 F1200
G1 X114.413 Y139.897 E0.25083
G1 X95.587 Y139.897 E0.59027
G1 X95.587 Y133.064 E0.21425
G1 X96.278 Y133.289 E0.02279
G1 X99.000 Y133.575 E0.08580
G1 X101.722 Y133.289 E0.08580
G1 X104.324 Y132.443 E0.08580
G1 X106.694 Y131.075 E0.08580
G1 X108.728 Y129.244 E0.08580
G1 X110.337 Y127.030 E0.08580
G1 X111.450 Y124.530 E0.08580
G1 X112.019 Y121.853 E0.08580
G1 X112.019 Y119.116 E0.08580
G1 X111.450 Y116.439 E0.08581
G1 X110.329 Y113.928 E0.08621
G1 X108.728 Y111.725 E0.08539
G1 X106.694 Y109.894 E0.08580
G1 X104.324 Y108.526 E0.08580
G1 X101.722 Y107.680 E0.08581
G1 X99.000 Y107.394 E0.08580
G1 X96.278 Y107.680 E0.08580
G1 X95.587 Y107.905 E0.02279
G1 X95.587 Y101.071 E0.21425
G1 X114.413 Y101.071 E0.59027
G1 X114.413 Y108.071 E0.21948
G1 X154.413 Y108.071 E1.25417
G1 X154.413 Y131.897 E0.74704
G1 X114.473 Y131.897 E1.25229
G1 X114.790 Y132.274 F10800.000
G1 F1200
G1 X114.790 Y140.274 E0.25083
G1 X95.210 Y140.274 E0.61392
G1 X95.210 Y132.545 E0.24235
G1 X96.357 Y132.918 E0.03782
G1 X99.000 Y133.196 E0.08332
G1 X101.643 Y132.918 E0.08332
G1 X104.170 Y132.097 E0.08332
G1 X106.471 Y130.768 E0.08332
G1 X108.446 Y128.990 E0.08332
G1 X110.008 Y126.840 E0.08332
G1 X111.089 Y124.412 E0.08332
G1 X111.642 Y121.813 E0.08332
G1 X111.642 Y119.156 E0.08332
G1 X111.089 Y116.556 E0.08332
G1 X110.000 Y114.118 E0.08372
G1 X108.446 Y111.979 E0.08291
G1 X106.471 Y110.201 E0.08332
G1 X104.170 Y108.872 E0.08332
G1 X101.643 Y108.051 E0.08332
G1 X99.000 Y107.773 E0.08332
G1 X96.357 Y108.051 E0.08332
G1 X95.210 Y108.424 E0.03782
G1 X95.210 Y100.694 E0.24235
G1 X114.790 Y100.694 E0.61392
G1 X114.790 Y107.694 E0.21948
G1 X154.790 Y107.694 E1.25417
G1 X154.790 Y132.274 E0.77069
G1 X114.850 Y132.274 E1.25229
G1 X114.397 Y132.347 F10800.000
G1 X114.103 Y131.923 F10800.000
G1 F1200
G1 X106.438 Y139.587 E0.34044
G1 X106.972 Y139.587 E0.01678
G1 X114.103 Y132.457 E0.31671
G1 X114.103 Y132.991 E0.01678
G1 X107.507 Y139.587 E0.29298
G1 X108.041 Y139.587 E0.01678
G1 X114.103 Y133.525 E0.26926
G1 X114.103 Y134.059 E0.01678
G1 X108.575 Y139.587 E0.24553
G1 X109.109 Y139.587 E0.01678
G1 X114.103 Y134.594 E0.22180
G1 X114.103 Y135.128 E0.01678
G1 X109.643 Y139.587 E0.19807
G1 X110.178 Y139.587 E0.01678
G1 X114.103 Y135.662 E0.17434
G1 X114.103 Y136.196 E0.01678
G1 X110.712 Y139.587 E0.15061
G1 X111.246 Y139.587 E0.01678
G1 X114.103 Y136.730 E0.12688
G1 X114.103 Y137.265 E0.01678
G1 X111.780 Y139.587 E0.10316
G1 X112.314 Y139.587 E0.01678
G1 X114.103 Y137.799 E0.07943
G1 X114.103 Y138.333 E0.01678
G1 X112.849 Y139.587 E0.05570
G1 X113.383 Y139.587 E0.01678
G1 X114.103 Y138.867 E0.03197
G1 X114.103 Y139.401 E0.01678
G1 X113.917 Y139.587 E0.00824
G1 F8640
G1 X114.103 Y139.401 E-0.06058
G1 F8640
G1 X114.103 Y138.867 E-0.12335
G1 F8640
G1 X113.383 Y139.587 E-0.23502
G1 F8640
G1 X112.849 Y139.587 E-0.12335
G1 F8640
G1 X113.515 Y138.920 E-0.21770
G1 E-0.04000 F2100.00000
G1 Z0.600 F10800.000
G1 X98.425 Y139.587 F10800.000
G1 Z0.200 F10800.000
G1 E0.80000 F2100.00000
G1 F1200
G1 X106.306 Y131.706 E0.35006
G1 X105.042 Y132.436 E0.04584
G1 X97.891 Y139.587 E0.31765
G1 X97.357 Y139.587 E0.01678
G1 X104.065 Y132.879 E0.29797
G1 X103.274 Y133.136 E0.02613
G1 X96.823 Y139.587 E0.28655
G1 X96.288 Y139.587 E0.01678
G1 X102.482 Y133.393 E0.27513
G1 X101.867 Y133.593 E0.02032
G1 X101.734 Y133.607 E0.00419
G1 X95.897 Y139.444 E0.25927
G1 X95.897 Y138.909 E0.01678
G1 X101.137 Y133.670 E0.23275
G1 X100.540 Y133.732 E0.01885
G1 X95.897 Y138.375 E0.20623
G1 X95.897 Y137.841 E0.01678
G1 X99.943 Y133.795 E0.17972
G1 X99.347 Y133.858 E0.01885
G1 X95.897 Y137.307 E0.15320
G1 X95.897 Y136.773 E0.01678
G1 X98.810 Y133.860 E0.12937
G1 X98.327 Y133.809 E0.01527
G1 X95.897 Y136.238 E0.10789
G1 X95.897 Y135.704 E0.01678
G1 X97.843 Y133.759 E0.08642
G1 X97.360 Y133.708 E0.01527
G1 X95.897 Y135.170 E0.06495
G1 X95.897 Y134.636 E0.01678
G1 X96.876 Y133.657 E0.04348
G1 X96.393 Y133.606 E0.01527
G1 X95.897 Y134.102 E0.02201
G1 X95.897 Y133.650 E0.01420
G1 X96.133 Y133.726 E0.00777
G1 X96.260 Y133.739 E0.00400
G1 F8640
G1 X96.133 Y133.726 E-0.02942
G1 F8640
G1 X95.897 Y133.650 E-0.05715
G1 F8640
G1 X95.897 Y134.102 E-0.10436
G1 F8640
G1 X96.393 Y133.606 E-0.16179
G1 F8640
G1 X96.876 Y133.657 E-0.11223
G1 F8640
G1 X95.973 Y134.560 E-0.29504
G1 E-0.04000 F2100.00000
G1 Z0.600 F10800.000
G1 X123.657 Y118.629 F10800.000
G1 Z0.200 F10800.000
G1 E0.80000 F2100.00000
G1 F1200
G1 X123.843 Y118.306 E0.01170
G1 X124.378 Y117.713 E0.02508
G1 X125.057 Y117.228 E0.02622
G1 X133.904 Y108.382 E0.39295
G1 X134.438 Y108.382 E0.01678
G1 X125.941 Y116.879 E0.37741
G1 X126.534 Y116.753 E0.01903
G1 X126.602 Y116.753 E0.00212
G1 X134.972 Y108.382 E0.37182
G1 X135.506 Y108.382 E0.01678
G1 X127.136 Y116.753 E0.37182
G1 X127.333 Y116.753 E0.00618
G1 X127.611 Y116.812 E0.00894
G1 X136.041 Y108.382 E0.37444
G1 X136.575 Y108.382 E0.01678
G1 X128.051 Y116.905 E0.37860
G1 X128.431 Y117.060 E0.01287
G1 X137.109 Y108.382 E0.38547
G1 X137.643 Y108.382 E0.01678
G1 X128.801 Y117.224 E0.39278
G1 X129.117 Y117.442 E0.01206
G1 X138.177 Y108.382 E0.40246
G1 X138.712 Y108.382 E0.01678
G1 X129.426 Y117.667 E0.41244
G1 X129.489 Y117.713 E0.00243
G1 X129.691 Y117.937 E0.00948
G1 X139.246 Y108.382 E0.42442
G1 X139.780 Y108.382 E0.01678
G1 X129.944 Y118.218 E0.43691
G1 X130.023 Y118.306 E0.00372
G1 X130.158 Y118.539 E0.00843
G1 X140.314 Y108.382 E0.45115
G1 X140.848 Y108.382 E0.01678
G1 X130.353 Y118.877 E0.46619
G1 X130.423 Y118.998 E0.00436
G1 X130.507 Y119.257 E0.00858
G1 X141.383 Y108.382 E0.48308
G1 X141.917 Y108.382 E0.01678
G1 X130.638 Y119.661 E0.50099
G1 X130.669 Y119.757 E0.00318
G1 X130.708 Y120.125 E0.01162
G1 X142.451 Y108.382 E0.52161
G1 X142.985 Y108.382 E0.01678
G1 X130.743 Y120.625 E0.54381
G1 X130.683 Y121.219 E0.01876
G1 X143.519 Y108.382 E0.57020
G1 X144.054 Y108.382 E0.01678
G1 X130.467 Y121.969 E0.60352
G1 F8640
G1 X132.794 Y119.641 E-0.76000
G1 E-0.04000 F2100.00000
G1 Z0.600 F10800.000
G1 X143.375 Y119.210 F10800.000
G1 Z0.200 F10800.000
G1 E0.80000 F2100.00000
G1 F1200
G1 X143.444 Y118.998 E0.00703
G1 X143.843 Y118.306 E0.02508
G1 X144.378 Y117.713 E0.02508
G1 X145.024 Y117.243 E0.02508
G1 X145.598 Y116.988 E0.01973
G1 X154.103 Y108.483 E0.37778
G1 X154.103 Y109.017 E0.01678
G1 X146.322 Y116.798 E0.34561
G1 X146.534 Y116.753 E0.00681
G1 X146.901 Y116.753 E0.01153
G1 X154.103 Y109.551 E0.31987
G1 X154.103 Y110.085 E0.01678
G1 X147.417 Y116.771 E0.29695
G1 X147.858 Y116.864 E0.01415
G1 X154.103 Y110.620 E0.27738
G1 X154.103 Y111.154 E0.01678
G1 X148.269 Y116.988 E0.25913
G1 X148.638 Y117.152 E0.01271
G1 X154.103 Y111.688 E0.24271
G1 X154.103 Y112.222 E0.01678
G1 X148.981 Y117.344 E0.22749
G1 X149.291 Y117.568 E0.01201
G1 X154.103 Y112.756 E0.21374
G1 X154.103 Y113.291 E0.01678
G1 X149.580 Y117.813 E0.20090
G1 X149.833 Y118.094 E0.01188
G1 X154.103 Y113.825 E0.18965
G1 X154.103 Y114.359 E0.01678
G1 X150.072 Y118.390 E0.17904
G1 X150.267 Y118.729 E0.01228
G1 X154.103 Y114.893 E0.17036
G1 X154.103 Y115.427 E0.01678
G1 X150.450 Y119.080 E0.16226
G1 X150.581 Y119.484 E0.01332
G1 X154.103 Y115.962 E0.15644
G1 X154.103 Y116.496 E0.01678
G1 X150.686 Y119.913 E0.15177
G1 X150.737 Y120.396 E0.01527
G1 X154.103 Y117.030 E0.14952
G1 X154.103 Y117.564 E0.01678
G1 X150.709 Y120.958 E0.15074
G1 X150.670 Y121.343 E0.01217
G1 X150.580 Y121.621 E0.00919
G1 X154.103 Y118.098 E0.15649
G1 X154.103 Y118.633 E0.01678
G1 X150.138 Y122.597 E0.17608
G1 F8640
G1 X152.466 Y120.269 E-0.76000
G1 E-0.04000 F2100.00000
G1 Z0.600 F10800.000
G1 X153.969 Y131.587 F10800.000
G1 Z0.200 F10800.000
G1 E0.80000 F2100.00000
G1 F1200
G1 X154.103 Y131.453 E0.00593
G1 X154.103 Y130.919 E0.01678
G1 X153.435 Y131.587 E0.02966
G1 X152.901 Y131.587 E0.01678
G1 X154.103 Y130.385 E0.05339
G1 X154.103 Y129.851 E0.01678
G1 X152.366 Y131.587 E0.07711
G1 X151.832 Y131.587 E0.01678
G1 X154.103 Y129.317 E0.10084
G1 X154.103 Y128.782 E0.01678
G1 X151.298 Y131.587 E0.12457
G1 X150.764 Y131.587 E0.01678
G1 X154.103 Y128.248 E0.14830
G1 X154.103 Y127.714 E0.01678
G1 X150.230 Y131.587 E0.17203
G1 X149.695 Y131.587 E0.01678
G1 X154.103 Y127.180 E0.19576
G1 X154.103 Y126.646 E0.01678
G1 X149.161 Y131.587 E0.21949
G1 X148.627 Y131.587 E0.01678
G1 X154.103 Y126.111 E0.24321
G1 X154.103 Y125.577 E0.01678
G1 X148.093 Y131.587 E0.26694
G1 X147.559 Y131.587 E0.01678
G1 X154.103 Y125.043 E0.29067
G1 X154.103 Y124.509 E0.01678
G1 X147.024 Y131.587 E0.31440
G1 X146.490 Y131.587 E0.01678
G1 X154.103 Y123.975 E0.33813
G1 X154.103 Y123.440 E0.01678
G1 X145.956 Y131.587 E0.36186
G1 X145.422 Y131.587 E0.01678
G1 X154.103 Y122.906 E0.38559
