; generated by Slic3r 1.3.0 on 2021-07-27 at 21:10:55

; Filament notes: 
; Affordable filament for everyday printing in premium quality manufactured in-house by Josef Prusa
; 
; Printer Config Notes: 
; Don't remove the following keywords! These keywords are used in the "compatible printer" condition of the print and filament profiles to link the particular print and filament profiles to this printer profile.
; PRINTER_VENDOR_PRUSA3D
; PRINTER_MODEL_MK3
; 
; external perimeters extrusion width = 0.45mm (2.19mm^3/s)
; perimeters extrusion width = 0.45mm (3.76mm^3/s)
; infill extrusion width = 0.45mm (12.53mm^3/s)
; solid infill extrusion width = 0.45mm (12.53mm^3/s)
; top infill extrusion width = 0.40mm (2.76mm^3/s)

M107
;M862.3 P "[printer_model]" ; printer model check
M862.1 P0.4 ; nozzle diameter check
M115 U3.10.0 ; tell printer latest fw version
G90 ; use absolute coordinates
M83 ; extruder relative mode
M104 S215 ; set extruder temp
M140 S60 ; set bed temp
M190 S60 ; wait for bed temp
M109 S215 ; wait for extruder temp
G28 W ; home all without mesh bed level
G80 ; mesh bed leveling
G1 Y-3.0 F1000.0 ; go outside print area
G92 E0.0
G1 X60.0 E9.0 F1000.0 ; intro line
G1 X100.0 E12.5 F1000.0 ; intro line
G92 E0.0
M221 S100{else}95{endif}

; Don't change E values below. Excessive value can damage the printer.
M907 E430 ; set extruder motor current{endif}
M907 E538 ; set extruder motor current{endif}
M900 K0.12{elsif printer_notes=~/.*PRINTER_MODEL_MINI.*/ and nozzle_diameter[0]==0.8}0.06{elsif printer_notes=~/.*PRINTER_MODEL_MINI.*/}0.2{elsif nozzle_diameter[0]==0.8}0.01{elsif nozzle_diameter[0]==0.6}0.04{else}0.05{endif} ; Filament gcode LA 1.5
;{elsif printer_notes=~/.*PRINTER_HAS_BOWDEN.*/}M900 K200{elsif nozzle_diameter[0]==0.6}M900 K18{elsif nozzle_diameter[0]==0.8};{else}M900 K30{endif} ; Filament gcode LA 1.0
G21 ; set units to millimeters
G90 ; use absolute coordinates
M83 ; use relative distances for extrusion
;BEFORE_LAYER_CHANGE 0.2
G92 E0.0

G1 E-0.80000 F2100.00000
G1 Z0.400 F10800.000
;AFTER_LAYER_CHANGE 0.2
G1 X79.620 Y80.153 F10800.000
G1 Z0.200 F10800.000
G1 E0.80000 F2100.00000
M201 X1000 Y1000
M204 P1000 T1000
G1 F1200
G1 X80.131 Y79.710 E0.02121
G1 X81.807 Y78.633 E0.06247
G1 X82.422 Y78.352 E0.02121
G1 X84.334 Y77.790 E0.06247
G1 X85.004 Y77.694 E0.02121
G1 X161.996 Y77.694 E2.41404
G1 X162.666 Y77.790 E0.02121
G1 X162.797 Y77.829 E0.00430
G1 X164.578 Y78.352 E0.05818
G1 X165.193 Y78.633 E0.02121
G1 X166.869 Y79.710 E0.06247
G1 X167.380 Y80.153 E0.02121
G1 X168.685 Y81.659 E0.06247
G1 X169.051 Y82.228 E0.02122
G1 X169.947 Y84.207 E0.06812
G1 X171.231 Y87.696 E0.11655
G1 X171.377 Y88.517 E0.02614
G1 X171.377 Y121.441 E1.03231
G1 X171.234 Y122.253 E0.02585
G1 X169.950 Y125.784 E0.11781
G1 X169.051 Y127.772 E0.06841
G1 X168.685 Y128.341 E0.02121
G1 X167.380 Y129.847 E0.06248
G1 X166.869 Y130.290 E0.02121
G1 X165.193 Y131.367 E0.06247
G1 X164.578 Y131.648 E0.02122
G1 X162.666 Y132.210 E0.06247
G1 X161.996 Y132.306 E0.02121
G1 X85.004 Y132.306 E2.41404
G1 X84.334 Y132.210 E0.02121
G1 X82.422 Y131.648 E0.06247
G1 X81.807 Y131.367 E0.02122
G1 X80.131 Y130.290 E0.06247
G1 X79.620 Y129.847 E0.02121
G1 X78.315 Y128.341 E0.06247
G1 X77.949 Y127.772 E0.02122
G1 X77.062 Y125.818 E0.06728
G1 X75.779 Y122.447 E0.11309
G1 X75.623 Y121.601 E0.02697
G1 X75.623 Y88.356 E1.04239
G1 X75.782 Y87.501 E0.02728
G1 X77.066 Y84.173 E0.11184
G1 X77.949 Y82.228 E0.06696
G1 X78.315 Y81.659 E0.02121
G1 X79.580 Y80.198 E0.06059
G1 F8640
G1 X80.131 Y79.710 E-0.16992
G1 F8640
G1 X80.173 Y79.683 E-0.01150
G1 F8640
G1 X80.173 Y79.683 E-0.00001
G1 F8640
G1 X81.807 Y78.633 E-0.44855
G1 F8640
G1 X82.319 Y78.399 E-0.13001
G1 E-0.04000 F2100.00000
G1 Z0.600 F10800.000
G1 X161.603 Y126.422 F10800.000
G1 Z0.200 F10800.000
G1 E0.80000 F2100.00000
G1 F1200
G1 X159.263 Y126.009 E0.07453
G1 X157.735 Y124.188 E0.07452
G1 X157.735 Y121.812 E0.07453
G1 X159.263 Y119.991 E0.07452
G1 X161.603 Y119.578 E0.07453
G1 X163.662 Y120.767 E0.07452
G1 X164.475 Y123.000 E0.07452
G1 X163.662 Y125.234 E0.07452
G1 X161.655 Y126.392 E0.07264
G1 X161.534 Y126.027 F10800.000
G1 F1200
G1 X159.463 Y125.662 E0.06592
G1 X158.112 Y124.051 E0.06592
G1 X158.112 Y121.949 E0.06592
G1 X159.463 Y120.338 E0.06592
G1 X161.534 Y119.973 E0.06592
G1 X163.354 Y121.024 E0.06592
G1 X164.073 Y123.000 E0.06592
G1 X163.354 Y124.976 E0.06592
G1 X161.586 Y125.997 E0.06404
G1 X161.397 Y126.403 F10800.000
G1 F8640
G1 X159.463 Y125.662 E-0.49614
G1 F8640
G1 X158.729 Y124.786 E-0.26386
G1 E-0.04000 F2100.00000
G1 Z0.600 F10800.000
G1 X161.603 Y90.422 F10800.000
G1 Z0.200 F10800.000
G1 E0.80000 F2100.00000
G1 F1200
G1 X159.263 Y90.009 E0.07453
G1 X157.735 Y88.188 E0.07453
G1 X157.735 Y85.812 E0.07452
G1 X159.263 Y83.991 E0.07452
G1 X161.603 Y83.578 E0.07453
G1 X163.662 Y84.766 E0.07452
G1 X164.475 Y87.000 E0.07453
G1 X163.662 Y89.234 E0.07452
G1 X161.655 Y90.392 E0.07264
G1 X161.534 Y90.027 F10800.000
G1 F1200
G1 X159.463 Y89.662 E0.06592
G1 X158.112 Y88.051 E0.06592
G1 X158.112 Y85.949 E0.06592
G1 X159.463 Y84.338 E0.06592
G1 X161.534 Y83.973 E0.06592
G1 X163.354 Y85.024 E0.06592
G1 X164.073 Y87.000 E0.06592
G1 X163.354 Y88.976 E0.06592
G1 X161.586 Y89.997 E0.06404
G1 X161.397 Y90.403 F10800.000
G1 F8640
G1 X159.463 Y89.662 E-0.49614
G1 F8640
G1 X158.729 Y88.786 E-0.26386
G1 E-0.04000 F2100.00000
G1 Z0.600 F10800.000
G1 X154.608 Y86.896 F10800.000
G1 Z0.200 F10800.000
G1 E0.80000 F2100.00000
G1 F1200
G1 X154.853 Y85.195 E0.05388
G1 X155.610 Y83.536 E0.05718
G1 X156.804 Y82.158 E0.05718
G1 X158.338 Y81.172 E0.05718
G1 X160.088 Y80.658 E0.05718
G1 X161.912 Y80.658 E0.05718
G1 X163.662 Y81.172 E0.05718
G1 X165.196 Y82.158 E0.05718
G1 X166.390 Y83.536 E0.05718
G1 X167.147 Y85.195 E0.05718
G1 X167.247 Y85.890 E0.02201
G1 X168.413 Y88.636 E0.09354
G1 X168.413 Y100.524 E0.37274
G1 X161.942 Y100.524 E0.20288
G1 X161.561 Y100.379 E0.01278
G1 X159.349 Y100.648 E0.06985
G1 X157.516 Y101.913 E0.06985
G1 X156.481 Y103.886 E0.06985
G1 X156.481 Y106.114 E0.06985
G1 X157.516 Y108.087 E0.06985
G1 X159.349 Y109.352 E0.06986
G1 X161.561 Y109.621 E0.06985
G1 X161.942 Y109.476 E0.01278
G1 X168.413 Y109.476 E0.20288
G1 X168.413 Y121.321 E0.37139
G1 X167.257 Y124.045 E0.09279
G1 X167.147 Y124.805 E0.02406
G1 X166.390 Y126.464 E0.05718
G1 X165.196 Y127.842 E0.05718
G1 X163.662 Y128.828 E0.05718
G1 X161.912 Y129.342 E0.05718
G1 X160.088 Y129.342 E0.05718
G1 X158.338 Y128.828 E0.05718
G1 X156.804 Y127.842 E0.05718
G1 X155.610 Y126.464 E0.05718
G1 X154.853 Y124.805 E0.05718
G1 X154.591 Y122.985 E0.05764
G1 X154.281 Y123.117 E0.01056
G1 X153.587 Y121.482 E0.05570
G1 X153.587 Y88.475 E1.03490
G1 X154.311 Y86.770 E0.05809
G1 X154.553 Y86.872 E0.00824
G1 X154.305 Y86.357 F10800.000
G1 F1200
G1 X154.487 Y85.088 E0.04022
G1 X155.290 Y83.330 E0.06058
G1 X156.555 Y81.870 E0.06058
G1 X158.180 Y80.826 E0.06058
G1 X160.034 Y80.281 E0.06058
G1 X161.966 Y80.281 E0.06058
G1 X163.820 Y80.826 E0.06058
G1 X165.445 Y81.870 E0.06058
G1 X166.710 Y83.330 E0.06058
G1 X167.513 Y85.088 E0.06058
G1 X167.614 Y85.788 E0.02217
G1 X168.790 Y88.559 E0.09441
G1 X168.790 Y100.901 E0.38696
G1 X161.901 Y100.911 E0.21600
G1 X161.514 Y100.765 E0.01297
G1 X159.487 Y101.011 E0.06402
G1 X157.807 Y102.171 E0.06403
G1 X156.858 Y103.979 E0.06402
G1 X156.858 Y106.021 E0.06402
G1 X157.807 Y107.829 E0.06402
G1 X159.487 Y108.989 E0.06403
G1 X161.514 Y109.235 E0.06402
G1 X161.901 Y109.089 E0.01297
G1 X168.790 Y109.099 E0.21600
G1 X168.790 Y121.398 E0.38562
G1 X167.623 Y124.148 E0.09366
G1 X167.513 Y124.912 E0.02422
G1 X166.710 Y126.670 E0.06058
G1 X165.445 Y128.130 E0.06058
G1 X163.820 Y129.174 E0.06058
G1 X161.966 Y129.719 E0.06058
G1 X160.034 Y129.719 E0.06058
G1 X158.180 Y129.174 E0.06058
G1 X156.555 Y128.130 E0.06058
G1 X155.290 Y126.670 E0.06058
G1 X154.487 Y124.912 E0.06058
G1 X154.288 Y123.524 E0.04397
G1 X154.081 Y123.612 E0.00702
G1 X153.210 Y121.559 E0.06993
G1 X153.210 Y88.399 E1.03971
G1 X154.111 Y86.275 E0.07232
G1 X154.249 Y86.334 E0.00470
G1 X154.691 Y86.253 F10800.000
G1 F8640
G1 X154.487 Y85.088 E-0.29297
G1 F8640
G1 X155.290 Y83.330 E-0.44611
G1 F8640
G1 X155.349 Y83.262 E-0.02092
G1 E-0.04000 F2100.00000
G1 Z0.600 F10800.000
G1 X153.897 Y88.815 F10800.000
G1 Z0.200 F10800.000
G1 E0.80000 F2100.00000
G1 F1200
G1 X153.897 Y89.350 E0.01685
G1 X157.424 Y85.823 E0.15700
G1 X157.424 Y86.358 E0.01685
G1 X153.897 Y89.885 E0.15700
G1 X153.897 Y90.421 E0.01685
G1 X157.424 Y86.894 E0.15700
G1 X157.424 Y87.429 E0.01685
G1 X153.897 Y90.956 E0.15700
G1 X153.897 Y91.491 E0.01685
G1 X157.424 Y87.964 E0.15700
G1 X157.424 Y88.259 E0.00927
G1 X157.534 Y88.390 E0.00538
G1 X153.897 Y92.027 E0.16189
G1 X153.897 Y92.562 E0.01685
G1 X157.779 Y88.681 E0.17276
G1 X158.023 Y88.972 E0.01196
G1 X153.897 Y93.097 E0.18364
G1 X153.897 Y93.633 E0.01685
G1 X158.267 Y89.263 E0.19451
G1 X158.511 Y89.554 E0.01196
G1 X153.897 Y94.168 E0.20538
G1 X153.897 Y94.704 E0.01685
G1 X158.756 Y89.845 E0.21626
G1 X159.000 Y90.137 E0.01196
G1 X153.897 Y95.239 E0.22713
G1 X153.897 Y95.774 E0.01685
G1 X159.344 Y90.328 E0.24244
G1 X159.799 Y90.408 E0.01455
G1 X153.897 Y96.310 E0.26270
G1 X153.897 Y96.845 E0.01685
G1 X160.254 Y90.489 E0.28296
G1 X160.709 Y90.569 E0.01455
G1 X153.897 Y97.380 E0.30321
G1 X153.897 Y97.916 E0.01685
G1 X161.164 Y90.649 E0.32347
G1 X161.619 Y90.729 E0.01455
G1 X153.897 Y98.451 E0.34373
G1 X153.897 Y98.986 E0.01685
G1 X162.671 Y90.213 E0.39056
G1 X163.938 Y89.481 E0.04604
G1 X153.897 Y99.522 E0.44695
G1 F8640
G1 X156.225 Y97.194 E-0.76000
G1 E-0.04000 F2100.00000
G1 Z0.600 F10800.000
G1 X156.820 Y102.488 F10800.000
G1 Z0.200 F10800.000
G1 E0.80000 F2100.00000
G1 F1200
G1 X153.897 Y105.411 E0.13011
G1 X153.897 Y105.946 E0.01685
G1 X156.229 Y103.614 E0.10379
G1 X156.170 Y103.727 E0.00399
G1 X156.170 Y104.209 E0.01517
G1 X153.897 Y106.481 E0.10117
G1 X153.897 Y107.017 E0.01685
G1 X156.170 Y104.744 E0.10117
G1 X156.170 Y105.279 E0.01685
G1 X153.897 Y107.552 E0.10117
G1 X153.897 Y108.087 E0.01685
G1 X156.170 Y105.815 E0.10117
G1 X156.170 Y106.140 E0.01025
G1 X156.242 Y106.278 E0.00489
G1 X153.897 Y108.623 E0.10439
G1 X153.897 Y109.158 E0.01685
G1 X156.427 Y106.629 E0.11259
G1 X156.611 Y106.980 E0.01248
G1 X153.897 Y109.693 E0.12079
G1 X153.897 Y110.229 E0.01685
G1 X156.795 Y107.331 E0.12899
G1 X156.979 Y107.682 E0.01248
G1 X153.897 Y110.764 E0.13719
G1 X153.897 Y111.300 E0.01685
G1 X157.164 Y108.033 E0.14540
G1 X157.292 Y108.277 E0.00868
G1 X157.388 Y108.344 E0.00369
G1 X153.897 Y111.835 E0.15540
G1 X153.897 Y112.370 E0.01685
G1 X157.705 Y108.563 E0.16949
G1 X158.022 Y108.781 E0.01211
G1 X153.897 Y112.906 E0.18359
G1 X153.897 Y113.441 E0.01685
G1 X158.339 Y109.000 E0.19769
G1 X158.655 Y109.218 E0.01211
G1 X153.897 Y113.976 E0.21179
G1 X153.897 Y114.512 E0.01685
G1 X158.972 Y109.437 E0.22589
G1 X159.294 Y109.651 E0.01216
G1 X153.897 Y115.047 E0.24022
G1 X153.897 Y115.582 E0.01685
G1 X159.771 Y109.708 E0.26147
G1 X160.249 Y109.766 E0.01514
G1 X153.897 Y116.118 E0.28273
G1 X153.897 Y116.653 E0.01685
G1 X160.726 Y109.824 E0.30398
G1 X161.203 Y109.882 E0.01514
G1 X153.897 Y117.188 E0.32523
G1 X153.897 Y117.724 E0.01685
G1 X161.686 Y109.935 E0.34670
G1 X162.078 Y109.787 E0.01320
G1 X162.370 Y109.787 E0.00919
G1 X153.897 Y118.259 E0.37715
G1 X153.897 Y118.794 E0.01685
G1 X162.905 Y109.787 E0.40098
G1 X163.441 Y109.787 E0.01685
G1 X153.897 Y119.330 E0.42482
G1 X153.897 Y119.865 E0.01685
G1 X163.976 Y109.787 E0.44865
G1 X164.511 Y109.787 E0.01685
G1 X153.897 Y120.401 E0.47248
G1 X153.897 Y120.936 E0.01685
G1 X165.047 Y109.787 E0.49631
G1 X165.582 Y109.787 E0.01685
G1 X153.897 Y121.472 E0.52015
G1 X154.057 Y121.847 E0.01284
G1 X166.117 Y109.787 E0.53688
G1 X166.653 Y109.787 E0.01685
G1 X154.216 Y122.223 E0.55361
G1 X154.376 Y122.599 E0.01285
G1 X167.188 Y109.787 E0.57034
G1 X167.724 Y109.787 E0.01685
G1 X154.849 Y122.661 E0.57310
G1 X154.916 Y123.129 E0.01489
G1 X168.103 Y109.943 E0.58698
G1 X168.103 Y110.478 E0.01685
G1 X154.984 Y123.597 E0.58398
G1 X155.051 Y124.065 E0.01489
G1 X157.424 Y121.692 E0.10565
G1 X157.424 Y122.227 E0.01685
G1 X155.118 Y124.533 E0.10266
G1 X155.151 Y124.764 E0.00735
G1 X155.236 Y124.950 E0.00644
G1 X157.424 Y122.762 E0.09740
G1 X157.424 Y123.298 E0.01685
G1 X155.404 Y125.318 E0.08993
G1 X155.572 Y125.686 E0.01272
G1 X157.424 Y123.833 E0.08246
G1 X157.424 Y124.259 E0.01340
G1 X157.474 Y124.319 E0.00245
G1 X155.740 Y126.053 E0.07721
G1 X155.864 Y126.325 E0.00940
G1 X155.929 Y126.399 E0.00312
G1 X157.719 Y124.610 E0.07967
G1 X157.963 Y124.901 E0.01196
G1 X156.177 Y126.686 E0.07948
G1 X156.426 Y126.973 E0.01195
G1 X158.207 Y125.192 E0.07929
G1 X158.451 Y125.483 E0.01196
G1 X156.675 Y127.260 E0.07910
G1 X156.923 Y127.547 E0.01195
G1 X158.696 Y125.774 E0.07891
G1 X158.940 Y126.065 E0.01196
G1 X157.229 Y127.776 E0.07616
G1 X157.555 Y127.986 E0.01219
G1 X159.232 Y126.308 E0.07466
G1 X159.687 Y126.389 E0.01455
G1 X157.881 Y128.195 E0.08041
G1 X158.207 Y128.404 E0.01219
G1 X160.142 Y126.469 E0.08616
G1 X160.597 Y126.549 E0.01455
G1 X158.560 Y128.586 E0.09069
G1 X158.974 Y128.708 E0.01358
G1 X161.053 Y126.629 E0.09252
G1 X161.508 Y126.710 E0.01455
G1 X159.388 Y128.829 E0.09436
G1 X159.802 Y128.951 E0.01358
G1 X162.361 Y126.392 E0.11390
G1 X163.627 Y125.661 E0.04604
G1 X160.257 Y129.031 E0.15004
G1 X160.792 Y129.031 E0.01685
G1 X167.702 Y122.121 E0.30760
G1 X167.307 Y123.051 E0.03181
G1 X161.327 Y129.031 E0.26619
G1 X161.791 Y129.031 E0.01459
G1 X161.893 Y129.001 E0.00334
G1 X166.947 Y123.947 E0.22499
G1 X166.857 Y124.572 E0.01988
G1 X162.650 Y128.779 E0.18725
G1 X163.408 Y128.556 E0.02486
G1 X166.441 Y125.524 E0.13498
G1 X166.136 Y126.191 E0.02309
G1 X164.879 Y127.621 E0.05992
G1 F8640
G1 X166.136 Y126.191 E-0.43957
G1 F8640
G1 X166.441 Y125.524 E-0.16937
G1 F8640
G1 X165.978 Y125.987 E-0.15106
G1 E-0.04000 F2100.00000
G1 Z0.600 F10800.000
G1 X164.001 Y125.287 F10800.000
G1 Z0.200 F10800.000
G1 E0.80000 F2100.00000
G1 F1200
G1 X168.097 Y121.191 E0.18232
G1 X168.103 Y120.650 E0.01703
G1 X164.308 Y124.445 E0.16893
G1 X164.614 Y123.603 E0.02820
G1 X168.103 Y120.115 E0.15529
G1 X168.103 Y119.579 E0.01685
G1 X164.758 Y122.924 E0.14890
G1 X164.615 Y122.532 E0.01315
G1 X168.103 Y119.044 E0.15526
G1 X168.103 Y118.509 E0.01685
G1 X164.472 Y122.139 E0.16162
G1 X164.329 Y121.747 E0.01315
G1 X168.103 Y117.973 E0.16798
G1 X168.103 Y117.438 E0.01685
G1 X164.186 Y121.354 E0.17434
G1 X164.043 Y120.962 E0.01315
G1 X168.103 Y116.903 E0.18070
G1 X168.103 Y116.367 E0.01685
G1 X163.897 Y120.572 E0.18719
G1 X163.558 Y120.376 E0.01234
G1 X168.103 Y115.832 E0.20230
G1 X168.103 Y115.297 E0.01685
G1 X163.219 Y120.180 E0.21741
G1 X162.879 Y119.984 E0.01234
G1 X168.103 Y114.761 E0.23251
G1 X168.103 Y114.226 E0.01685
G1 X162.540 Y119.788 E0.24762
G1 X162.200 Y119.593 E0.01234
G1 X168.103 Y113.690 E0.26273
G1 X168.103 Y113.155 E0.01685
G1 X161.861 Y119.397 E0.27784
G1 X161.606 Y119.250 E0.00925
G1 X161.444 Y119.278 E0.00519
G1 X168.103 Y112.620 E0.29640
G1 X168.103 Y112.084 E0.01685
G1 X160.794 Y119.393 E0.32533
G1 X160.144 Y119.507 E0.02077
G1 X168.103 Y111.549 E0.35426
G1 X168.103 Y111.014 E0.01685
G1 X159.494 Y119.622 E0.38320
G1 X158.995 Y119.710 E0.01595
G1 X157.291 Y121.741 E0.08346
G1 X157.291 Y121.825 E0.00265
G1 F8640
G1 X157.291 Y121.741 E-0.01943
G1 F8640
G1 X158.995 Y119.710 E-0.61220
G1 F8640
G1 X159.494 Y119.622 E-0.11697
G1 F8640
G1 X159.529 Y119.587 E-0.01140
G1 E-0.04000 F2100.00000
G1 Z0.600 F10800.000
G1 X167.660 Y100.213 F10800.000
G1 Z0.200 F10800.000
G1 E0.80000 F2100.00000
G1 F1200
G1 X168.103 Y99.771 E0.01969
G1 X168.103 Y99.236 E0.01685
G1 X167.125 Y100.213 E0.04352
G1 X166.590 Y100.213 E0.01685
G1 X168.103 Y98.701 E0.06735
G1 X168.103 Y98.165 E0.01685
G1 X166.054 Y100.213 E0.09118
G1 X165.519 Y100.213 E0.01685
G1 X168.103 Y97.630 E0.11501
G1 X168.103 Y97.094 E0.01685
G1 X164.984 Y100.213 E0.13884
G1 X164.448 Y100.213 E0.01685
G1 X168.103 Y96.559 E0.16267
G1 X168.103 Y96.024 E0.01685
G1 X163.913 Y100.213 E0.18650
G1 X163.377 Y100.213 E0.01685
G1 X168.103 Y95.488 E0.21034
G1 X168.103 Y94.953 E0.01685
G1 X162.842 Y100.213 E0.23417
