; generated by Slic3r 1.3.0 on 2021-07-17 at 17:45:53

; Filament notes: 
; Affordable filament for everyday printing in premium quality manufactured in-house by Josef Prusa
; 
; Printer Config Notes: 
; Don't remove the following keywords! These keywords are used in the "compatible printer" condition of the print and filament profiles to link the particular print and filament profiles to this printer profile.
; PRINTER_VENDOR_PRUSA3D
; PRINTER_MODEL_MK3
; 
; external perimeters extrusion width = 0.45mm (2.19mm^3/s)
; perimeters extrusion width = 0.45mm (3.76mm^3/s)
; infill extrusion width = 0.45mm (12.53mm^3/s)
; solid infill extrusion width = 0.45mm (12.53mm^3/s)
; top infill extrusion width = 0.40mm (2.76mm^3/s)

M107
;M862.3 P "[printer_model]" ; printer model check
M862.1 P0.4 ; nozzle diameter check
M115 U3.10.0 ; tell printer latest fw version
G90 ; use absolute coordinates
M83 ; extruder relative mode
M104 S215 ; set extruder temp
M140 S60 ; set bed temp
M190 S60 ; wait for bed temp
M109 S215 ; wait for extruder temp
G28 W ; home all without mesh bed level
G80 ; mesh bed leveling
G1 Y-3.0 F1000.0 ; go outside print area
G92 E0.0
G1 X60.0 E9.0 F1000.0 ; intro line
G1 X100.0 E12.5 F1000.0 ; intro line
G92 E0.0
M221 S100{else}95{endif}

; Don't change E values below. Excessive value can damage the printer.
M907 E430 ; set extruder motor current{endif}
M907 E538 ; set extruder motor current{endif}
M900 K0.12{elsif printer_notes=~/.*PRINTER_MODEL_MINI.*/ and nozzle_diameter[0]==0.8}0.06{elsif printer_notes=~/.*PRINTER_MODEL_MINI.*/}0.2{elsif nozzle_diameter[0]==0.8}0.01{elsif nozzle_diameter[0]==0.6}0.04{else}0.05{endif} ; Filament gcode LA 1.5
;{elsif printer_notes=~/.*PRINTER_HAS_BOWDEN.*/}M900 K200{elsif nozzle_diameter[0]==0.6}M900 K18{elsif nozzle_diameter[0]==0.8};{else}M900 K30{endif} ; Filament gcode LA 1.0
G21 ; set units to millimeters
G90 ; use absolute coordinates
M83 ; use relative distances for extrusion
;BEFORE_LAYER_CHANGE
G92 E0.0
;0.2


G1 E-0.80000 F2100.00000
G1 Z0.400 F10800.000
;AFTER_LAYER_CHANGE
;0.2
G1 X93.015 Y56.693 F10800.000
G1 Z0.200 F10800.000
G1 E0.80000 F2100.00000
M201 X1000 Y1000
M204 P1000 T1000
G1 F1200
G1 X94.060 Y55.817 E0.04278
G1 X95.000 Y55.623 E0.03008
G1 X155.000 Y55.623 E1.88126
G1 X156.307 Y56.015 E0.04278
G1 X157.183 Y57.060 E0.04278
G1 X157.377 Y58.000 E0.03008
G1 X157.377 Y152.000 E2.94730
G1 X156.985 Y153.307 E0.04278
G1 X155.940 Y154.183 E0.04278
G1 X155.000 Y154.377 E0.03008
G1 X95.000 Y154.377 E1.88126
G1 X93.693 Y153.985 E0.04278
G1 X92.817 Y152.940 E0.04278
G1 X92.623 Y152.000 E0.03008
G1 X92.623 Y58.000 E2.94730
G1 X92.997 Y56.750 E0.04090
G1 F8640
G1 X94.060 Y55.817 E-0.32671
G1 F8640
G1 X95.000 Y55.623 E-0.22155
G1 F8640
G1 X95.917 Y55.623 E-0.21174
G1 E-0.04000 F2100.00000
G1 Z0.600 F10800.000
G1 X147.498 Y141.185 F10800.000
G1 Z0.200 F10800.000
G1 E0.80000 F2100.00000
G1 F1200
G1 X147.674 Y141.456 E0.01014
G1 X147.821 Y141.744 E0.01014
G1 X147.937 Y142.046 E0.01013
G1 X148.020 Y142.358 E0.01013
G1 X148.071 Y142.677 E0.01014
G1 X148.088 Y143.000 E0.01013
G1 X148.071 Y143.323 E0.01013
G1 X148.020 Y143.642 E0.01014
G1 X147.937 Y143.954 E0.01013
G1 X147.821 Y144.256 E0.01013
G1 X147.674 Y144.544 E0.01014
G1 X147.498 Y144.815 E0.01014
G1 X147.295 Y145.066 E0.01013
G1 X147.066 Y145.295 E0.01014
G1 X146.815 Y145.498 E0.01013
G1 X146.544 Y145.674 E0.01014
G1 X146.256 Y145.821 E0.01014
G1 X145.954 Y145.937 E0.01013
G1 X145.642 Y146.020 E0.01013
G1 X145.323 Y146.071 E0.01014
G1 X145.000 Y146.088 E0.01013
G1 X144.677 Y146.071 E0.01013
G1 X144.358 Y146.020 E0.01014
G1 X144.046 Y145.937 E0.01013
G1 X143.744 Y145.821 E0.01013
G1 X143.456 Y145.674 E0.01014
G1 X143.185 Y145.498 E0.01014
G1 X142.934 Y145.295 E0.01013
G1 X142.705 Y145.066 E0.01014
G1 X142.502 Y144.815 E0.01013
G1 X142.326 Y144.544 E0.01014
G1 X142.179 Y144.256 E0.01014
G1 X142.063 Y143.954 E0.01013
G1 X141.980 Y143.642 E0.01013
G1 X141.929 Y143.323 E0.01014
G1 X141.912 Y143.000 E0.01013
G1 X141.929 Y142.677 E0.01013
G1 X141.980 Y142.358 E0.01014
G1 X142.063 Y142.046 E0.01013
G1 X142.179 Y141.744 E0.01013
G1 X142.326 Y141.456 E0.01014
G1 X142.502 Y141.185 E0.01014
G1 X142.705 Y140.934 E0.01013
G1 X142.934 Y140.705 E0.01014
G1 X143.185 Y140.502 E0.01013
G1 X143.456 Y140.326 E0.01014
G1 X143.744 Y140.179 E0.01014
G1 X144.046 Y140.063 E0.01013
G1 X144.358 Y139.980 E0.01013
G1 X144.677 Y139.929 E0.01014
G1 X144.993 Y139.912 E0.00990
G1 X145.322 Y139.929 E0.01034
G1 X145.642 Y139.980 E0.01016
G1 X145.954 Y140.063 E0.01013
G1 X146.256 Y140.179 E0.01013
G1 X146.544 Y140.326 E0.01014
G1 X146.815 Y140.502 E0.01014
G1 X147.066 Y140.705 E0.01013
G1 X147.295 Y140.934 E0.01014
G1 X147.460 Y141.138 E0.00825
G1 X147.193 Y141.407 F10800.000
G1 F1200
G1 X147.347 Y141.645 E0.00890
G1 X147.476 Y141.898 E0.00890
G1 X147.578 Y142.163 E0.00889
G1 X147.651 Y142.436 E0.00889
G1 X147.695 Y142.717 E0.00890
G1 X147.710 Y143.000 E0.00889
G1 X147.695 Y143.283 E0.00889
G1 X147.651 Y143.564 E0.00890
G1 X147.578 Y143.837 E0.00889
G1 X147.476 Y144.102 E0.00889
G1 X147.347 Y144.355 E0.00890
G1 X147.193 Y144.593 E0.00890
G1 X147.014 Y144.814 E0.00889
G1 X146.814 Y145.014 E0.00890
G1 X146.593 Y145.193 E0.00889
G1 X146.355 Y145.347 E0.00890
G1 X146.102 Y145.476 E0.00890
G1 X145.837 Y145.578 E0.00889
G1 X145.564 Y145.651 E0.00889
G1 X145.283 Y145.695 E0.00890
G1 X145.000 Y145.710 E0.00889
G1 X144.717 Y145.695 E0.00889
G1 X144.436 Y145.651 E0.00890
G1 X144.163 Y145.578 E0.00889
G1 X143.898 Y145.476 E0.00889
G1 X143.645 Y145.347 E0.00890
G1 X143.407 Y145.193 E0.00890
G1 X143.186 Y145.014 E0.00889
G1 X142.986 Y144.814 E0.00890
G1 X142.807 Y144.593 E0.00889
G1 X142.653 Y144.355 E0.00890
G1 X142.524 Y144.102 E0.00890
G1 X142.422 Y143.837 E0.00889
G1 X142.349 Y143.564 E0.00889
G1 X142.305 Y143.283 E0.00890
G1 X142.290 Y143.000 E0.00889
G1 X142.305 Y142.717 E0.00889
G1 X142.349 Y142.436 E0.00890
G1 X142.422 Y142.163 E0.00889
G1 X142.524 Y141.898 E0.00889
G1 X142.653 Y141.645 E0.00890
G1 X142.807 Y141.407 E0.00890
G1 X142.986 Y141.186 E0.00889
G1 X143.186 Y140.986 E0.00890
G1 X143.407 Y140.807 E0.00889
G1 X143.645 Y140.653 E0.00890
G1 X143.898 Y140.524 E0.00890
G1 X144.163 Y140.422 E0.00889
G1 X144.436 Y140.349 E0.00889
G1 X144.717 Y140.305 E0.00890
G1 X144.993 Y140.290 E0.00868
G1 X145.283 Y140.305 E0.00910
G1 X145.564 Y140.349 E0.00891
G1 X145.837 Y140.422 E0.00889
G1 X146.102 Y140.524 E0.00889
G1 X146.355 Y140.653 E0.00890
G1 X146.593 Y140.807 E0.00890
G1 X146.814 Y140.986 E0.00889
G1 X147.014 Y141.186 E0.00890
G1 X147.155 Y141.360 E0.00701
G1 X147.475 Y141.377 F10800.000
G1 F8640
G1 X147.347 Y141.645 E-0.07931
G1 F8640
G1 X147.476 Y141.898 E-0.06552
G1 F8640
G1 X147.578 Y142.163 E-0.06549
G1 F8640
G1 X147.651 Y142.436 E-0.06549
G1 F8640
G1 X147.695 Y142.717 E-0.06552
G1 F8640
G1 X147.710 Y143.000 E-0.06550
G1 F8640
G1 X147.695 Y143.283 E-0.06550
G1 F8640
G1 X147.651 Y143.564 E-0.06552
G1 F8640
G1 X147.578 Y143.837 E-0.06549
G1 F8640
G1 X147.476 Y144.102 E-0.06549
G1 F8640
G1 X147.347 Y144.355 E-0.06552
G1 F8640
G1 X147.287 Y144.448 E-0.02564
G1 E-0.04000 F2100.00000
G1 Z0.600 F10800.000
G1 X108.088 Y143.000 F10800.000
G1 Z0.200 F10800.000
G1 E0.80000 F2100.00000
G1 F1200
G1 X108.071 Y143.323 E0.01013
G1 X108.020 Y143.642 E0.01014
G1 X107.937 Y143.954 E0.01013
G1 X107.821 Y144.256 E0.01013
G1 X107.674 Y144.544 E0.01014
G1 X107.498 Y144.815 E0.01014
G1 X107.295 Y145.066 E0.01013
G1 X107.066 Y145.295 E0.01014
G1 X106.815 Y145.498 E0.01013
G1 X106.544 Y145.674 E0.01014
G1 X106.256 Y145.821 E0.01014
G1 X105.954 Y145.937 E0.01013
G1 X105.642 Y146.020 E0.01013
G1 X105.323 Y146.071 E0.01014
G1 X105.000 Y146.088 E0.01013
G1 X104.677 Y146.071 E0.01013
G1 X104.358 Y146.020 E0.01014
G1 X104.046 Y145.937 E0.01013
G1 X103.744 Y145.821 E0.01013
G1 X103.456 Y145.674 E0.01014
G1 X103.185 Y145.498 E0.01013
G1 X102.934 Y145.295 E0.01013
G1 X102.705 Y145.066 E0.01014
G1 X102.502 Y144.815 E0.01013
G1 X102.326 Y144.544 E0.01014
G1 X102.179 Y144.256 E0.01013
G1 X102.063 Y143.954 E0.01013
G1 X101.980 Y143.642 E0.01013
G1 X101.929 Y143.323 E0.01014
G1 X101.912 Y143.000 E0.01013
G1 X101.929 Y142.677 E0.01013
G1 X101.980 Y142.358 E0.01014
G1 X102.063 Y142.046 E0.01013
G1 X102.176 Y141.751 E0.00990
G1 X102.325 Y141.457 E0.01034
G1 X102.502 Y141.185 E0.01016
G1 X102.705 Y140.934 E0.01013
G1 X102.934 Y140.705 E0.01014
G1 X103.185 Y140.502 E0.01013
G1 X103.456 Y140.326 E0.01013
G1 X103.744 Y140.179 E0.01014
G1 X104.046 Y140.063 E0.01013
G1 X104.358 Y139.980 E0.01013
G1 X104.677 Y139.929 E0.01014
G1 X104.993 Y139.912 E0.00990
G1 X105.322 Y139.929 E0.01034
G1 X105.642 Y139.980 E0.01016
G1 X105.954 Y140.063 E0.01013
G1 X106.256 Y140.179 E0.01013
G1 X106.544 Y140.326 E0.01014
G1 X106.815 Y140.502 E0.01014
G1 X107.066 Y140.705 E0.01013
G1 X107.295 Y140.934 E0.01014
G1 X107.498 Y141.185 E0.01013
G1 X107.674 Y141.456 E0.01014
G1 X107.821 Y141.744 E0.01014
G1 X107.937 Y142.046 E0.01013
G1 X108.020 Y142.358 E0.01013
G1 X108.071 Y142.677 E0.01014
G1 X108.085 Y142.940 E0.00825
G1 X107.710 Y143.000 F10800.000
G1 F1200
G1 X107.695 Y143.283 E0.00889
G1 X107.651 Y143.564 E0.00890
G1 X107.578 Y143.837 E0.00889
G1 X107.476 Y144.102 E0.00889
G1 X107.347 Y144.355 E0.00890
G1 X107.193 Y144.593 E0.00890
G1 X107.014 Y144.814 E0.00889
G1 X106.814 Y145.014 E0.00890
G1 X106.593 Y145.193 E0.00889
G1 X106.355 Y145.347 E0.00890
G1 X106.102 Y145.476 E0.00890
G1 X105.837 Y145.578 E0.00889
G1 X105.564 Y145.651 E0.00889
G1 X105.283 Y145.695 E0.00890
G1 X105.000 Y145.710 E0.00889
G1 X104.717 Y145.695 E0.00889
G1 X104.436 Y145.651 E0.00890
G1 X104.162 Y145.578 E0.00890
G1 X103.898 Y145.476 E0.00889
G1 X103.645 Y145.347 E0.00890
G1 X103.407 Y145.193 E0.00890
G1 X103.186 Y145.014 E0.00889
G1 X102.986 Y144.814 E0.00890
G1 X102.807 Y144.593 E0.00889
G1 X102.653 Y144.355 E0.00890
G1 X102.524 Y144.102 E0.00890
G1 X102.422 Y143.837 E0.00889
G1 X102.349 Y143.564 E0.00889
G1 X102.305 Y143.283 E0.00890
G1 X102.290 Y143.000 E0.00889
G1 X102.305 Y142.717 E0.00889
G1 X102.349 Y142.436 E0.00890
G1 X102.422 Y142.163 E0.00889
G1 X102.522 Y141.904 E0.00868
G1 X102.653 Y141.645 E0.00910
G1 X102.807 Y141.407 E0.00890
G1 X102.986 Y141.186 E0.00889
G1 X103.186 Y140.986 E0.00890
G1 X103.407 Y140.807 E0.00889
G1 X103.645 Y140.653 E0.00890
G1 X103.898 Y140.524 E0.00890
G1 X104.162 Y140.422 E0.00889
G1 X104.436 Y140.349 E0.00890
G1 X104.717 Y140.305 E0.00890
G1 X104.993 Y140.290 E0.00868
G1 X105.283 Y140.305 E0.00910
G1 X105.564 Y140.349 E0.00891
G1 X105.837 Y140.422 E0.00889
G1 X106.102 Y140.524 E0.00889
G1 X106.355 Y140.653 E0.00890
G1 X106.593 Y140.807 E0.00890
G1 X106.814 Y140.986 E0.00889
G1 X107.014 Y141.186 E0.00890
G1 X107.193 Y141.407 E0.00889
G1 X107.347 Y141.645 E0.00890
G1 X107.476 Y141.898 E0.00890
G1 X107.578 Y142.163 E0.00889
G1 X107.651 Y142.436 E0.00889
G1 X107.695 Y142.717 E0.00890
G1 X107.707 Y142.940 E0.00701
G1 X107.956 Y143.142 F10800.000
G1 F8640
G1 X107.695 Y143.283 E-0.07929
G1 F8640
G1 X107.651 Y143.564 E-0.06552
G1 F8640
G1 X107.578 Y143.837 E-0.06549
G1 F8640
G1 X107.476 Y144.102 E-0.06549
G1 F8640
G1 X107.347 Y144.355 E-0.06552
G1 F8640
G1 X107.193 Y144.593 E-0.06552
G1 F8640
G1 X107.014 Y144.814 E-0.06548
G1 F8640
G1 X106.814 Y145.014 E-0.06553
G1 F8640
G1 X106.593 Y145.193 E-0.06548
G1 F8640
G1 X106.355 Y145.347 E-0.06552
G1 F8640
G1 X106.102 Y145.476 E-0.06553
G1 F8640
G1 X105.999 Y145.516 E-0.02563
G1 E-0.04000 F2100.00000
G1 Z0.600 F10800.000
G1 X95.587 Y151.413 F10800.000
G1 Z0.200 F10800.000
G1 E0.80000 F2100.00000
G1 F1200
G1 X95.587 Y133.587 E0.55892
G1 X154.413 Y133.587 E1.84444
G1 X154.413 Y151.413 E0.55892
G1 X95.647 Y151.413 E1.84256
G1 X95.210 Y151.790 F10800.000
G1 F1200
G1 X95.210 Y133.210 E0.58256
G1 X154.790 Y133.210 E1.86809
G1 X154.790 Y151.790 E0.58256
G1 X95.270 Y151.790 E1.86621
G1 X95.374 Y151.425 F10800.000
G1 F8640
G1 X95.259 Y148.499 E-0.76000
G1 E-0.04000 F2100.00000
G1 Z0.600 F10800.000
G1 X101.849 Y141.498 F10800.000
G1 Z0.200 F10800.000
G1 E0.80000 F2100.00000
G1 F1200
G1 X101.931 Y141.335 E0.00576
G1 X102.130 Y141.030 E0.01149
G1 X102.358 Y140.748 E0.01144
G1 X102.615 Y140.491 E0.01145
G1 X102.896 Y140.263 E0.01144
G1 X103.200 Y140.065 E0.01144
G1 X103.365 Y139.981 E0.00584
G1 X109.449 Y133.897 E0.27153
G1 X109.986 Y133.897 E0.01694
G1 X104.205 Y139.679 E0.25803
G1 X104.571 Y139.620 E0.01172
G1 X104.813 Y139.608 E0.00764
G1 X110.523 Y133.897 E0.25484
G1 X111.060 Y133.897 E0.01694
G1 X105.331 Y139.626 E0.25566
G1 X105.782 Y139.711 E0.01449
G1 X111.596 Y133.897 E0.25947
G1 X112.133 Y133.897 E0.01694
G1 X106.189 Y139.842 E0.26529
G1 X106.557 Y140.010 E0.01278
G1 X112.670 Y133.897 E0.27280
G1 X113.207 Y133.897 E0.01694
G1 X106.892 Y140.212 E0.28182
G1 X107.195 Y140.445 E0.01208
G1 X113.743 Y133.897 E0.29223
G1 X114.280 Y133.897 E0.01694
G1 X107.469 Y140.708 E0.30397
G1 X107.713 Y141.001 E0.01203
G1 X114.817 Y133.897 E0.31702
G1 X115.354 Y133.897 E0.01694
G1 X107.928 Y141.323 E0.33141
G1 X108.108 Y141.680 E0.01261
G1 X115.890 Y133.897 E0.34732
G1 X116.427 Y133.897 E0.01694
G1 X108.250 Y142.074 E0.36493
G1 X108.349 Y142.512 E0.01416
G1 X116.964 Y133.897 E0.38446
G1 X117.500 Y133.897 E0.01694
G1 X108.395 Y143.002 E0.40636
G1 X108.380 Y143.429 E0.01346
G1 X108.356 Y143.579 E0.00478
G1 X118.037 Y133.897 E0.43206
G1 X118.574 Y133.897 E0.01694
G1 X108.164 Y144.307 E0.46460
G1 F8640
G1 X110.491 Y141.980 E-0.76000
G1 E-0.04000 F2100.00000
G1 Z0.600 F10800.000
G1 X96.031 Y133.897 F10800.000
G1 Z0.200 F10800.000
G1 E0.80000 F2100.00000
G1 F1200
G1 X95.897 Y134.031 E0.00596
G1 X95.897 Y134.568 E0.01694
G1 X96.568 Y133.897 E0.02991
G1 X97.104 Y133.897 E0.01694
G1 X95.897 Y135.104 E0.05387
G1 X95.897 Y135.641 E0.01694
G1 X97.641 Y133.897 E0.07782
G1 X98.178 Y133.897 E0.01694
G1 X95.897 Y136.178 E0.10178
G1 X95.897 Y136.715 E0.01694
G1 X98.715 Y133.897 E0.12573
G1 X99.251 Y133.897 E0.01694
G1 X95.897 Y137.251 E0.14969
G1 X95.897 Y137.788 E0.01694
G1 X99.788 Y133.897 E0.17364
G1 X100.325 Y133.897 E0.01694
G1 X95.897 Y138.325 E0.19759
G1 X95.897 Y138.862 E0.01694
G1 X100.862 Y133.897 E0.22155
G1 X101.398 Y133.897 E0.01694
G1 X95.897 Y139.398 E0.24550
G1 X95.897 Y139.935 E0.01694
G1 X101.935 Y133.897 E0.26946
G1 X102.472 Y133.897 E0.01694
G1 X95.897 Y140.472 E0.29341
G1 X95.897 Y141.009 E0.01694
G1 X103.009 Y133.897 E0.31737
G1 X103.545 Y133.897 E0.01694
G1 X95.897 Y141.545 E0.34132
G1 X95.897 Y142.082 E0.01694
G1 X104.082 Y133.897 E0.36528
G1 X104.619 Y133.897 E0.01694
G1 X95.897 Y142.619 E0.38923
G1 X95.897 Y143.156 E0.01694
G1 X105.156 Y133.897 E0.41318
G1 X105.692 Y133.897 E0.01694
G1 X95.897 Y143.692 E0.43714
G1 X95.897 Y144.229 E0.01694
G1 X106.229 Y133.897 E0.46109
G1 X106.766 Y133.897 E0.01694
G1 X95.897 Y144.766 E0.48505
G1 X95.897 Y145.302 E0.01694
G1 X107.302 Y133.897 E0.50900
G1 X107.839 Y133.897 E0.01694
G1 X95.897 Y145.839 E0.53296
G1 X95.897 Y146.376 E0.01694
G1 X108.376 Y133.897 E0.55691
G1 X108.913 Y133.897 E0.01694
G1 X95.897 Y146.913 E0.58087
G1 X95.897 Y147.449 E0.01694
G1 X101.982 Y141.365 E0.27157
G1 X101.771 Y141.862 E0.01707
G1 X101.679 Y142.204 E0.01117
G1 X95.897 Y147.986 E0.25804
G1 X95.897 Y148.523 E0.01694
G1 X101.608 Y142.813 E0.25484
G1 X101.626 Y143.331 E0.01637
G1 X95.897 Y149.060 E0.25566
G1 X95.897 Y149.596 E0.01694
G1 X101.711 Y143.782 E0.25947
G1 X101.842 Y144.189 E0.01347
G1 X95.897 Y150.133 E0.26529
G1 X95.897 Y150.670 E0.01694
G1 X102.010 Y144.557 E0.27280
G1 X102.212 Y144.892 E0.01234
G1 X96.002 Y151.103 E0.27718
G1 X96.538 Y151.103 E0.01694
G1 X102.445 Y145.195 E0.26363
G1 X102.708 Y145.469 E0.01198
G1 X97.075 Y151.103 E0.25141
G1 X97.612 Y151.103 E0.01694
G1 X103.001 Y145.713 E0.24051
G1 X103.323 Y145.928 E0.01222
G1 X98.148 Y151.103 E0.23095
G1 X98.685 Y151.103 E0.01694
G1 X103.680 Y146.108 E0.22291
G1 X104.074 Y146.250 E0.01323
G1 X99.222 Y151.103 E0.21656
G1 X99.759 Y151.103 E0.01694
G1 X104.512 Y146.349 E0.21213
G1 X105.002 Y146.395 E0.01555
G1 X100.295 Y151.103 E0.21008
G1 X100.832 Y151.103 E0.01694
G1 X105.579 Y146.356 E0.21183
G1 X105.787 Y146.323 E0.00667
G1 X106.138 Y146.229 E0.01144
G1 X106.307 Y146.164 E0.00574
