; generated by Slic3r 1.3.0 on 2021-07-18 at 13:42:11

; Filament notes: 
; Affordable filament for everyday printing in premium quality manufactured in-house by Josef Prusa
; 
; Printer Config Notes: 
; Don't remove the following keywords! These keywords are used in the "compatible printer" condition of the print and filament profiles to link the particular print and filament profiles to this printer profile.
; PRINTER_VENDOR_PRUSA3D
; PRINTER_MODEL_MK3
; 
; external perimeters extrusion width = 0.45mm (2.19mm^3/s)
; perimeters extrusion width = 0.45mm (3.76mm^3/s)
; infill extrusion width = 0.45mm (12.53mm^3/s)
; solid infill extrusion width = 0.45mm (12.53mm^3/s)
; top infill extrusion width = 0.40mm (2.76mm^3/s)

M107
;M862.3 P "[printer_model]" ; printer model check
M862.1 P0.4 ; nozzle diameter check
M115 U3.10.0 ; tell printer latest fw version
G90 ; use absolute coordinates
M83 ; extruder relative mode
M104 S215 ; set extruder temp
M140 S60 ; set bed temp
M190 S60 ; wait for bed temp
M109 S215 ; wait for extruder temp
G28 W ; home all without mesh bed level
G80 ; mesh bed leveling
G1 Y-3.0 F1000.0 ; go outside print area
G92 E0.0
G1 X60.0 E9.0 F1000.0 ; intro line
G1 X100.0 E12.5 F1000.0 ; intro line
G92 E0.0
M221 S100{else}95{endif}

; Don't change E values below. Excessive value can damage the printer.
M907 E430 ; set extruder motor current{endif}
M907 E538 ; set extruder motor current{endif}
M900 K0.12{elsif printer_notes=~/.*PRINTER_MODEL_MINI.*/ and nozzle_diameter[0]==0.8}0.06{elsif printer_notes=~/.*PRINTER_MODEL_MINI.*/}0.2{elsif nozzle_diameter[0]==0.8}0.01{elsif nozzle_diameter[0]==0.6}0.04{else}0.05{endif} ; Filament gcode LA 1.5
;{elsif printer_notes=~/.*PRINTER_HAS_BOWDEN.*/}M900 K200{elsif nozzle_diameter[0]==0.6}M900 K18{elsif nozzle_diameter[0]==0.8};{else}M900 K30{endif} ; Filament gcode LA 1.0
G21 ; set units to millimeters
G90 ; use absolute coordinates
M83 ; use relative distances for extrusion
;BEFORE_LAYER_CHANGE
G92 E0.0
;0.2


G1 E-0.80000 F2100.00000
G1 Z0.400 F10800.000
;AFTER_LAYER_CHANGE
;0.2
G1 X76.515 Y61.193 F10800.000
G1 Z0.200 F10800.000
G1 E0.80000 F2100.00000
M201 X1000 Y1000
M204 P1000 T1000
G1 F1200
G1 X77.181 Y60.522 E0.02966
G1 X107.181 Y40.522 E1.13050
G1 X108.500 Y40.123 E0.04320
G1 X126.500 Y40.123 E0.56438
G1 X128.181 Y40.819 E0.05704
G1 X148.181 Y60.819 E0.88683
G1 X148.664 Y61.516 E0.02660
G1 X173.664 Y116.516 E1.89428
G1 X173.877 Y117.500 E0.03156
G1 X173.877 Y147.500 E0.94063
G1 X173.181 Y149.181 E0.05704
G1 X153.181 Y169.181 E0.88683
G1 X151.500 Y169.877 E0.05704
G1 X133.500 Y169.877 E0.56438
G1 X132.181 Y169.478 E0.04320
G1 X102.181 Y149.478 E1.13050
G1 X101.336 Y148.484 E0.04092
G1 X76.336 Y93.484 E1.89428
G1 X76.123 Y92.500 E0.03156
G1 X76.123 Y62.500 E0.94063
G1 X76.497 Y61.250 E0.04090
G1 F8640
G1 X77.181 Y60.522 E-0.23073
G1 F8640
G1 X79.089 Y59.251 E-0.52927
G1 E-0.04000 F2100.00000
G1 Z0.600 F10800.000
G1 X137.500 Y155.365 F10800.000
G1 Z0.200 F10800.000
G1 E0.80000 F2100.00000
G1 F1200
G1 X139.717 Y156.283 E0.07524
G1 X140.635 Y158.500 E0.07525
G1 X139.717 Y160.717 E0.07525
G1 X137.500 Y161.635 E0.07524
G1 X135.283 Y160.717 E0.07524
G1 X134.365 Y158.500 E0.07525
G1 X135.283 Y156.283 E0.07525
G1 X137.445 Y155.388 E0.07336
G1 X137.500 Y155.773 F10800.000
G1 F1200
G1 X139.429 Y156.571 E0.06545
G1 X140.227 Y158.500 E0.06546
G1 X139.429 Y160.429 E0.06546
G1 X137.500 Y161.227 E0.06545
G1 X135.571 Y160.429 E0.06545
G1 X134.773 Y158.500 E0.06546
G1 X135.571 Y156.571 E0.06546
G1 X137.445 Y155.796 E0.06357
G1 X137.743 Y155.455 F10800.000
G1 F8640
G1 X139.429 Y156.571 E-0.49186
G1 F8640
G1 X139.873 Y157.644 E-0.26814
G1 E-0.04000 F2100.00000
G1 Z0.600 F10800.000
G1 X138.033 Y154.352 F10800.000
G1 Z0.200 F10800.000
G1 E0.80000 F2100.00000
G1 F1200
G1 X136.700 Y152.639 E0.06805
G1 X135.995 Y150.586 E0.06807
G1 X135.995 Y148.414 E0.06810
G1 X136.700 Y146.361 E0.06807
G1 X138.033 Y144.648 E0.06805
G1 X139.851 Y143.460 E0.06808
G1 X141.922 Y142.935 E0.06700
G1 X144.118 Y143.106 E0.06905
G1 X146.107 Y143.979 E0.06812
G1 X147.704 Y145.449 E0.06808
G1 X148.738 Y147.359 E0.06807
G1 X149.095 Y149.500 E0.06807
G1 X148.738 Y151.641 E0.06807
G1 X147.704 Y153.551 E0.06807
G1 X146.107 Y155.021 E0.06808
G1 X144.119 Y155.893 E0.06807
G1 X141.955 Y156.073 E0.06807
G1 X139.851 Y155.540 E0.06808
G1 X138.083 Y154.385 E0.06620
G1 X138.292 Y154.071 F10800.000
G1 F1200
G1 X137.036 Y152.457 E0.06411
G1 X136.372 Y150.523 E0.06412
G1 X136.372 Y148.477 E0.06415
G1 X137.036 Y146.543 E0.06412
G1 X138.292 Y144.929 E0.06411
G1 X140.004 Y143.810 E0.06414
G1 X141.954 Y143.316 E0.06308
G1 X144.025 Y143.477 E0.06511
G1 X145.898 Y144.299 E0.06414
G1 X147.403 Y145.684 E0.06413
G1 X148.376 Y147.483 E0.06412
G1 X148.713 Y149.500 E0.06412
G1 X148.376 Y151.517 E0.06412
G1 X147.403 Y153.316 E0.06412
G1 X145.898 Y154.701 E0.06413
G1 X144.025 Y155.522 E0.06412
G1 X141.987 Y155.692 E0.06413
G1 X140.004 Y155.190 E0.06413
G1 X138.342 Y154.103 E0.06225
G1 X137.910 Y154.190 F10800.000
G1 F8640
G1 X137.036 Y152.457 E-0.48524
G1 F8640
G1 X136.650 Y151.332 E-0.27476
G1 E-0.04000 F2100.00000
G1 Z0.600 F10800.000
G1 X157.614 Y134.597 F10800.000
G1 Z0.200 F10800.000
G1 E0.80000 F2100.00000
G1 F1200
G1 X156.933 Y132.500 E0.06913
G1 X157.614 Y130.403 E0.06913
G1 X159.398 Y129.107 E0.06913
G1 X161.602 Y129.107 E0.06913
G1 X163.386 Y130.403 E0.06913
G1 X164.067 Y132.500 E0.06913
G1 X163.386 Y134.597 E0.06913
G1 X161.602 Y135.893 E0.06913
G1 X159.398 Y135.893 E0.06913
G1 X157.663 Y134.632 E0.06725
G1 X157.935 Y134.364 F10800.000
G1 F1200
G1 X157.329 Y132.500 E0.06144
G1 X157.935 Y130.636 E0.06144
G1 X159.520 Y129.484 E0.06145
G1 X161.480 Y129.484 E0.06145
G1 X163.065 Y130.636 E0.06145
G1 X163.671 Y132.500 E0.06144
G1 X163.065 Y134.364 E0.06144
G1 X161.480 Y135.516 E0.06145
G1 X159.520 Y135.516 E0.06145
G1 X157.983 Y134.399 E0.05957
G1 X157.537 Y134.406 F10800.000
G1 F8640
G1 X157.329 Y132.500 E-0.46378
G1 F8640
G1 X157.726 Y131.280 E-0.29622
G1 E-0.04000 F2100.00000
G1 Z0.600 F10800.000
G1 X146.107 Y121.021 F10800.000
G1 Z0.200 F10800.000
G1 E0.80000 F2100.00000
G1 F1200
G1 X144.119 Y121.893 E0.06806
G1 X141.955 Y122.073 E0.06807
G1 X139.851 Y121.540 E0.06808
G1 X138.033 Y120.352 E0.06808
G1 X136.700 Y118.639 E0.06805
G1 X135.995 Y116.586 E0.06807
G1 X135.995 Y114.414 E0.06810
G1 X136.700 Y112.361 E0.06807
G1 X138.033 Y110.648 E0.06805
G1 X139.851 Y109.460 E0.06808
G1 X141.925 Y108.935 E0.06709
G1 X144.118 Y109.106 E0.06897
G1 X146.107 Y109.979 E0.06811
G1 X147.705 Y111.449 E0.06808
G1 X148.738 Y113.359 E0.06807
G1 X149.095 Y115.500 E0.06807
G1 X148.738 Y117.641 E0.06807
G1 X147.705 Y119.551 E0.06807
G1 X146.151 Y120.981 E0.06620
G1 X145.898 Y120.701 F10800.000
G1 F1200
G1 X144.025 Y121.522 E0.06412
G1 X141.987 Y121.692 E0.06413
G1 X140.004 Y121.190 E0.06413
G1 X138.292 Y120.071 E0.06414
G1 X137.036 Y118.457 E0.06411
G1 X136.372 Y116.523 E0.06412
G1 X136.372 Y114.477 E0.06415
G1 X137.036 Y112.543 E0.06412
G1 X138.292 Y110.929 E0.06411
G1 X140.004 Y109.810 E0.06414
G1 X141.957 Y109.315 E0.06317
G1 X144.025 Y109.477 E0.06502
G1 X145.898 Y110.299 E0.06414
G1 X147.403 Y111.684 E0.06413
G1 X148.376 Y113.483 E0.06412
G1 X148.713 Y115.500 E0.06412
G1 X148.376 Y117.517 E0.06412
G1 X147.403 Y119.316 E0.06412
G1 X145.942 Y120.661 E0.06225
G1 X145.920 Y121.101 F10800.000
G1 F8640
G1 X144.025 Y121.522 E-0.48533
G1 F8640
G1 X142.840 Y121.621 E-0.27467
G1 E-0.04000 F2100.00000
G1 Z0.600 F10800.000
G1 X139.717 Y108.717 F10800.000
G1 Z0.200 F10800.000
G1 E0.80000 F2100.00000
G1 F1200
G1 X137.500 Y109.635 E0.07524
G1 X135.283 Y108.717 E0.07524
G1 X134.365 Y106.500 E0.07525
G1 X135.283 Y104.283 E0.07525
G1 X137.500 Y103.365 E0.07524
G1 X139.717 Y104.283 E0.07524
G1 X140.635 Y106.500 E0.07525
G1 X139.740 Y108.662 E0.07337
G1 X139.429 Y108.429 F10800.000
G1 F1200
G1 X137.500 Y109.227 E0.06545
G1 X135.571 Y108.429 E0.06545
G1 X134.773 Y106.500 E0.06545
G1 X135.571 Y104.571 E0.06546
G1 X137.500 Y103.773 E0.06545
G1 X139.429 Y104.571 E0.06545
G1 X140.227 Y106.500 E0.06546
G1 X139.451 Y108.373 E0.06357
G1 X139.532 Y108.815 F10800.000
G1 F8640
G1 X137.500 Y109.227 E-0.49186
G1 F8640
G1 X136.427 Y108.783 E-0.26814
G1 E-0.04000 F2100.00000
G1 Z0.600 F10800.000
G1 X115.717 Y130.283 F10800.000
G1 Z0.200 F10800.000
G1 E0.80000 F2100.00000
G1 F1200
G1 X116.635 Y132.500 E0.07525
G1 X115.717 Y134.717 E0.07525
G1 X113.500 Y135.635 E0.07524
G1 X111.283 Y134.717 E0.07524
G1 X110.365 Y132.500 E0.07525
G1 X111.283 Y130.283 E0.07525
G1 X113.500 Y129.365 E0.07524
G1 X115.662 Y130.260 E0.07336
G1 X115.428 Y130.571 F10800.000
G1 F1200
G1 X116.227 Y132.500 E0.06546
G1 X115.428 Y134.429 E0.06546
G1 X113.500 Y135.227 E0.06545
G1 X111.572 Y134.429 E0.06545
G1 X110.773 Y132.500 E0.06546
G1 X111.572 Y130.571 E0.06546
G1 X113.500 Y129.773 E0.06545
G1 X115.373 Y130.548 E0.06356
G1 X115.824 Y130.513 F10800.000
G1 F8640
G1 X116.227 Y132.500 E-0.49193
G1 F8640
G1 X115.783 Y133.573 E-0.26807
G1 E-0.04000 F2100.00000
G1 Z0.600 F10800.000
G1 X134.087 Y118.087 F10800.000
G1 Z0.200 F10800.000
G1 E0.80000 F2100.00000
G1 F1200
G1 X134.087 Y98.087 E0.62709
G1 X150.913 Y98.087 E0.52756
G1 X150.913 Y118.087 E0.62709
G1 X170.913 Y118.087 E0.62709
G1 X170.913 Y146.913 E0.90381
G1 X150.913 Y146.913 E0.62709
G1 X150.913 Y166.913 E0.62709
G1 X134.087 Y166.913 E0.52756
G1 X134.087 Y146.913 E0.62709
G1 X104.087 Y146.913 E0.94063
G1 X104.087 Y118.087 E0.90381
G1 X134.027 Y118.087 E0.93875
G1 X133.710 Y117.710 F10800.000
G1 F1200
G1 X133.710 Y97.710 E0.62709
G1 X151.290 Y97.710 E0.55121
G1 X151.290 Y117.710 E0.62709
G1 X171.290 Y117.710 E0.62709
G1 X171.290 Y147.290 E0.92746
G1 X151.290 Y147.290 E0.62709
G1 X151.290 Y167.290 E0.62709
G1 X133.710 Y167.290 E0.55121
G1 X133.710 Y147.290 E0.62709
G1 X103.710 Y147.290 E0.94063
G1 X103.710 Y117.710 E0.92746
G1 X133.650 Y117.710 E0.93875
G1 X134.097 Y117.607 F10800.000
G1 F8640
G1 X133.660 Y114.419 E-0.76000
G1 E-0.04000 F2100.00000
G1 Z0.600 F10800.000
G1 X138.464 Y109.605 F10800.000
G1 Z0.200 F10800.000
G1 E0.80000 F2100.00000
G1 F1200
G1 X139.376 Y109.227 E0.03108
G1 X139.044 Y109.560 E0.01478
G1 F8640
G1 X139.376 Y109.227 E-0.10853
G1 F8640
G1 X138.464 Y109.605 E-0.22815
G1 E-0.46332 F2100.00000
G1 Z0.600 F10800.000
G1 X134.686 Y108.034 F10800.000
G1 Z0.200 F10800.000
G1 E0.80000 F2100.00000
G1 F1200
G1 X134.397 Y108.323 E0.01283
G1 X134.397 Y108.857 E0.01682
G1 X134.843 Y108.412 E0.01980
G1 X134.999 Y108.790 E0.01288
G1 X134.397 Y109.392 E0.02677
G1 X134.397 Y109.927 E0.01682
G1 X135.290 Y109.034 E0.03971
G1 X135.669 Y109.191 E0.01288
G1 X134.397 Y110.462 E0.05654
G1 X134.397 Y110.997 E0.01682
G1 X136.047 Y109.348 E0.07336
G1 X136.425 Y109.504 E0.01288
G1 X134.397 Y111.532 E0.09019
G1 X134.397 Y112.067 E0.01682
G1 X136.803 Y109.661 E0.10701
G1 X137.182 Y109.817 E0.01288
G1 X134.397 Y112.602 E0.12384
G1 X134.397 Y113.137 E0.01682
G1 X137.560 Y109.974 E0.14066
G1 X138.464 Y109.605 E0.03069
G1 X134.397 Y113.672 E0.18085
G1 X134.397 Y114.206 E0.01682
G1 X136.398 Y112.206 E0.08898
G1 X136.118 Y113.021 E0.02709
G1 X134.397 Y114.741 E0.07654
G1 X134.397 Y115.276 E0.01682
G1 X135.839 Y113.835 E0.06410
G1 X135.684 Y114.284 E0.01494
G1 X135.684 Y114.524 E0.00754
G1 X134.397 Y115.811 E0.05724
G1 X134.397 Y116.346 E0.01682
G1 X135.684 Y115.059 E0.05724
G1 X135.684 Y115.594 E0.01682
G1 X134.397 Y116.881 E0.05724
G1 X134.397 Y117.416 E0.01682
G1 X135.684 Y116.129 E0.05724
G1 X135.684 Y116.582 E0.01425
G1 X135.705 Y116.643 E0.00202
G1 X134.397 Y117.951 E0.05816
G1 X134.397 Y118.486 E0.01682
G1 X135.842 Y117.041 E0.06425
G1 X135.979 Y117.439 E0.01324
G1 X106.816 Y146.603 E1.29710
G1 X107.350 Y146.603 E0.01682
G1 X136.115 Y117.838 E1.27939
G1 X136.252 Y118.236 E0.01324
G1 X107.885 Y146.603 E1.26168
G1 X108.420 Y146.603 E0.01682
G1 X136.389 Y118.634 E1.24397
G1 X136.430 Y118.755 E0.00401
G1 X136.593 Y118.964 E0.00835
G1 X108.955 Y146.603 E1.22928
G1 X109.490 Y146.603 E0.01682
G1 X136.828 Y119.265 E1.21590
G1 X137.062 Y119.566 E0.01199
G1 X110.025 Y146.603 E1.20253
G1 X110.560 Y146.603 E0.01682
G1 X137.296 Y119.866 E1.18915
G1 X137.530 Y120.167 E0.01199
G1 X111.095 Y146.603 E1.17577
G1 X111.630 Y146.603 E0.01682
G1 X137.764 Y120.468 E1.16240
G1 X137.841 Y120.566 E0.00393
G1 X138.058 Y120.709 E0.00817
G1 X112.165 Y146.603 E1.15169
G1 X112.699 Y146.603 E0.01682
G1 X138.382 Y120.920 E1.14229
G1 X138.705 Y121.132 E0.01215
G1 X113.234 Y146.603 E1.13288
G1 X113.769 Y146.603 E0.01682
G1 X139.029 Y121.343 E1.12348
G1 X139.352 Y121.554 E0.01215
G1 X114.304 Y146.603 E1.11407
G1 X114.839 Y146.603 E0.01682
G1 X139.676 Y121.766 E1.10467
G1 X139.764 Y121.823 E0.00330
G1 X140.074 Y121.902 E0.01008
G1 X115.374 Y146.603 E1.09861
G1 X115.909 Y146.603 E0.01682
G1 X140.501 Y122.010 E1.09380
G1 X140.928 Y122.118 E0.01385
G1 X116.444 Y146.603 E1.08899
G1 X116.979 Y146.603 E0.01682
G1 X141.355 Y122.226 E1.08418
G1 X141.782 Y122.335 E0.01385
G1 X117.514 Y146.603 E1.07938
G1 X118.049 Y146.603 E0.01682
G1 X142.288 Y122.363 E1.07812
G1 X142.872 Y122.314 E0.01842
G1 X118.583 Y146.603 E1.08029
G1 X119.118 Y146.603 E0.01682
G1 X143.455 Y122.265 E1.08245
G1 X144.039 Y122.217 E0.01842
G1 X119.653 Y146.603 E1.08461
G1 X120.188 Y146.603 E0.01682
G1 X144.839 Y121.952 E1.09641
G1 X145.792 Y121.534 E0.03271
G1 X120.723 Y146.603 E1.11499
G1 F8640
G1 X123.050 Y144.275 E-0.76000
G1 E-0.04000 F2100.00000
G1 Z0.600 F10800.000
G1 X116.129 Y134.615 F10800.000
G1 Z0.200 F10800.000
G1 E0.80000 F2100.00000
G1 F1200
G1 X132.346 Y118.397 E0.72131
G1 X131.811 Y118.397 E0.01682
G1 X116.507 Y133.702 E0.68070
G1 X116.885 Y132.789 E0.03108
G1 X131.276 Y118.397 E0.64009
G1 X130.741 Y118.397 E0.01682
G1 X116.858 Y132.280 E0.61748
G1 X116.702 Y131.902 E0.01288
G1 X130.206 Y118.397 E0.60066
G1 X129.672 Y118.397 E0.01682
G1 X116.545 Y131.524 E0.58383
G1 X116.388 Y131.146 E0.01288
G1 X129.137 Y118.397 E0.56701
G1 X128.602 Y118.397 E0.01682
G1 X116.232 Y130.767 E0.55019
G1 X116.075 Y130.389 E0.01288
G1 X128.067 Y118.397 E0.53336
G1 X127.532 Y118.397 E0.01682
G1 X115.889 Y130.040 E0.51783
G1 X115.511 Y129.883 E0.01288
G1 X126.997 Y118.397 E0.51087
G1 X126.462 Y118.397 E0.01682
G1 X115.133 Y129.727 E0.50390
G1 X114.754 Y129.570 E0.01288
G1 X125.927 Y118.397 E0.49693
G1 X125.392 Y118.397 E0.01682
G1 X114.376 Y129.414 E0.48997
G1 X113.998 Y129.257 E0.01288
G1 X124.857 Y118.397 E0.48300
G1 X124.323 Y118.397 E0.01682
G1 X113.620 Y129.100 E0.47603
G1 X113.433 Y129.023 E0.00634
G1 X112.970 Y129.215 E0.01577
G1 X123.788 Y118.397 E0.48113
G1 X123.253 Y118.397 E0.01682
G1 X112.057 Y129.593 E0.49795
G1 X111.144 Y129.971 E0.03108
G1 X122.718 Y118.397 E0.51476
G1 X122.183 Y118.397 E0.01682
G1 X104.397 Y136.183 E0.79105
G1 X104.397 Y135.648 E0.01682
G1 X121.648 Y118.397 E0.76726
G1 X121.113 Y118.397 E0.01682
G1 X104.397 Y135.113 E0.74347
G1 X104.397 Y134.578 E0.01682
G1 X120.578 Y118.397 E0.71968
G1 X120.043 Y118.397 E0.01682
G1 X104.397 Y134.043 E0.69588
G1 X104.397 Y133.508 E0.01682
G1 X119.508 Y118.397 E0.67209
G1 X118.973 Y118.397 E0.01682
G1 X104.397 Y132.973 E0.64830
G1 X104.397 Y132.439 E0.01682
G1 X118.439 Y118.397 E0.62451
G1 X117.904 Y118.397 E0.01682
G1 X104.397 Y131.904 E0.60072
G1 X104.397 Y131.369 E0.01682
G1 X117.369 Y118.397 E0.57693
G1 X116.834 Y118.397 E0.01682
G1 X104.397 Y130.834 E0.55314
G1 X104.397 Y130.299 E0.01682
G1 X116.299 Y118.397 E0.52935
G1 X115.764 Y118.397 E0.01682
G1 X104.397 Y129.764 E0.50556
G1 X104.397 Y129.229 E0.01682
G1 X115.229 Y118.397 E0.48176
G1 X114.694 Y118.397 E0.01682
G1 X104.397 Y128.694 E0.45797
G1 X104.397 Y128.159 E0.01682
G1 X114.159 Y118.397 E0.43418
G1 X113.624 Y118.397 E0.01682
G1 X104.397 Y127.624 E0.41039
G1 X104.397 Y127.090 E0.01682
G1 X113.090 Y118.397 E0.38660
G1 X112.555 Y118.397 E0.01682
G1 X104.397 Y126.555 E0.36281
G1 X104.397 Y126.020 E0.01682
G1 X112.020 Y118.397 E0.33902
G1 X111.485 Y118.397 E0.01682
G1 X104.397 Y125.485 E0.31523
G1 X104.397 Y124.950 E0.01682
G1 X110.950 Y118.397 E0.29144
G1 X110.415 Y118.397 E0.01682
G1 X104.397 Y124.415 E0.26764
G1 X104.397 Y123.880 E0.01682
G1 X109.880 Y118.397 E0.24385
G1 X109.345 Y118.397 E0.01682
