; generated by Slic3r 1.3.0 on 2021-09-12 at 15:05:33

; Filament notes: 
; Affordable filament for everyday printing in premium quality manufactured in-house by Josef Prusa
; 
; Printer Config Notes: 
; Don't remove the following keywords! These keywords are used in the "compatible printer" condition of the print and filament profiles to link the particular print and filament profiles to this printer profile.
; PRINTER_VENDOR_PRUSA3D
; PRINTER_MODEL_MK3
; 
; external perimeters extrusion width = 0.45mm (2.19mm^3/s)
; perimeters extrusion width = 0.45mm (3.76mm^3/s)
; infill extrusion width = 0.45mm (12.53mm^3/s)
; solid infill extrusion width = 0.45mm (12.53mm^3/s)
; top infill extrusion width = 0.40mm (2.76mm^3/s)

M107
;M862.3 P "[printer_model]" ; printer model check
M862.1 P0.4 ; nozzle diameter check
M115 U3.10.0 ; tell printer latest fw version
G90 ; use absolute coordinates
M83 ; extruder relative mode
M104 S215 ; set extruder temp
M140 S60 ; set bed temp
M190 S60 ; wait for bed temp
M109 S215 ; wait for extruder temp
G28 W ; home all without mesh bed level
G80 ; mesh bed leveling
G1 Y-3.0 F1000.0 ; go outside print area
G92 E0.0
G1 X60.0 E9.0 F1000.0 ; intro line
G1 X100.0 E12.5 F1000.0 ; intro line
G92 E0.0
M221 S100{else}95{endif}

; Don't change E values below. Excessive value can damage the printer.
M907 E430 ; set extruder motor current{endif}
M907 E538 ; set extruder motor current{endif}
M900 K0.12{elsif printer_notes=~/.*PRINTER_MODEL_MINI.*/ and nozzle_diameter[0]==0.8}0.06{elsif printer_notes=~/.*PRINTER_MODEL_MINI.*/}0.2{elsif nozzle_diameter[0]==0.8}0.01{elsif nozzle_diameter[0]==0.6}0.04{else}0.05{endif} ; Filament gcode LA 1.5
;{elsif printer_notes=~/.*PRINTER_HAS_BOWDEN.*/}M900 K200{elsif nozzle_diameter[0]==0.6}M900 K18{elsif nozzle_diameter[0]==0.8};{else}M900 K30{endif} ; Filament gcode LA 1.0
G21 ; set units to millimeters
G90 ; use absolute coordinates
M83 ; use relative distances for extrusion
;BEFORE_LAYER_CHANGE 0.2
G92 E0.0

G1 E-0.80000 F2100.00000
G1 Z0.400 F10800.000
;AFTER_LAYER_CHANGE 0.2
G1 X79.067 Y67.823 F10800.000
G1 Z0.200 F10800.000
G1 E0.80000 F2100.00000
M201 X1000 Y1000
M204 P1000 T1000
G1 F1200
G1 X79.852 Y67.065 E0.03423
G1 X83.394 Y64.960 E0.12919
G1 X84.559 Y64.627 E0.03800
G1 X114.981 Y63.999 E0.95405
G1 X153.127 Y64.000 E1.19603
G1 X181.572 Y65.156 E0.89263
G1 X183.766 Y65.459 E0.06944
G1 X184.984 Y66.016 E0.04200
G1 X186.599 Y67.423 E0.06715
G1 X187.199 Y68.434 E0.03686
G1 X187.755 Y70.326 E0.06184
G1 X187.851 Y70.996 E0.02121
G1 X187.851 Y91.496 E0.64276
G1 X187.798 Y91.993 E0.01567
G1 X177.850 Y138.531 E1.49216
G1 X177.194 Y139.728 E0.04278
G1 X175.704 Y140.405 E0.05130
G1 X101.705 Y145.995 E2.32680
G1 X64.526 Y146.002 E1.16572
G1 X63.219 Y145.610 E0.04278
G1 X62.343 Y144.564 E0.04278
G1 X62.149 Y143.624 E0.03008
G1 X62.149 Y101.624 E1.31688
G1 X62.401 Y100.559 E0.03433
G1 X77.875 Y69.702 E1.08234
G1 X79.034 Y67.874 E0.06787
G1 F8640
G1 X79.852 Y67.065 E-0.26559
G1 F8640
G1 X81.693 Y65.971 E-0.49441
G1 E-0.04000 F2100.00000
G1 Z0.600 F10800.000
G1 X98.516 Y133.624 F10800.000
G1 Z0.200 F10800.000
G1 E0.80000 F2100.00000
G1 F1200
G1 X98.473 Y134.038 E0.01305
G1 X98.344 Y134.434 E0.01305
G1 X98.136 Y134.794 E0.01305
G1 X97.858 Y135.104 E0.01305
G1 X97.521 Y135.348 E0.01305
G1 X97.141 Y135.517 E0.01305
G1 X96.734 Y135.604 E0.01305
G1 X96.318 Y135.604 E0.01305
G1 X95.911 Y135.517 E0.01305
G1 X95.531 Y135.348 E0.01305
G1 X95.194 Y135.104 E0.01305
G1 X94.916 Y134.794 E0.01305
G1 X94.708 Y134.434 E0.01305
G1 X94.579 Y134.038 E0.01305
G1 X94.536 Y133.624 E0.01305
G1 X94.579 Y133.211 E0.01305
G1 X94.708 Y132.815 E0.01305
G1 X94.916 Y132.455 E0.01305
G1 X95.194 Y132.145 E0.01305
G1 X95.531 Y131.901 E0.01305
G1 X95.911 Y131.732 E0.01305
G1 X96.318 Y131.645 E0.01305
G1 X96.734 Y131.645 E0.01305
G1 X97.141 Y131.732 E0.01305
G1 X97.521 Y131.901 E0.01305
G1 X97.858 Y132.145 E0.01305
G1 X98.136 Y132.455 E0.01305
G1 X98.344 Y132.815 E0.01305
G1 X98.473 Y133.211 E0.01305
G1 X98.510 Y133.565 E0.01116
G1 X98.137 Y133.624 F10800.000
G1 F1200
G1 X98.102 Y133.959 E0.01056
G1 X97.998 Y134.280 E0.01056
G1 X97.830 Y134.571 E0.01056
G1 X97.604 Y134.822 E0.01056
G1 X97.332 Y135.020 E0.01056
G1 X97.024 Y135.157 E0.01056
G1 X96.695 Y135.227 E0.01056
G1 X96.358 Y135.227 E0.01056
G1 X96.028 Y135.157 E0.01056
G1 X95.721 Y135.020 E0.01056
G1 X95.448 Y134.822 E0.01056
G1 X95.223 Y134.571 E0.01056
G1 X95.054 Y134.280 E0.01056
G1 X94.950 Y133.959 E0.01056
G1 X94.915 Y133.624 E0.01056
G1 X94.950 Y133.289 E0.01056
G1 X95.054 Y132.969 E0.01056
G1 X95.223 Y132.677 E0.01056
G1 X95.448 Y132.427 E0.01056
G1 X95.721 Y132.229 E0.01056
G1 X96.028 Y132.092 E0.01056
G1 X96.358 Y132.022 E0.01056
G1 X96.695 Y132.022 E0.01056
G1 X97.024 Y132.092 E0.01056
G1 X97.332 Y132.229 E0.01056
G1 X97.604 Y132.427 E0.01056
G1 X97.830 Y132.677 E0.01056
G1 X97.998 Y132.969 E0.01056
G1 X98.102 Y133.289 E0.01056
G1 X98.131 Y133.565 E0.00868
G1 X98.429 Y133.793 F10800.000
G1 F8640
G1 X98.102 Y133.959 E-0.09137
G1 F8640
G1 X97.998 Y134.280 E-0.07777
G1 F8640
G1 X97.830 Y134.571 E-0.07777
G1 F8640
G1 X97.604 Y134.822 E-0.07778
G1 F8640
G1 X97.332 Y135.020 E-0.07777
G1 F8640
G1 X97.024 Y135.157 E-0.07777
G1 F8640
G1 X96.695 Y135.227 E-0.07777
G1 F8640
G1 X96.358 Y135.227 E-0.07777
G1 F8640
G1 X96.028 Y135.157 E-0.07777
G1 F8640
G1 X95.845 Y135.075 E-0.04644
G1 E-0.04000 F2100.00000
G1 Z0.600 F10800.000
G1 X74.317 Y108.505 F10800.000
G1 Z0.200 F10800.000
G1 E0.80000 F2100.00000
G1 F1200
G1 X74.004 Y108.505 E0.00982
G1 X74.016 Y108.624 E0.00377
G1 X73.962 Y109.142 E0.01632
G1 X73.801 Y109.637 E0.01632
G1 X73.541 Y110.088 E0.01632
G1 X73.192 Y110.475 E0.01632
G1 X72.771 Y110.781 E0.01632
G1 X72.296 Y110.993 E0.01632
G1 X71.786 Y111.101 E0.01632
G1 X71.266 Y111.101 E0.01632
G1 X70.757 Y110.993 E0.01632
G1 X70.281 Y110.781 E0.01632
G1 X69.860 Y110.475 E0.01632
G1 X69.511 Y110.088 E0.01632
G1 X69.251 Y109.637 E0.01632
G1 X69.090 Y109.142 E0.01632
G1 X69.037 Y108.636 E0.01597
G1 X69.090 Y108.108 E0.01663
G1 X69.251 Y107.612 E0.01637
G1 X69.511 Y107.161 E0.01632
G1 X69.860 Y106.774 E0.01632
G1 X70.281 Y106.468 E0.01632
G1 X70.757 Y106.256 E0.01632
G1 X71.266 Y106.148 E0.01632
G1 X71.786 Y106.148 E0.01632
G1 X72.296 Y106.256 E0.01632
G1 X72.771 Y106.468 E0.01632
G1 X73.192 Y106.774 E0.01632
G1 X73.541 Y107.161 E0.01632
G1 X74.287 Y108.453 E0.04679
G1 X73.637 Y108.624 F10800.000
G1 F1200
G1 X73.591 Y109.063 E0.01384
G1 X73.455 Y109.483 E0.01384
G1 X73.234 Y109.865 E0.01384
G1 X72.939 Y110.193 E0.01384
G1 X72.582 Y110.453 E0.01384
G1 X72.179 Y110.632 E0.01384
G1 X71.747 Y110.724 E0.01384
G1 X71.305 Y110.724 E0.01384
G1 X70.874 Y110.632 E0.01384
G1 X70.471 Y110.453 E0.01384
G1 X70.114 Y110.193 E0.01384
G1 X69.818 Y109.865 E0.01384
G1 X69.598 Y109.483 E0.01384
G1 X69.461 Y109.063 E0.01384
G1 X69.416 Y108.635 E0.01351
G1 X69.461 Y108.186 E0.01414
G1 X69.598 Y107.766 E0.01385
G1 X69.818 Y107.384 E0.01384
G1 X70.114 Y107.056 E0.01384
G1 X70.471 Y106.796 E0.01384
G1 X70.874 Y106.617 E0.01384
G1 X71.305 Y106.525 E0.01384
G1 X71.747 Y106.525 E0.01384
G1 X72.179 Y106.617 E0.01384
G1 X72.582 Y106.796 E0.01384
G1 X72.939 Y107.056 E0.01384
G1 X73.234 Y107.384 E0.01384
G1 X73.664 Y108.128 E0.02695
G1 X73.572 Y108.128 E0.00287
G1 X73.631 Y108.565 E0.01382
G1 X73.978 Y108.834 F10800.000
G1 F8640
G1 X73.591 Y109.063 E-0.11550
G1 F8640
G1 X73.455 Y109.483 E-0.10191
G1 F8640
G1 X73.234 Y109.865 E-0.10191
G1 F8640
G1 X72.939 Y110.193 E-0.10191
G1 F8640
G1 X72.582 Y110.453 E-0.10191
G1 F8640
G1 X72.179 Y110.632 E-0.10191
G1 F8640
G1 X71.747 Y110.724 E-0.10191
G1 F8640
G1 X71.604 Y110.724 E-0.03305
G1 E-0.04000 F2100.00000
G1 Z0.600 F10800.000
G1 X81.939 Y124.212 F10800.000
G1 Z0.200 F10800.000
G1 E0.80000 F2100.00000
G1 F1200
G1 X100.939 Y124.212 E0.59573
G1 X100.939 Y143.037 E0.59027
G1 X65.113 Y143.037 E1.12329
G1 X65.113 Y102.212 E1.28007
G1 X81.939 Y102.212 E0.52756
G1 X81.939 Y124.152 E0.68791
G1 X82.316 Y123.834 F10800.000
G1 F1200
G1 X101.316 Y123.834 E0.59573
G1 X101.316 Y143.414 E0.61392
G1 X64.736 Y143.414 E1.14694
G1 X64.736 Y101.834 E1.30371
G1 X82.316 Y101.834 E0.55121
G1 X82.316 Y123.774 E0.68791
G1 X82.405 Y124.224 F10800.000
G1 F8640
G1 X85.608 Y123.785 E-0.76000
G1 E-0.04000 F2100.00000
G1 Z0.600 F10800.000
G1 X73.577 Y110.604 F10800.000
G1 Z0.200 F10800.000
G1 E0.80000 F2100.00000
G1 F1200
G1 X81.629 Y102.553 E0.35934
G1 X81.629 Y102.522 E0.00096
G1 X81.123 Y102.522 E0.01597
G1 X74.827 Y108.817 E0.28095
G1 X74.631 Y108.477 E0.01240
G1 X80.586 Y102.522 E0.26576
G1 X80.049 Y102.522 E0.01694
G1 X74.434 Y108.137 E0.25058
G1 X74.238 Y107.796 E0.01240
G1 X79.512 Y102.522 E0.23539
G1 X78.976 Y102.522 E0.01694
G1 X74.042 Y107.456 E0.22020
G1 X73.845 Y107.116 E0.01240
G1 X78.439 Y102.522 E0.20502
G1 X77.902 Y102.522 E0.01694
G1 X73.610 Y106.814 E0.19157
G1 X73.350 Y106.537 E0.01198
G1 X77.365 Y102.522 E0.17920
G1 X76.829 Y102.522 E0.01694
G1 X73.039 Y106.311 E0.16912
G1 X72.894 Y106.206 E0.00565
G1 X72.696 Y106.118 E0.00685
G1 X76.292 Y102.522 E0.16048
G1 X75.755 Y102.522 E0.01694
G1 X72.320 Y105.957 E0.15329
G1 X71.878 Y105.863 E0.01428
G1 X75.218 Y102.522 E0.14909
G1 X74.682 Y102.522 E0.01694
G1 X71.366 Y105.837 E0.14797
G1 X71.160 Y105.837 E0.00652
G1 X70.740 Y105.926 E0.01352
G1 X74.145 Y102.522 E0.15194
G1 X73.608 Y102.522 E0.01694
G1 X69.656 Y106.474 E0.17637
G1 X69.539 Y106.559 E0.00456
G1 X69.250 Y106.880 E0.01364
G1 F8640
G1 X69.539 Y106.559 E-0.09977
G1 F8640
G1 X69.656 Y106.474 E-0.03337
G1 F8640
G1 X71.576 Y104.554 E-0.62686
G1 E-0.04000 F2100.00000
G1 Z0.600 F10800.000
G1 X74.223 Y109.422 F10800.000
G1 Z0.200 F10800.000
G1 E0.80000 F2100.00000
G1 F1200
G1 X74.829 Y108.815 E0.02706
G1 X75.037 Y108.815 E0.00655
G1 X74.961 Y108.684 E0.00480
G1 F8640
G1 X75.037 Y108.815 E-0.03510
G1 F8640
G1 X74.829 Y108.815 E-0.04795
G1 F8640
G1 X74.223 Y109.422 E-0.19801
G1 E-0.51894 F2100.00000
G1 Z0.600 F10800.000
G1 X65.557 Y102.522 F10800.000
G1 Z0.200 F10800.000
G1 E0.80000 F2100.00000
G1 F1200
G1 X65.424 Y102.655 E0.00596
G1 X65.424 Y103.192 E0.01694
G1 X66.094 Y102.522 E0.02991
G1 X66.631 Y102.522 E0.01694
G1 X65.424 Y103.729 E0.05387
G1 X65.424 Y104.266 E0.01694
G1 X67.167 Y102.522 E0.07782
G1 X67.704 Y102.522 E0.01694
G1 X65.424 Y104.802 E0.10178
G1 X65.424 Y105.339 E0.01694
G1 X68.241 Y102.522 E0.12573
G1 X68.778 Y102.522 E0.01694
G1 X65.424 Y105.876 E0.14969
G1 X65.424 Y106.413 E0.01694
G1 X69.314 Y102.522 E0.17364
G1 X69.851 Y102.522 E0.01694
G1 X65.424 Y106.949 E0.19759
G1 X65.424 Y107.486 E0.01694
G1 X70.388 Y102.522 E0.22155
G1 X70.925 Y102.522 E0.01694
G1 X65.424 Y108.023 E0.24550
G1 X65.424 Y108.560 E0.01694
G1 X71.461 Y102.522 E0.26946
G1 X71.998 Y102.522 E0.01694
G1 X65.424 Y109.096 E0.29341
G1 X65.424 Y109.633 E0.01694
G1 X72.535 Y102.522 E0.31737
G1 X73.071 Y102.522 E0.01694
G1 X65.424 Y110.170 E0.34132
G1 X65.424 Y110.707 E0.01694
G1 X69.384 Y106.746 E0.17674
G1 X69.271 Y106.871 E0.00530
G1 X68.971 Y107.391 E0.01893
G1 X68.825 Y107.842 E0.01498
G1 X65.424 Y111.243 E0.15179
G1 X65.424 Y111.780 E0.01694
G1 X68.735 Y108.469 E0.14778
G1 X68.725 Y108.570 E0.00321
G1 X68.767 Y108.973 E0.01279
G1 X65.424 Y112.317 E0.14922
G1 X65.424 Y112.853 E0.01694
G1 X68.869 Y109.408 E0.15375
G1 X68.971 Y109.725 E0.01050
G1 X69.014 Y109.799 E0.00271
G1 X65.424 Y113.390 E0.16026
G1 X65.424 Y113.927 E0.01694
G1 X69.211 Y110.140 E0.16902
G1 X69.271 Y110.244 E0.00382
G1 X69.447 Y110.440 E0.00830
G1 X65.424 Y114.464 E0.17958
G1 X65.424 Y115.000 E0.01694
G1 X69.708 Y110.716 E0.19122
G1 X70.019 Y110.942 E0.01213
G1 X65.424 Y115.537 E0.20509
G1 X65.424 Y116.074 E0.01694
G1 X70.363 Y111.134 E0.22046
G1 X70.740 Y111.294 E0.01292
G1 X65.424 Y116.611 E0.23728
G1 X65.424 Y117.147 E0.01694
G1 X71.183 Y111.388 E0.25703
G1 X71.293 Y111.412 E0.00355
G1 X71.696 Y111.412 E0.01273
G1 X65.424 Y117.684 E0.27994
G1 X65.424 Y118.221 E0.01694
G1 X72.325 Y111.320 E0.30800
G1 X72.480 Y111.287 E0.00499
G1 X73.028 Y111.043 E0.01893
G1 X73.433 Y110.748 E0.01581
G1 X65.424 Y118.758 E0.35745
G1 X65.424 Y119.294 E0.01694
G1 X81.629 Y103.089 E0.72323
G1 X81.629 Y103.626 E0.01694
G1 X65.424 Y119.831 E0.72323
G1 X65.424 Y120.368 E0.01694
G1 X81.629 Y104.163 E0.72323
G1 X81.629 Y104.699 E0.01694
G1 X65.424 Y120.905 E0.72323
G1 X65.424 Y121.441 E0.01694
G1 X81.629 Y105.236 E0.72323
G1 X81.629 Y105.773 E0.01694
G1 X65.424 Y121.978 E0.72323
G1 X65.424 Y122.515 E0.01694
G1 X81.629 Y106.310 E0.72323
G1 X81.629 Y106.846 E0.01694
G1 X65.424 Y123.051 E0.72323
G1 X65.424 Y123.588 E0.01694
G1 X81.629 Y107.383 E0.72323
G1 X81.629 Y107.920 E0.01694
G1 X65.424 Y124.125 E0.72323
G1 X65.424 Y124.662 E0.01694
G1 X81.629 Y108.457 E0.72323
G1 X81.629 Y108.993 E0.01694
G1 X65.424 Y125.198 E0.72323
G1 X65.424 Y125.735 E0.01694
G1 X81.629 Y109.530 E0.72323
G1 X81.629 Y110.067 E0.01694
G1 X65.424 Y126.272 E0.72323
G1 X65.424 Y126.809 E0.01694
G1 X81.629 Y110.604 E0.72323
G1 X81.629 Y111.140 E0.01694
G1 X65.424 Y127.345 E0.72323
G1 X65.424 Y127.882 E0.01694
G1 X81.629 Y111.677 E0.72323
G1 X81.629 Y112.214 E0.01694
G1 X65.424 Y128.419 E0.72323
G1 X65.424 Y128.956 E0.01694
G1 X81.629 Y112.751 E0.72323
G1 X81.629 Y113.287 E0.01694
G1 X65.424 Y129.492 E0.72323
G1 X65.424 Y130.029 E0.01694
G1 X81.629 Y113.824 E0.72323
G1 X81.629 Y114.361 E0.01694
G1 X65.424 Y130.566 E0.72323
G1 X65.424 Y131.102 E0.01694
G1 X81.629 Y114.897 E0.72323
G1 X81.629 Y115.434 E0.01694
G1 X65.424 Y131.639 E0.72323
G1 X65.424 Y132.176 E0.01694
G1 X81.629 Y115.971 E0.72323
G1 X81.629 Y116.508 E0.01694
G1 X65.424 Y132.713 E0.72323
G1 X65.424 Y133.249 E0.01694
G1 X81.629 Y117.044 E0.72323
G1 X81.629 Y117.581 E0.01694
G1 X65.424 Y133.786 E0.72323
G1 X65.424 Y134.323 E0.01694
G1 X81.629 Y118.118 E0.72323
G1 X81.629 Y118.655 E0.01694
G1 X65.424 Y134.860 E0.72323
G1 X65.424 Y135.396 E0.01694
G1 X81.629 Y119.191 E0.72323
G1 X81.629 Y119.728 E0.01694
G1 X65.424 Y135.933 E0.72323
G1 X65.424 Y136.470 E0.01694
G1 X81.629 Y120.265 E0.72323
G1 X81.629 Y120.802 E0.01694
G1 X65.424 Y137.007 E0.72323
G1 X65.424 Y137.543 E0.01694
G1 X81.629 Y121.338 E0.72323
G1 X81.629 Y121.875 E0.01694
G1 X65.424 Y138.080 E0.72323
G1 X65.424 Y138.617 E0.01694
G1 X81.629 Y122.412 E0.72323
G1 X81.629 Y122.949 E0.01694
G1 X65.424 Y139.154 E0.72323
G1 X65.424 Y139.690 E0.01694
G1 X81.629 Y123.485 E0.72323
G1 X81.629 Y124.022 E0.01694
G1 X65.424 Y140.227 E0.72323
G1 X65.424 Y140.764 E0.01694
G1 X81.665 Y124.522 E0.72487
G1 X82.202 Y124.522 E0.01694
G1 X65.424 Y141.300 E0.74882
G1 X65.424 Y141.837 E0.01694
G1 X82.739 Y124.522 E0.77278
G1 X83.276 Y124.522 E0.01694
G1 X65.424 Y142.374 E0.79673
G1 X65.424 Y142.727 E0.01114
G1 X65.607 Y142.727 E0.00580
G1 X83.812 Y124.522 E0.81249
G1 X84.349 Y124.522 E0.01694
G1 X66.144 Y142.727 E0.81249
G1 X66.681 Y142.727 E0.01694
G1 X84.886 Y124.522 E0.81249
G1 X85.423 Y124.522 E0.01694
G1 X67.218 Y142.727 E0.81249
G1 X67.754 Y142.727 E0.01694
G1 X85.959 Y124.522 E0.81249
G1 X86.496 Y124.522 E0.01694
G1 X68.291 Y142.727 E0.81249
G1 X68.828 Y142.727 E0.01694
G1 X87.033 Y124.522 E0.81249
G1 X87.570 Y124.522 E0.01694
G1 X69.364 Y142.727 E0.81249
G1 X69.901 Y142.727 E0.01694
G1 X88.106 Y124.522 E0.81249
G1 X88.643 Y124.522 E0.01694
G1 X70.438 Y142.727 E0.81249
G1 X70.975 Y142.727 E0.01694
G1 X89.180 Y124.522 E0.81249
G1 X89.716 Y124.522 E0.01694
G1 X71.511 Y142.727 E0.81249
G1 X72.048 Y142.727 E0.01694
G1 X90.253 Y124.522 E0.81249
G1 X90.790 Y124.522 E0.01694
G1 X72.585 Y142.727 E0.81249
G1 X73.122 Y142.727 E0.01694
G1 X91.327 Y124.522 E0.81249
G1 X91.863 Y124.522 E0.01694
G1 X73.658 Y142.727 E0.81249
G1 X74.195 Y142.727 E0.01694
G1 X92.400 Y124.522 E0.81249
G1 X92.937 Y124.522 E0.01694
G1 X74.732 Y142.727 E0.81249
G1 X75.269 Y142.727 E0.01694
G1 X93.474 Y124.522 E0.81249
G1 X94.010 Y124.522 E0.01694
G1 X75.805 Y142.727 E0.81249
G1 X76.342 Y142.727 E0.01694
G1 X94.547 Y124.522 E0.81249
G1 X95.084 Y124.522 E0.01694
G1 X76.879 Y142.727 E0.81249
G1 X77.416 Y142.727 E0.01694
G1 X95.621 Y124.522 E0.81249
G1 X96.157 Y124.522 E0.01694
G1 X77.952 Y142.727 E0.81249
G1 X78.489 Y142.727 E0.01694
G1 X96.694 Y124.522 E0.81249
