; generated by PrusaSlicer 2.4.2+linux-x64-GTK2 on 2022-05-27 at 14:22:54 UTC

; 

; external perimeters extrusion width = 0.45mm
; perimeters extrusion width = 0.45mm
; infill extrusion width = 0.45mm
; solid infill extrusion width = 0.45mm
; top infill extrusion width = 0.40mm
; first layer extrusion width = 0.42mm

M201 X9000 Y9000 Z500 E10000 ; sets maximum accelerations, mm/sec^2
M203 X500 Y500 Z12 E120 ; sets maximum feedrates, mm / sec
M204 P1500 R1500 T1500 ; sets acceleration (P, T) and retract acceleration (R), mm/sec^2
M205 X10.00 Y10.00 Z0.20 E2.50 ; sets the jerk limits, mm/sec
M205 S0 T0 ; sets the minimum extruding and travel feed rate, mm/sec
M107
M190 S60 ; set bed temperature and wait for it to be reached
M104 S215 ; set temperature
;TYPE:Custom
G1 X10 Y4
G1 Z0
G1 X20 F1000
G92 E0
G1 F200 E3
G92 E0
M109 S215 ; set temperature and wait for it to be reached
G21 ; set units to millimeters
G90 ; use absolute coordinates
M82 ; use absolute distances for extrusion
G92 E0
; Filament gcode
M107
;LAYER_CHANGE
;Z:0.35
;HEIGHT:0.35
G1 Z.35 F3600
G1 E-2 F2400
G92 E0
G1 X123.263 Y122.37 F3600
G1 E2 F2400
;TYPE:Skirt/Brim
;WIDTH:0.42
G1 F1800
G1 X139.622 Y105.891 E3.1653
G1 X141.249 Y104.608 E3.26926
G1 X142.397 Y103.945 E3.33583
G1 X143.361 Y103.516 E3.38875
G1 X144.622 Y103.106 E3.45531
G1 X145.636 Y102.891 E3.50731
G1 X146.932 Y102.752 E3.57276
G1 X148.183 Y102.75 E3.63551
G1 X176.156 Y103.436 E5.03977
G1 X178.354 Y103.887 E5.15239
G1 X180.258 Y105.075 E5.26502
G1 X181.495 Y106.607 E5.36383
G1 X183.995 Y110.937 E5.61476
G1 X184.845 Y114.099 E5.77907
G1 X184.889 Y139.989 E7.0784
G1 X184.845 Y165.901 E8.37882
G1 X183.995 Y169.063 E8.54312
G1 X181.495 Y173.393 E8.79405
G1 X180.047 Y175.107 E8.90668
G1 X178.093 Y176.21 E9.0193
G1 X176.156 Y176.564 E9.11811
G1 X146.973 Y177.251 E10.58308
G1 X118.844 Y176.564 E11.99515
G1 X116.646 Y176.113 E12.10777
G1 X114.742 Y174.925 E12.22039
G1 X113.505 Y173.393 E12.3192
G1 X111.005 Y169.063 E12.57013
G1 X110.155 Y165.89 E12.73496
G1 X110.155 Y140 E14.03429
G1 X111.005 Y136.828 E14.19912
G1 X113.505 Y132.497 E14.45005
G1 X114.497 Y131.2 E14.53203
G1 X123.221 Y122.412 E15.15345
G1 E13.15345 F2400
G92 E0
G1 X145.788 Y162.782 F3600
G1 E2 F2400
;TYPE:Perimeter
G1 F1800
G1 X146.401 Y162.509 E2.03367
G1 X147.128 Y162.354 E2.07098
G1 X147.872 Y162.354 E2.10828
G1 X148.599 Y162.509 E2.14559
G1 X149.278 Y162.811 E2.1829
G1 X149.879 Y163.248 E2.2202
G1 X150.377 Y163.8 E2.25751
G1 X150.748 Y164.444 E2.29482
G1 X150.978 Y165.151 E2.33212
G1 X151.056 Y165.89 E2.36943
G1 X150.978 Y166.63 E2.40674
G1 X150.748 Y167.337 E2.44404
G1 X150.377 Y167.981 E2.48135
G1 X149.906 Y168.504 E2.51669
G1 X149.283 Y168.968 E2.55566
G1 X148.599 Y169.272 E2.59324
G1 X147.872 Y169.427 E2.63054
G1 X147.128 Y169.427 E2.66785
G1 X146.401 Y169.272 E2.70516
G1 X145.722 Y168.97 E2.74246
G1 X145.121 Y168.533 E2.77977
G1 X144.623 Y167.981 E2.81708
G1 X144.252 Y167.337 E2.85439
G1 X144.022 Y166.63 E2.89169
G1 X143.948 Y165.929 E2.92703
G1 X144.02 Y165.156 E2.966
G1 X144.252 Y164.444 E3.00358
G1 X144.623 Y163.8 E3.04088
G1 X145.121 Y163.248 E3.07819
G1 X145.733 Y162.806 E3.11611
G1 X145.929 Y163.097 F3600
G1 F1800
G1 X146.508 Y162.838 E3.14796
G1 X147.165 Y162.699 E3.18163
G1 X147.835 Y162.699 E3.2153
G1 X148.492 Y162.838 E3.24897
G1 X149.105 Y163.111 E3.28264
G1 X149.647 Y163.506 E3.3163
G1 X150.096 Y164.004 E3.34997
G1 X150.432 Y164.585 E3.38364
G1 X150.639 Y165.223 E3.41731
G1 X150.709 Y165.89 E3.45098
G1 X150.639 Y166.558 E3.48465
G1 X150.432 Y167.196 E3.51831
G1 X150.096 Y167.777 E3.55198
G1 X149.672 Y168.248 E3.58378
G1 X149.108 Y168.668 E3.61912
G1 X148.492 Y168.942 E3.65295
G1 X147.835 Y169.082 E3.68662
G1 X147.165 Y169.082 E3.72029
G1 X146.508 Y168.942 E3.75396
G1 X145.895 Y168.67 E3.78763
G1 X145.353 Y168.275 E3.82129
G1 X144.904 Y167.777 E3.85496
G1 X144.568 Y167.196 E3.88863
G1 X144.361 Y166.558 E3.9223
G1 X144.295 Y165.927 E3.9541
G1 X144.36 Y165.226 E3.98943
G1 X144.568 Y164.585 E4.02327
G1 X144.904 Y164.004 E4.05694
G1 X145.353 Y163.506 E4.09061
G1 X145.876 Y163.125 E4.12308
G1 X146.069 Y163.412 F3600
;TYPE:External perimeter
G1 F1800
G1 X146.616 Y163.168 E4.15311
G1 X147.201 Y163.044 E4.18314
G1 X147.799 Y163.044 E4.21317
G1 X148.384 Y163.168 E4.2432
G1 X148.931 Y163.412 E4.27323
G1 X149.415 Y163.763 E4.30326
G1 X149.816 Y164.208 E4.33329
G1 X150.115 Y164.726 E4.36332
G1 X150.3 Y165.295 E4.39335
G1 X150.362 Y165.89 E4.42338
G1 X150.3 Y166.486 E4.45341
G1 X150.115 Y167.055 E4.48344
G1 X149.816 Y167.573 E4.51347
G1 X149.439 Y167.991 E4.54174
G1 X148.932 Y168.369 E4.57344
G1 X148.384 Y168.613 E4.60353
G1 X147.799 Y168.737 E4.63356
G1 X147.201 Y168.737 E4.66359
G1 X146.616 Y168.613 E4.69362
G1 X146.069 Y168.369 E4.72365
G1 X145.585 Y168.018 E4.75368
G1 X145.184 Y167.573 E4.78371
G1 X144.885 Y167.055 E4.81374
G1 X144.7 Y166.486 E4.84377
G1 X144.641 Y165.925 E4.87204
G1 X144.7 Y165.297 E4.90373
G1 X144.885 Y164.726 E4.93382
G1 X145.184 Y164.208 E4.96385
G1 X145.585 Y163.763 E4.99388
G1 X146.02 Y163.447 E5.0209
G1 X146.069 Y163.012 F3600
G1 X145.531 Y162.48
;TYPE:Perimeter
G1 F1800
G1 X146.283 Y162.145 E5.06222
G1 X147.088 Y161.974 E5.10353
G1 X147.912 Y161.974 E5.14485
G1 X148.717 Y162.145 E5.18617
G1 X149.469 Y162.48 E5.22748
G1 X150.135 Y162.964 E5.2688
G1 X150.686 Y163.576 E5.31011
G1 X151.097 Y164.289 E5.35143
G1 X151.352 Y165.072 E5.39274
G1 X151.438 Y165.89 E5.43406
G1 X151.352 Y166.709 E5.47537
G1 X151.097 Y167.492 E5.51669
G1 X150.686 Y168.205 E5.558
G1 X150.135 Y168.817 E5.59932
G1 X149.469 Y169.301 E5.64063
G1 X148.717 Y169.636 E5.68195
G1 X147.912 Y169.807 E5.72327
G1 X147.088 Y169.807 E5.76458
G1 X146.283 Y169.636 E5.8059
G1 X145.531 Y169.301 E5.84721
G1 X144.865 Y168.817 E5.88853
G1 X144.314 Y168.205 E5.92984
G1 X143.903 Y167.492 E5.97116
G1 X143.648 Y166.709 E6.01247
G1 X143.562 Y165.89 E6.05379
G1 X143.648 Y165.072 E6.09511
G1 X143.903 Y164.289 E6.13642
G1 X144.314 Y163.576 E6.17774
G1 X144.865 Y162.964 E6.21905
G1 X145.483 Y162.515 E6.25736
G1 X145.358 Y162.18 F3600
G1 F1800
G1 X146.176 Y161.815 E6.30231
G1 X147.052 Y161.629 E6.34726
G1 X147.948 Y161.629 E6.39222
G1 X148.564 Y161.76 E6.42382
G1 X148.824 Y161.815 E6.43717
G1 X149.642 Y162.18 E6.48213
G1 X150.367 Y162.706 E6.52708
G1 X150.966 Y163.372 E6.57203
G1 X151.414 Y164.148 E6.61699
G1 X151.691 Y165 E6.66194
G1 X151.785 Y165.89 E6.70689
G1 X151.691 Y166.781 E6.75185
G1 X151.414 Y167.633 E6.7968
G1 X150.966 Y168.409 E6.84176
G1 X150.367 Y169.075 E6.88671
G1 X149.642 Y169.601 E6.93166
G1 X148.824 Y169.965 E6.97662
G1 X147.948 Y170.152 E7.02157
G1 X147.052 Y170.152 E7.06653
G1 X146.176 Y169.965 E7.11148
G1 X145.358 Y169.601 E7.15643
G1 X144.633 Y169.075 E7.20139
G1 X144.034 Y168.409 E7.24634
G1 X143.586 Y167.633 E7.2913
G1 X143.309 Y166.781 E7.33625
G1 X143.215 Y165.89 E7.3812
G1 X143.309 Y165 E7.42616
G1 X143.586 Y164.148 E7.47111
G1 X144.034 Y163.372 E7.51606
G1 X144.633 Y162.706 E7.56102
G1 X145.309 Y162.215 E7.60296
G1 X145.184 Y161.879 F3600
;TYPE:External perimeter
G1 F1800
G1 X146.069 Y161.486 E7.65155
G1 X147.016 Y161.284 E7.70015
G1 X147.984 Y161.284 E7.74874
G1 X148.931 Y161.486 E7.79733
G1 X149.816 Y161.879 E7.84592
G1 X150.599 Y162.449 E7.89452
G1 X151.247 Y163.168 E7.94311
G1 X151.731 Y164.007 E7.9917
G1 X152.03 Y164.928 E8.04029
G1 X152.131 Y165.89 E8.08888
G1 X152.03 Y166.853 E8.13748
G1 X151.731 Y167.774 E8.18607
G1 X151.247 Y168.613 E8.23466
G1 X150.599 Y169.332 E8.28325
G1 X149.816 Y169.901 E8.33185
G1 X148.931 Y170.295 E8.38044
G1 X147.984 Y170.497 E8.42903
G1 X147.016 Y170.497 E8.47762
G1 X146.069 Y170.295 E8.52621
G1 X145.184 Y169.901 E8.57481
G1 X144.401 Y169.332 E8.6234
G1 X143.753 Y168.613 E8.67199
G1 X143.269 Y167.774 E8.72058
G1 X142.97 Y166.853 E8.76918
G1 X142.869 Y165.89 E8.81777
G1 X142.97 Y164.928 E8.86636
G1 X143.269 Y164.007 E8.91495
G1 X143.753 Y163.168 E8.96354
G1 X144.401 Y162.449 E9.01214
G1 X145.136 Y161.915 E9.05772
G1 X145.531 Y162.079 F3600
G1 E7.05772 F2400
G92 E0
G1 X123.313 Y162.898 F3600
G1 E2 F2400
;TYPE:Perimeter
G1 F1800
G1 X123.185 Y162.824 E2.00744
G1 X123.22 Y162.66 E2.01585
G1 X123.365 Y162.66 E2.02314
G1 X123.438 Y162.786 E2.03043
G1 X123.358 Y162.858 E2.03583
G1 E.03583 F2400
G92 E0
G1 X124.594 Y165.27 F3600
G1 E2 F2400
G1 F1800
G1 X124.659 Y165.89 E2.03133
G1 X124.59 Y166.547 E2.06447
G1 X124.386 Y167.175 E2.09761
G1 X124.056 Y167.747 E2.13076
G1 X123.614 Y168.238 E2.1639
G1 X123.08 Y168.626 E2.19704
G1 X122.476 Y168.895 E2.23019
G1 X121.83 Y169.032 E2.26333
G1 X121.17 Y169.032 E2.29648
G1 X120.524 Y168.895 E2.32962
G1 X119.92 Y168.626 E2.36276
G1 X119.386 Y168.238 E2.39591
G1 X118.944 Y167.747 E2.42905
G1 X118.614 Y167.175 E2.46219
G1 X118.41 Y166.547 E2.49534
G1 X118.341 Y165.89 E2.52848
G1 X118.41 Y165.234 E2.56163
G1 X118.614 Y164.606 E2.59477
G1 X118.944 Y164.034 E2.62791
G1 X119.386 Y163.543 E2.66106
G1 X119.92 Y163.155 E2.6942
G1 X120.524 Y162.886 E2.72735
G1 X121.17 Y162.749 E2.76049
G1 X121.83 Y162.749 E2.79363
G1 X122.476 Y162.886 E2.82678
G1 X123.08 Y163.155 E2.85992
G1 X123.614 Y163.543 E2.89306
G1 X124.056 Y164.034 E2.92621
G1 X124.386 Y164.606 E2.95935
G1 X124.583 Y165.211 E2.9913
G1 X124.251 Y165.306 F3600
;TYPE:External perimeter
G1 F1800
G1 X124.312 Y165.89 E3.02081
G1 X124.251 Y166.475 E3.05032
G1 X124.069 Y167.034 E3.07982
G1 X123.775 Y167.543 E3.10933
G1 X123.382 Y167.98 E3.13883
G1 X122.906 Y168.326 E3.16834
G1 X122.369 Y168.565 E3.19784
G1 X121.794 Y168.687 E3.22735
G1 X121.206 Y168.687 E3.25685
G1 X120.631 Y168.565 E3.28636
G1 X120.094 Y168.326 E3.31586
G1 X119.618 Y167.98 E3.34537
G1 X119.225 Y167.543 E3.37487
G1 X118.931 Y167.034 E3.40438
G1 X118.749 Y166.475 E3.43388
G1 X118.688 Y165.89 E3.46339
G1 X118.749 Y165.306 E3.4929
G1 X118.931 Y164.747 E3.5224
G1 X119.225 Y164.237 E3.55191
G1 X119.618 Y163.801 E3.58141
G1 X120.094 Y163.455 E3.61092
G1 X120.631 Y163.216 E3.64042
G1 X121.206 Y163.094 E3.66993
G1 X121.794 Y163.094 E3.69943
G1 X122.369 Y163.216 E3.72894
G1 X122.906 Y163.455 E3.75844
G1 X123.382 Y163.801 E3.78795
G1 X123.775 Y164.237 E3.81746
G1 X124.069 Y164.747 E3.84696
G1 X124.232 Y165.249 E3.87345
G1 X124.631 Y165.429 F3600
G1 E1.87345 F2400
G92 E0
G1 X119.815 Y162.824 F3600
G1 E2 F2400
;TYPE:Perimeter
G1 F1800
G1 X119.687 Y162.898 E2.00744
G1 X119.562 Y162.786 E2.01585
G1 X119.635 Y162.66 E2.02314
G1 X119.78 Y162.66 E2.03043
G1 X119.803 Y162.765 E2.03583
G1 E.03583 F2400
G92 E0
G1 X118.002 Y165.816 F3600
G1 E2 F2400
G1 F1800
G1 X118.002 Y165.965 E2.00744
G1 X117.843 Y166.016 E2.01585
G1 X117.77 Y165.89 E2.02314
G1 X117.843 Y165.765 E2.03043
G1 X117.945 Y165.798 E2.03583
G1 E.03583 F2400
G92 E0
G1 X119.687 Y168.883 F3600
G1 E2 F2400
G1 F1800
G1 X119.815 Y168.957 E2.00744
G1 X119.78 Y169.121 E2.01585
G1 X119.635 Y169.121 E2.02314
G1 X119.562 Y168.995 E2.03043
G1 X119.642 Y168.923 E2.03583
G1 E.03583 F2400
G92 E0
G1 X123.185 Y168.957 F3600
G1 E2 F2400
G1 F1800
G1 X123.313 Y168.883 E2.00744
G1 X123.438 Y168.995 E2.01585
G1 X123.365 Y169.121 E2.02314
G1 X123.22 Y169.121 E2.03043
G1 X123.197 Y169.016 E2.03583
G1 E.03583 F2400
G92 E0
G1 X125.23 Y165.89 F3600
G1 E2 F2400
G1 F1800
G1 X125.157 Y166.016 E2.00729
G1 X124.998 Y165.965 E2.0157
G1 X124.998 Y165.816 E2.02314
G1 X125.157 Y165.765 E2.03155
G1 X125.2 Y165.838 E2.03583
G1 X125.628 Y165.89 F3600
G1 F1800
G1 X123.564 Y169.466 E2.24301
G1 X119.436 Y169.466 E2.4502
G1 X117.372 Y165.89 E2.65738
G1 X119.436 Y162.315 E2.86457
G1 X123.564 Y162.315 E3.07175
G1 X125.598 Y165.838 E3.27592
G1 X126.027 Y165.89 F3600
;TYPE:External perimeter
G1 F1800
G1 X123.763 Y169.811 E3.50309
G1 X119.237 Y169.811 E3.73026
G1 X116.973 Y165.89 E3.95743
G1 X119.237 Y161.97 E4.1846
G1 X123.763 Y161.97 E4.41177
G1 X125.997 Y165.838 E4.63593
G1 X125.68 Y166.09 F3600
G1 X125.047 Y165.619
;TYPE:Gap fill
;WIDTH:0.319103
G1 F1800
G1 X124.872 Y165.161 E4.65334
;WIDTH:0.311134
G1 X124.777 Y164.948 E4.66136
;WIDTH:0.262324
G1 X124.682 Y164.734 E4.66772
;WIDTH:0.213515
G1 X124.587 Y164.521 E4.67243
;WIDTH:0.164706
G1 X124.583 Y164.513 E4.67255
;WIDTH:0.163726
G1 X124.234 Y163.91 E4.68153
;WIDTH:0.164692
G1 X124.229 Y163.902 E4.68165
;WIDTH:0.213508
G1 X124.092 Y163.713 E4.68636
;WIDTH:0.262324
G1 X123.955 Y163.524 E4.69272
;WIDTH:0.31114
G1 X123.818 Y163.335 E4.70074
;WIDTH:0.31911
G1 X123.509 Y162.954 E4.71815
G1 X123.039 Y162.683 F3600
;WIDTH:0.31911
G1 F1800
G1 X122.554 Y162.606 E4.73556
;WIDTH:0.311141
G1 X122.322 Y162.581 E4.74358
;WIDTH:0.262324
G1 X122.09 Y162.557 E4.74994
;WIDTH:0.213507
G1 X121.858 Y162.532 E4.75464
;WIDTH:0.164692
G1 X121.848 Y162.532 E4.75476
;WIDTH:0.163713
G1 X121.152 Y162.532 E4.76374
;WIDTH:0.164691
G1 X121.142 Y162.532 E4.76386
;WIDTH:0.213509
G1 X120.91 Y162.557 E4.76857
;WIDTH:0.262326
G1 X120.678 Y162.581 E4.77493
;WIDTH:0.311143
G1 X120.446 Y162.606 E4.78295
;WIDTH:0.319111
G1 X119.961 Y162.683 E4.80036
G1 X119.491 Y162.954 F3600
;WIDTH:0.319109
G1 F1800
G1 X119.182 Y163.335 E4.81777
;WIDTH:0.31114
G1 X119.045 Y163.524 E4.82579
;WIDTH:0.262324
G1 X118.908 Y163.713 E4.83215
;WIDTH:0.213508
G1 X118.771 Y163.902 E4.83685
;WIDTH:0.164692
G1 X118.766 Y163.91 E4.83697
;WIDTH:0.163727
G1 X118.417 Y164.513 E4.84596
;WIDTH:0.164706
G1 X118.413 Y164.521 E4.84608
;WIDTH:0.213514
G1 X118.318 Y164.734 E4.85078
;WIDTH:0.262323
G1 X118.223 Y164.948 E4.85714
;WIDTH:0.311133
G1 X118.128 Y165.161 E4.86516
;WIDTH:0.319103
G1 X117.953 Y165.619 E4.88257
G1 X117.953 Y166.162 F3600
;WIDTH:0.319103
G1 F1800
G1 X118.128 Y166.62 E4.89998
;WIDTH:0.311134
G1 X118.223 Y166.833 E4.908
;WIDTH:0.262324
G1 X118.318 Y167.046 E4.91436
;WIDTH:0.213515
G1 X118.413 Y167.26 E4.91907
;WIDTH:0.164706
G1 X118.417 Y167.268 E4.91919
;WIDTH:0.163726
G1 X118.766 Y167.871 E4.92817
;WIDTH:0.164693
G1 X118.771 Y167.879 E4.92829
;WIDTH:0.213509
G1 X118.908 Y168.068 E4.93299
;WIDTH:0.262325
G1 X119.045 Y168.257 E4.93936
;WIDTH:0.311141
G1 X119.182 Y168.446 E4.94738
;WIDTH:0.319111
G1 X119.491 Y168.827 E4.96479
G1 X119.961 Y169.098 F3600
;WIDTH:0.319116
G1 F1800
G1 X120.446 Y169.175 E4.9822
;WIDTH:0.311147
G1 X120.678 Y169.2 E4.99022
;WIDTH:0.262328
G1 X120.91 Y169.224 E4.99658
;WIDTH:0.21351
G1 X121.142 Y169.248 E5.00128
;WIDTH:0.164692
G1 X121.152 Y169.249 E5.0014
;WIDTH:0.163713
G1 X121.848 Y169.249 E5.01038
;WIDTH:0.164691
G1 X121.858 Y169.248 E5.01051
;WIDTH:0.21351
G1 X122.09 Y169.224 E5.01521
;WIDTH:0.262329
G1 X122.322 Y169.2 E5.02157
;WIDTH:0.311147
G1 X122.554 Y169.175 E5.02959
;WIDTH:0.319115
G1 X123.039 Y169.098 E5.047
G1 X123.509 Y168.827 F3600
;WIDTH:0.319112
G1 F1800
G1 X123.818 Y168.446 E5.06441
;WIDTH:0.311143
G1 X123.955 Y168.257 E5.07243
;WIDTH:0.262326
G1 X124.092 Y168.068 E5.07879
;WIDTH:0.21351
G1 X124.229 Y167.879 E5.08349
;WIDTH:0.164694
G1 X124.234 Y167.871 E5.08362
;WIDTH:0.163726
G1 X124.583 Y167.268 E5.0926
;WIDTH:0.164706
G1 X124.587 Y167.26 E5.09272
;WIDTH:0.213515
G1 X124.682 Y167.046 E5.09742
;WIDTH:0.262323
G1 X124.777 Y166.833 E5.10378
;WIDTH:0.311132
G1 X124.872 Y166.62 E5.1118
;WIDTH:0.319103
G1 X125.047 Y166.162 E5.12921
G1 E3.12921 F2400
G92 E0
G1 X171.687 Y162.898 F3600
G1 E2 F2400
;TYPE:Perimeter
;WIDTH:0.42
G1 F1800
G1 X171.562 Y162.786 E2.00841
G1 X171.635 Y162.66 E2.0157
G1 X171.78 Y162.66 E2.023
G1 X171.815 Y162.824 E2.03141
G1 X171.735 Y162.863 E2.03586
G1 E.03586 F2400
G92 E0
G1 X170.345 Y165.854 F3600
G1 E2 F2400
G1 F1800
G1 X170.41 Y165.234 E2.03133
G1 X170.614 Y164.606 E2.06447
G1 X170.944 Y164.034 E2.09761
G1 X171.386 Y163.543 E2.13076
G1 X171.92 Y163.155 E2.1639
G1 X172.524 Y162.886 E2.19704
G1 X173.17 Y162.749 E2.23019
G1 X173.83 Y162.749 E2.26333
G1 X174.476 Y162.886 E2.29647
G1 X175.08 Y163.155 E2.32962
G1 X175.614 Y163.543 E2.36276
G1 X176.056 Y164.034 E2.39591
G1 X176.386 Y164.606 E2.42905
G1 X176.59 Y165.234 E2.46219
G1 X176.659 Y165.89 E2.49534
G1 X176.59 Y166.547 E2.52848
G1 X176.386 Y167.175 E2.56163
G1 X176.056 Y167.747 E2.59477
G1 X175.614 Y168.238 E2.62791
G1 X175.08 Y168.626 E2.66106
G1 X174.476 Y168.895 E2.6942
G1 X173.83 Y169.032 E2.72734
G1 X173.17 Y169.032 E2.76049
G1 X172.524 Y168.895 E2.79363
G1 X171.92 Y168.626 E2.82678
G1 X171.386 Y168.238 E2.85992
