; generated by Slic3r 1.3.0 on 2021-04-05 at 11:57:31

; external perimeters extrusion width = 1.00mm (13.39mm^3/s)
; perimeters extrusion width = 1.00mm (26.78mm^3/s)
; infill extrusion width = 1.00mm (35.71mm^3/s)
; solid infill extrusion width = 1.00mm (8.93mm^3/s)
; top infill extrusion width = 1.00mm (6.70mm^3/s)
; support material extrusion width = 1.00mm (26.78mm^3/s)

M107
M190 S60 ; set bed temperature and wait for it to be reached
M104 S200 ; set temperature
G28 ; home all axes
G1 Z5 F5000 ; lift nozzle

; Filament gcode

M109 S200 ; set temperature and wait for it to be reached
G21 ; set units to millimeters
G90 ; use absolute coordinates
M82 ; use absolute distances for extrusion
G92 E0
G1 Z0.350 F7800.000
G1 E-2.00000 F2400.00000
G92 E0
G1 X84.118 Y74.642 F7800.000
G1 E2.00000 F2400.00000
G1 F1800
G1 X85.881 Y73.096 E2.31562
G1 X88.059 Y72.227 E2.63125
G1 X89.500 Y72.075 E2.82623
G1 X131.500 Y72.075 E8.47873
G1 X133.811 Y72.472 E8.79436
G1 X135.858 Y73.618 E9.10998
G1 X137.404 Y75.381 E9.42561
G1 X138.273 Y77.559 E9.74123
G1 X138.425 Y79.000 E9.93621
G1 X138.425 Y121.000 E15.58872
G1 X138.028 Y123.311 E15.90434
G1 X136.882 Y125.358 E16.21996
G1 X135.119 Y126.904 E16.53559
G1 X132.941 Y127.773 E16.85121
G1 X131.500 Y127.925 E17.04619
G1 X89.500 Y127.925 E22.69870
G1 X87.189 Y127.528 E23.01432
G1 X85.142 Y126.382 E23.32995
G1 X83.596 Y124.619 E23.64557
G1 X82.727 Y122.441 E23.96119
G1 X82.575 Y121.000 E24.15617
G1 X82.575 Y79.000 E29.80868
G1 X82.972 Y76.689 E30.12430
G1 X84.081 Y74.708 E30.42983
G1 E28.42983 F2400.00000
G92 E0
G1 X96.748 Y118.527 F7800.000
G1 E2.00000 F2400.00000
G1 F1800
G1 X93.252 Y118.527 E2.47041
G1 X91.505 Y115.500 E2.94082
G1 X93.252 Y112.473 E3.41123
G1 X96.748 Y112.473 E3.88163
G1 X98.495 Y115.500 E4.35204
G1 X96.785 Y118.462 E4.81236
G1 X96.214 Y117.602 F7800.000
G1 F1800
G1 X93.786 Y117.602 E5.13904
G1 X92.573 Y115.500 E5.46571
G1 X93.786 Y113.398 E5.79239
G1 X96.214 Y113.398 E6.11907
G1 X97.427 Y115.500 E6.44575
G1 X96.251 Y117.537 E6.76233
G1 X96.214 Y118.102 F7800.000
G1 E4.76233 F2400.00000
G92 E0
G1 X96.748 Y87.527 F7800.000
G1 E2.00000 F2400.00000
G1 F1800
G1 X93.252 Y87.527 E2.47041
G1 X91.505 Y84.500 E2.94082
G1 X93.252 Y81.473 E3.41123
G1 X96.748 Y81.473 E3.88164
G1 X98.495 Y84.500 E4.35204
G1 X96.785 Y87.462 E4.81236
G1 X96.214 Y86.602 F7800.000
G1 F1800
G1 X93.786 Y86.602 E5.13904
G1 X92.573 Y84.500 E5.46572
G1 X93.786 Y82.398 E5.79239
G1 X96.214 Y82.398 E6.11907
G1 X97.427 Y84.500 E6.44575
G1 X96.251 Y86.537 E6.76233
G1 X96.214 Y87.102 F7800.000
G1 E4.76233 F2400.00000
G92 E0
G1 X100.520 Y90.480 F7800.000
G1 E2.00000 F2400.00000
G1 F1800
G1 X101.224 Y89.698 E2.14156
G1 X103.569 Y87.995 E2.53160
G1 X106.216 Y86.816 E2.92162
G1 X109.051 Y86.213 E3.31166
G1 X111.949 Y86.213 E3.70171
G1 X114.784 Y86.816 E4.09174
G1 X117.431 Y87.995 E4.48176
G1 X119.776 Y89.698 E4.87180
G1 X121.715 Y91.852 E5.26185
G1 X123.164 Y94.361 E5.65188
G1 X124.060 Y97.118 E6.04192
G1 X124.363 Y100.000 E6.43195
G1 X124.060 Y102.882 E6.82199
G1 X123.164 Y105.639 E7.21203
G1 X121.715 Y108.148 E7.60206
G1 X119.776 Y110.302 E7.99210
G1 X117.431 Y112.005 E8.38214
G1 X114.784 Y113.184 E8.77217
G1 X111.949 Y113.787 E9.16220
G1 X109.051 Y113.787 E9.55225
G1 X106.216 Y113.184 E9.94228
G1 X103.569 Y112.005 E10.33231
G1 X101.224 Y110.302 E10.72235
G1 X99.285 Y108.148 E11.11239
G1 X97.836 Y105.639 E11.50242
G1 X96.940 Y102.882 E11.89246
G1 X96.637 Y100.000 E12.28250
G1 X96.940 Y97.118 E12.67253
G1 X97.836 Y94.361 E13.06257
G1 X99.285 Y91.852 E13.45260
G1 X100.470 Y90.535 E13.69099
G1 X101.208 Y91.098 F7800.000
G1 F1800
G1 X101.846 Y90.389 E13.81947
G1 X104.034 Y88.800 E14.18334
G1 X106.504 Y87.700 E14.54720
G1 X109.148 Y87.138 E14.91107
G1 X111.852 Y87.138 E15.27495
G1 X114.496 Y87.700 E15.63882
G1 X116.966 Y88.800 E16.00268
G1 X119.154 Y90.389 E16.36655
G1 X120.963 Y92.398 E16.73043
G1 X122.315 Y94.740 E17.09429
G1 X123.150 Y97.311 E17.45817
G1 X123.433 Y100.000 E17.82204
G1 X123.150 Y102.689 E18.18591
G1 X122.315 Y105.260 E18.54978
G1 X120.963 Y107.602 E18.91365
G1 X119.154 Y109.611 E19.27752
G1 X116.966 Y111.200 E19.64140
G1 X114.496 Y112.300 E20.00526
G1 X111.852 Y112.862 E20.36913
G1 X109.148 Y112.862 E20.73301
G1 X106.504 Y112.300 E21.09688
G1 X104.034 Y111.200 E21.46074
G1 X101.846 Y109.611 E21.82461
G1 X100.037 Y107.602 E22.18849
G1 X98.685 Y105.260 E22.55235
G1 X97.850 Y102.689 E22.91623
G1 X97.567 Y100.000 E23.28010
G1 X97.850 Y97.311 E23.64397
G1 X98.685 Y94.740 E24.00784
G1 X100.037 Y92.398 E24.37171
G1 X101.157 Y91.154 E24.59702
G1 X101.895 Y91.717 F7800.000
G1 F1800
G1 X102.469 Y91.080 E24.71240
G1 X104.499 Y89.605 E25.05011
G1 X106.791 Y88.585 E25.38781
G1 X109.245 Y88.063 E25.72551
G1 X111.755 Y88.063 E26.06322
G1 X114.209 Y88.585 E26.40093
G1 X116.501 Y89.605 E26.73863
G1 X118.531 Y91.080 E27.07633
G1 X120.210 Y92.945 E27.41404
G1 X121.465 Y95.118 E27.75174
G1 X122.240 Y97.504 E28.08945
G1 X122.503 Y100.000 E28.42715
G1 X122.240 Y102.496 E28.76486
G1 X121.465 Y104.882 E29.10257
G1 X120.210 Y107.055 E29.44027
G1 X118.531 Y108.920 E29.77798
G1 X116.501 Y110.395 E30.11568
G1 X114.209 Y111.415 E30.45338
G1 X111.755 Y111.937 E30.79108
G1 X109.245 Y111.937 E31.12880
G1 X106.791 Y111.415 E31.46650
G1 X104.499 Y110.395 E31.80420
G1 X102.469 Y108.920 E32.14190
G1 X100.790 Y107.055 E32.47962
G1 X99.535 Y104.882 E32.81732
G1 X98.760 Y102.496 E33.15502
G1 X98.497 Y100.000 E33.49273
G1 X98.760 Y97.504 E33.83043
G1 X99.535 Y95.118 E34.16814
G1 X100.790 Y92.945 E34.50584
G1 X101.845 Y91.773 E34.71807
G1 X101.721 Y91.249 F7800.000
G1 E32.71807 F2400.00000
G92 E0
G1 X97.282 Y88.452 F7800.000
G1 E2.00000 F2400.00000
G1 F1800
G1 X99.563 Y84.500 E2.61414
G1 X97.744 Y81.350 E3.10370
G1 X121.756 Y81.350 E6.33519
G1 X119.937 Y84.500 E6.82475
G1 X122.150 Y88.334 E7.42055
G1 X122.150 Y89.100 E7.52363
G1 X129.150 Y89.100 E8.46572
G1 X129.150 Y110.900 E11.39970
G1 X122.150 Y110.900 E12.34178
G1 X122.150 Y111.666 E12.44486
G1 X119.937 Y115.500 E13.04066
G1 X121.756 Y118.650 E13.53022
G1 X97.744 Y118.650 E16.76171
G1 X99.563 Y115.500 E17.25127
G1 X97.282 Y111.548 E17.86541
G1 X92.718 Y111.548 E18.47955
G1 X92.261 Y112.340 E18.60264
G1 X91.850 Y112.230 E18.65994
G1 X91.850 Y87.770 E21.95184
G1 X92.261 Y87.660 E22.00915
G1 X92.718 Y88.452 E22.13223
G1 X97.207 Y88.452 E22.73628
G1 E20.73628 F2400.00000
G92 E0
G1 X121.005 Y84.500 F7800.000
G1 E2.00000 F2400.00000
G1 F1800
G1 X122.752 Y87.527 E2.47041
G1 X123.075 Y87.527 E2.51385
G1 X123.075 Y88.175 E2.60104
G1 X130.075 Y88.175 E3.54313
G1 X130.075 Y111.825 E6.72606
G1 X123.075 Y111.825 E7.66814
G1 X123.075 Y112.473 E7.75534
G1 X122.752 Y112.473 E7.79878
G1 X121.005 Y115.500 E8.26919
G1 X122.752 Y118.527 E8.73959
G1 X123.075 Y118.527 E8.78303
G1 X123.075 Y119.575 E8.92409
G1 X90.925 Y119.575 E13.25098
G1 X90.925 Y80.425 E18.51996
G1 X123.075 Y80.425 E22.84685
G1 X123.075 Y81.473 E22.98791
G1 X122.752 Y81.473 E23.03134
G1 X121.042 Y84.435 E23.49166
G1 X122.073 Y84.500 F7800.000
G1 F1800
G1 X123.286 Y86.602 E23.81834
G1 X124.000 Y86.602 E23.91438
G1 X124.000 Y87.250 E24.00158
G1 X131.000 Y87.250 E24.94366
G1 X131.000 Y112.750 E28.37554
G1 X124.000 Y112.750 E29.31763
G1 X124.000 Y113.398 E29.40483
G1 X123.286 Y113.398 E29.50087
G1 X122.073 Y115.500 E29.82755
G1 X123.286 Y117.602 E30.15423
G1 X124.000 Y117.602 E30.25027
G1 X124.000 Y118.250 E30.33747
G1 X131.000 Y118.250 E31.27956
G1 X131.000 Y120.500 E31.58237
G1 X90.000 Y120.500 E37.10029
G1 X90.000 Y79.500 E42.61822
G1 X131.000 Y79.500 E48.13614
G1 X131.000 Y81.750 E48.43895
G1 X124.000 Y81.750 E49.38104
G1 X124.000 Y82.398 E49.46823
G1 X123.286 Y82.398 E49.56428
G1 X122.110 Y84.435 E49.88087
G1 X121.667 Y84.793 F7800.000
G1 E47.88087 F2400.00000
G92 E0
G1 X123.538 Y80.625 F7800.000
G1 E2.00000 F2400.00000
G1 F1800
G1 X130.538 Y80.625 E3.27324
G1 E1.27324 F2400.00000
G92 E0
G1 X121.674 Y89.665 F7800.000
G1 E2.00000 F2400.00000
G1 F1800
G1 X120.955 Y90.384 E2.14061
G1 X121.591 Y91.091 E2.27203
G1 X123.018 Y89.665 E2.55075
G1 X124.361 Y89.665 E2.73635
G1 X122.200 Y91.825 E3.15852
G1 X122.692 Y92.677 E3.29439
G1 X125.704 Y89.665 E3.88296
G1 X127.047 Y89.665 E4.06856
G1 X123.184 Y93.528 E4.82353
G1 X123.668 Y94.386 E4.95976
G1 X128.390 Y89.665 E5.88249
G1 X128.585 Y89.665 E5.90948
G1 X128.585 Y90.813 E6.06809
G1 X123.998 Y95.400 E6.96463
G1 X124.327 Y96.414 E7.11192
G1 X128.585 Y92.156 E7.94409
G1 X128.585 Y93.499 E8.12968
G1 X124.628 Y97.456 E8.90306
G1 X124.756 Y98.671 E9.07193
G1 X128.585 Y94.842 E9.82034
G1 X128.585 Y96.185 E10.00594
G1 X124.883 Y99.887 E10.72939
G1 X124.933 Y100.360 E10.79511
G1 X124.837 Y101.276 E10.92249
G1 X128.585 Y97.528 E11.65505
G1 X128.585 Y98.871 E11.84065
G1 X124.679 Y102.777 E12.60404
G1 X124.610 Y103.435 E12.69548
G1 X124.247 Y104.552 E12.85780
G1 X128.585 Y100.214 E13.70564
G1 X128.585 Y101.557 E13.89124
G1 X123.502 Y106.641 E14.88472
G1 X122.108 Y109.055 E15.26991
G1 X120.955 Y110.335 E15.50802
G1 X121.150 Y110.335 E15.53501
G1 X128.585 Y102.900 E16.98801
G1 X128.585 Y104.243 E17.17361
G1 X122.493 Y110.335 E18.36414
G1 X123.836 Y110.335 E18.54974
G1 X128.585 Y105.586 E19.47779
G1 X128.585 Y106.929 E19.66339
G1 X125.179 Y110.335 E20.32897
G1 X126.522 Y110.335 E20.51457
G1 X128.585 Y108.272 E20.91766
G1 X128.585 Y109.616 E21.10326
G1 X127.866 Y110.335 E21.24388
G1 E19.24388 F2400.00000
G92 E0
G1 X120.866 Y110.472 F7800.000
G1 E2.00000 F2400.00000
G1 F1800
G1 X120.866 Y110.434 E2.00516
G1 X120.528 Y110.809 E2.07489
G1 X121.585 Y109.752 E2.28147
G1 X121.583 Y111.063 E2.46262
G1 X114.560 Y118.085 E3.83495
G1 X115.869 Y118.085 E4.01575
G1 X119.795 Y114.159 E4.78310
G1 X119.228 Y115.140 E4.93975
G1 X119.555 Y115.707 E5.03013
G1 X117.177 Y118.085 E5.49494
G1 X118.485 Y118.085 E5.67573
G1 X120.034 Y116.536 E5.97844
G1 X120.513 Y117.366 E6.11079
G1 X119.794 Y118.085 E6.25141
G1 E4.25141 F2400.00000
G92 E0
G1 X113.252 Y118.085 F7800.000
G1 E2.00000 F2400.00000
G1 F1800
G1 X120.560 Y110.777 E3.42817
G1 X118.256 Y112.451 E3.82170
G1 X117.033 Y112.995 E4.00664
G1 X111.944 Y118.085 E5.00131
G1 X110.636 Y118.085 E5.18211
G1 X114.898 Y113.822 E6.01523
G1 X113.237 Y114.175 E6.24997
G1 X109.327 Y118.085 E7.01406
G1 X108.019 Y118.085 E7.19486
G1 X111.752 Y114.352 E7.92443
G1 X110.444 Y114.352 E8.10522
G1 X106.711 Y118.085 E8.83479
G1 X105.402 Y118.085 E9.01559
G1 X109.167 Y114.321 E9.75126
G1 X108.088 Y114.091 E9.90369
G1 X104.094 Y118.085 E10.68419
G1 X102.786 Y118.085 E10.86498
G1 X107.009 Y113.862 E11.69030
G1 X106.288 Y113.709 E11.79205
G1 X105.987 Y113.575 E11.83759
G1 X101.477 Y118.085 E12.71902
G1 X100.169 Y118.085 E12.89981
G1 X105.082 Y113.172 E13.86001
G1 X104.177 Y112.769 E13.99695
G1 X99.159 Y117.787 E14.97763
G1 X100.272 Y115.860 E15.28515
G1 X100.091 Y115.547 E15.33511
G1 X103.303 Y112.335 E15.96285
G1 X102.545 Y111.784 E16.09229
G1 X99.612 Y114.717 E16.66553
G1 X99.133 Y113.888 E16.79788
G1 X101.787 Y111.233 E17.31662
G1 X101.030 Y110.683 E17.44606
G1 X98.654 Y113.058 E17.91029
G1 X98.175 Y112.229 E18.04264
G1 X100.397 Y110.007 E18.47690
G1 X99.777 Y109.318 E18.60492
G1 X97.696 Y111.399 E19.01162
G1 X97.456 Y110.983 E19.07809
G1 X96.805 Y110.983 E19.16809
G1 X99.158 Y108.630 E19.62795
G1 X98.892 Y108.335 E19.68276
G1 X98.618 Y107.861 E19.75844
G1 X95.496 Y110.983 E20.36859
G1 X94.188 Y110.983 E20.54939
G1 X98.139 Y107.031 E21.32164
G1 X97.661 Y106.202 E21.45399
G1 X92.880 Y110.983 E22.38834
G1 X92.415 Y110.983 E22.45255
G1 X92.415 Y110.139 E22.56913
G1 X97.236 Y105.318 E23.51129
G1 X96.915 Y104.331 E23.65478
G1 X92.415 Y108.831 E24.53423
G1 X92.415 Y107.523 E24.71503
G1 X96.594 Y103.343 E25.53179
G1 X96.390 Y102.716 E25.62298
G1 X96.345 Y102.284 E25.68293
G1 X92.415 Y106.214 E26.45097
G1 X92.415 Y104.906 E26.63177
G1 X96.220 Y101.101 E27.37550
G1 X96.096 Y99.917 E27.54000
G1 X92.415 Y103.598 E28.25941
G1 X92.415 Y102.289 E28.44021
G1 X96.185 Y98.520 E29.17696
G1 X96.338 Y97.058 E29.38010
G1 X92.415 Y100.981 E30.14688
G1 X92.415 Y99.673 E30.32768
G1 X96.808 Y95.280 E31.18616
G1 X97.346 Y93.624 E31.42686
G1 X97.605 Y93.174 E31.49859
G1 X92.415 Y98.364 E32.51298
G1 X92.415 Y97.056 E32.69378
G1 X107.556 Y81.915 E35.65286
G1 X106.248 Y81.915 E35.83366
G1 X92.415 Y95.748 E38.53706
G1 X92.415 Y94.440 E38.71785
G1 X97.837 Y89.017 E39.77758
G1 X96.529 Y89.017 E39.95838
G1 X92.415 Y93.131 E40.76242
G1 X92.415 Y91.823 E40.94322
G1 X95.221 Y89.017 E41.49157
G1 X93.912 Y89.017 E41.67237
G1 X92.415 Y90.515 E41.96504
G1 X92.415 Y89.736 E42.07257
G1 X93.193 Y89.736 E42.18010
G1 E40.18010 F2400.00000
G92 E0
G1 X97.917 Y88.937 F7800.000
G1 E2.00000 F2400.00000
G1 F1800
G1 X104.940 Y81.915 E3.37234
G1 X103.631 Y81.915 E3.55314
G1 X99.705 Y85.841 E4.32050
G1 X100.272 Y84.860 E4.47715
G1 X99.945 Y84.293 E4.56753
G1 X102.323 Y81.915 E5.03234
G1 X101.015 Y81.915 E5.21314
G1 X99.466 Y83.464 E5.51585
G1 X98.987 Y82.634 E5.64820
G1 X99.706 Y81.915 E5.78881
G1 E3.78881 F2400.00000
G92 E0
G1 X96.886 Y93.893 F7800.000
G1 E2.00000 F2400.00000
G1 F1800
G1 X98.173 Y91.665 E2.35562
G1 X100.242 Y89.367 E2.78298
G1 X102.744 Y87.549 E3.21035
G1 X103.621 Y87.158 E3.34303
G1 X108.864 Y81.915 E4.36775
G1 X110.173 Y81.915 E4.54855
G1 X105.858 Y86.230 E5.39178
G1 X107.520 Y85.876 E5.62652
G1 X111.481 Y81.915 E6.40072
G1 X112.789 Y81.915 E6.58152
G1 X109.056 Y85.648 E7.31109
G1 X110.365 Y85.648 E7.49189
G1 X114.098 Y81.915 E8.22146
G1 X115.406 Y81.915 E8.40226
G1 X111.673 Y85.648 E9.13183
G1 X112.754 Y85.875 E9.28451
G1 X116.714 Y81.915 E10.05844
G1 X118.023 Y81.915 E10.23924
G1 X113.833 Y86.104 E11.05799
G1 X114.711 Y86.291 E11.18206
G1 X114.880 Y86.366 E11.20754
G1 X119.331 Y81.915 E12.07743
G1 X120.513 Y81.915 E12.24081
G1 X120.341 Y82.213 E12.28840
G1 X115.785 Y86.769 E13.17877
G1 X116.690 Y87.172 E13.31571
G1 X119.409 Y84.453 E13.84704
G1 X119.888 Y85.283 E13.97939
G1 X117.586 Y87.585 E14.42927
G1 X118.344 Y88.135 E14.55871
G1 X120.367 Y86.112 E14.95408
G1 X120.846 Y86.942 E15.08644
G1 X119.102 Y88.686 E15.42731
G1 X119.859 Y89.236 E15.55675
G1 X121.325 Y87.771 E15.84312
G1 X121.585 Y88.222 E15.91506
G1 X121.585 Y88.819 E15.99758
G1 X120.512 Y89.892 E16.20731
G1 E14.20731 F2400.00000
G92 E0
G1 X123.538 Y119.375 F7800.000
G1 E2.00000 F2400.00000
G1 F1800
G1 X130.538 Y119.375 E3.27324
G1 E1.27324 F2400.00000
G92 E0
G1 X96.979 Y119.051 F7800.000
G1 E2.00000 F2400.00000
G1 F1800
G1 X92.985 Y119.051 E2.02797
G1 X91.387 Y118.590 E2.03962
G1 E0.03962 F2400.00000
G92 E0
G1 X91.387 Y81.410 F7800.000
G1 E2.00000 F2400.00000
G1 F1800
G1 X92.985 Y80.949 E2.01165
G1 X96.979 Y80.949 E2.03961
G1 Z0.350 F7800.000
G1 Z0.850 F7800.000
G1 Z0.850 F7800.000
G1 X96.729 Y112.505 F7800.000
G1 F900
G1 X98.458 Y115.500 E2.68134
G1 X96.729 Y118.495 E3.32306
G1 X93.271 Y118.495 E3.96479
G1 X91.542 Y115.500 E4.60651
G1 X93.271 Y112.505 E5.24824
G1 X96.654 Y112.505 E5.87605
G1 X96.214 Y113.398 F7800.000
G1 F900
G1 X97.427 Y115.500 E6.32649
G1 X96.214 Y117.602 E6.77692
G1 X93.786 Y117.602 E7.22737
G1 X92.573 Y115.500 E7.67780
G1 X93.786 Y113.398 E8.12824
G1 X96.139 Y113.398 E8.56477
G1 X96.647 Y113.148 F7800.000
G1 X100.568 Y109.477 F7800.000
G1 F3600
G1 X99.337 Y108.110 E8.90614
G1 X97.895 Y105.612 E9.44142
G1 X97.004 Y102.869 E9.97671
G1 X96.702 Y100.000 E10.51200
G1 X97.004 Y97.131 E11.04729
G1 X97.895 Y94.388 E11.58259
G1 X99.337 Y91.890 E12.11787
G1 X101.267 Y89.746 E12.65317
G1 X103.601 Y88.051 E13.18846
G1 X106.236 Y86.877 E13.72374
G1 X109.058 Y86.278 E14.25903
G1 X111.942 Y86.278 E14.79434
G1 X114.764 Y86.877 E15.32962
G1 X117.399 Y88.051 E15.86490
G1 X119.733 Y89.746 E16.40019
G1 X121.663 Y91.890 E16.93549
G1 X123.105 Y94.388 E17.47077
G1 X123.996 Y97.131 E18.00607
G1 X124.298 Y100.000 E18.54136
G1 X123.996 Y102.869 E19.07665
G1 X123.105 Y105.612 E19.61195
G1 X121.663 Y108.110 E20.14723
G1 X119.733 Y110.254 E20.68253
G1 X117.399 Y111.949 E21.21782
G1 X114.764 Y113.123 E21.75310
G1 X111.942 Y113.722 E22.28838
G1 X109.058 Y113.722 E22.82369
G1 X106.236 Y113.123 E23.35898
G1 X103.601 Y111.949 E23.89425
G1 X101.267 Y110.254 E24.42955
G1 X100.618 Y109.533 E24.60956
G1 X101.231 Y108.880 F7800.000
G1 F3600
G1 X100.063 Y107.583 E24.93352
