; generated by Slic3r 1.3.0 on 2021-05-10 at 22:05:48

; external perimeters extrusion width = 0.55mm (4.37mm^3/s)
; perimeters extrusion width = 0.70mm (11.44mm^3/s)
; infill extrusion width = 0.62mm (13.45mm^3/s)
; solid infill extrusion width = 0.70mm (3.81mm^3/s)
; top infill extrusion width = 0.70mm (2.86mm^3/s)

M107
M104 S200 ; set temperature
G28 ; home all axes
G1 Z5 F5000 ; lift nozzle

; Filament gcode

M109 S200 ; set temperature and wait for it to be reached
G21 ; set units to millimeters
G90 ; use absolute coordinates
M82 ; use absolute distances for extrusion
G92 E0
G1 Z0.350 F7800.000
G1 E-2.00000 F2400.00000
G92 E0
G1 X78.945 Y88.236 F7800.000
G1 E2.00000 F2400.00000
G1 F1800
G1 X79.740 Y87.528 E2.03295
G1 X80.594 Y86.882 E2.06608
G1 X82.129 Y85.907 E2.12233
G1 X83.076 Y85.408 E2.15546
G1 X84.747 Y84.693 E2.21171
G1 X85.458 Y84.435 E2.23509
G1 X97.035 Y80.978 E2.60896
G1 X99.313 Y80.712 E2.67992
G1 X101.621 Y81.272 E2.75338
G1 X106.351 Y83.373 E2.91353
G1 X106.895 Y83.645 E2.93236
G1 X119.731 Y90.826 E3.38745
G1 X120.279 Y91.168 E3.40744
G1 X121.479 Y92.003 E3.45267
G1 X122.463 Y92.840 E3.49262
G1 X123.478 Y93.891 E3.53785
G1 X124.280 Y94.903 E3.57780
G1 X125.073 Y96.131 E3.62303
G1 X125.663 Y97.279 E3.66298
G1 X126.202 Y98.638 E3.70820
G1 X126.559 Y99.879 E3.74815
G1 X126.824 Y101.316 E3.79338
G1 X126.933 Y102.603 E3.83333
G1 X126.914 Y104.065 E3.87856
G1 X126.772 Y105.348 E3.91851
G1 X126.470 Y106.778 E3.96374
G1 X126.082 Y108.009 E4.00369
G1 X125.508 Y109.354 E4.04891
G1 X124.888 Y110.486 E4.08886
G1 X124.065 Y111.694 E4.13409
G1 X123.237 Y112.685 E4.17404
G1 X122.195 Y113.710 E4.21927
G1 X121.190 Y114.521 E4.25922
G1 X119.969 Y115.325 E4.30445
G1 X118.827 Y115.926 E4.34440
G1 X117.473 Y116.477 E4.38962
G1 X116.235 Y116.845 E4.42957
G1 X114.800 Y117.124 E4.47480
G1 X114.161 Y117.216 E4.49480
G1 X92.605 Y119.246 E5.16471
G1 X92.070 Y119.275 E5.18128
G1 X90.252 Y119.298 E5.23754
G1 X89.185 Y119.226 E5.27065
G1 X87.386 Y118.956 E5.32692
G1 X86.344 Y118.713 E5.36004
G1 X84.764 Y118.206 E5.41137
G1 X83.623 Y117.749 E5.44941
G1 X82.004 Y116.922 E5.50566
G1 X81.093 Y116.359 E5.53879
G1 X79.628 Y115.282 E5.59504
G1 X78.820 Y114.580 E5.62817
G1 X78.138 Y113.884 E5.65832
G1 X77.548 Y113.281 E5.68442
G1 X76.863 Y112.458 E5.71755
G1 X75.817 Y110.971 E5.77380
G1 X75.273 Y110.049 E5.80693
G1 X74.480 Y108.413 E5.86318
G1 X74.093 Y107.415 E5.89631
G1 X73.619 Y105.825 E5.94764
G1 X73.352 Y104.625 E5.98568
G1 X73.120 Y102.822 E6.04193
G1 X73.070 Y101.752 E6.07506
G1 X73.132 Y99.935 E6.13131
G1 X73.255 Y98.872 E6.16444
G1 X73.577 Y97.244 E6.21577
G1 X73.901 Y96.058 E6.25380
G1 X74.537 Y94.355 E6.31006
G1 X74.992 Y93.386 E6.34318
G1 X75.894 Y91.808 E6.39944
G1 X76.499 Y90.924 E6.43256
G1 X77.643 Y89.512 E6.48882
G1 X78.382 Y88.737 E6.52194
G1 X78.889 Y88.286 E6.54292
G1 E4.54292 F2400.00000
G92 E0
G1 X103.315 Y92.043 F7800.000
G1 E2.00000 F2400.00000
G1 F1800
G1 X104.036 Y90.754 E2.04568
G1 X115.980 Y97.435 E2.46913
G1 X117.062 Y98.188 E2.50993
G1 X117.945 Y99.102 E2.54925
G1 X118.634 Y100.170 E2.58857
G1 X119.102 Y101.351 E2.62789
G1 X119.333 Y102.601 E2.66721
G1 X119.317 Y103.872 E2.70653
G1 X119.054 Y105.115 E2.74585
G1 X118.555 Y106.284 E2.78517
G1 X117.840 Y107.334 E2.82449
G1 X116.934 Y108.225 E2.86381
G1 X115.872 Y108.923 E2.90313
G1 X114.695 Y109.403 E2.94245
G1 X113.400 Y109.654 E2.98325
G1 X91.932 Y111.676 E3.65047
G1 X90.232 Y111.698 E3.70305
G1 X88.591 Y111.452 E3.75442
G1 X87.010 Y110.945 E3.80578
G1 X85.876 Y110.366 E3.84519
G1 X85.532 Y110.190 E3.85714
G1 X84.194 Y109.206 E3.90850
G1 X83.033 Y108.020 E3.95987
G1 X82.078 Y106.663 E4.01123
G1 X81.354 Y105.169 E4.06259
G1 X80.880 Y103.578 E4.11396
G1 X80.668 Y101.932 E4.16532
G1 X80.725 Y100.273 E4.21668
G1 X81.047 Y98.644 E4.26804
G1 X81.628 Y97.089 E4.31941
G1 X82.452 Y95.648 E4.37077
G1 X83.498 Y94.358 E4.42213
G1 X84.737 Y93.254 E4.47350
G1 X86.138 Y92.364 E4.52486
G1 X87.664 Y91.711 E4.57622
G1 X89.314 Y91.303 E4.62881
G1 X91.919 Y90.878 E4.71048
G1 X93.329 Y90.754 E4.75427
G1 X94.752 Y90.842 E4.79840
G1 X94.805 Y91.131 E4.80749
G1 X92.952 Y91.962 E4.87032
G1 X91.567 Y91.742 E4.91370
G1 X89.786 Y91.788 E4.96883
G1 X88.043 Y92.159 E5.02396
G1 X86.397 Y92.841 E5.07909
G1 X84.903 Y93.812 E5.13422
G1 X83.611 Y95.039 E5.18935
G1 X82.564 Y96.481 E5.24449
G1 X81.799 Y98.090 E5.29962
G1 X81.339 Y99.811 E5.35475
G1 X81.201 Y101.587 E5.40988
G1 X81.389 Y103.359 E5.46501
G1 X81.897 Y105.067 E5.52014
G1 X82.708 Y106.654 E5.57527
G1 X83.795 Y108.066 E5.63040
G1 X85.121 Y109.256 E5.68553
G1 X86.642 Y110.184 E5.74067
G1 X88.307 Y110.819 E5.79580
G1 X90.059 Y111.140 E5.85093
G1 X91.796 Y111.136 E5.90467
G1 X113.458 Y109.096 E6.57787
G1 X114.867 Y108.780 E6.62254
G1 X116.208 Y108.095 E6.66914
G1 X117.335 Y107.096 E6.71574
G1 X118.177 Y105.848 E6.76234
G1 X118.681 Y104.428 E6.80894
G1 X118.814 Y102.928 E6.85554
G1 X118.569 Y101.442 E6.90214
G1 X117.960 Y100.065 E6.94874
G1 X117.026 Y98.883 E6.99534
G1 X115.852 Y97.991 E7.04097
G1 X107.450 Y93.814 E7.33129
G1 X103.384 Y92.072 E7.46816
G1 E5.46816 F2400.00000
G92 E0
G1 X98.447 Y92.227 F7800.000
G1 E2.00000 F2400.00000
G1 F1800
G1 X98.348 Y92.618 E2.01248
G1 X95.822 Y91.424 E2.09893
G1 X95.962 Y91.093 E2.11007
G1 X97.344 Y91.612 E2.15576
G1 X98.382 Y92.190 E2.19251
G1 E0.19251 F2400.00000
G92 E0
G1 X100.253 Y90.730 F7800.000
G1 E2.00000 F2400.00000
G1 F1800
G1 X99.405 Y90.367 E2.02856
G1 X98.812 Y89.962 E2.05077
G1 X98.664 Y89.789 E2.05782
G1 X98.863 Y89.546 E2.06755
G1 X100.410 Y90.411 E2.12242
G1 X100.286 Y90.663 E2.13110
G1 E0.13110 F2400.00000
G92 E0
G1 X98.691 Y88.734 F7800.000
G1 E2.00000 F2400.00000
G1 F1800
G1 X103.078 Y91.187 E2.15550
G1 X103.796 Y89.903 E2.20101
G1 X116.311 Y96.904 E2.64474
G1 X117.469 Y97.710 E2.68838
G1 X118.437 Y98.712 E2.73148
G1 X119.192 Y99.883 E2.77459
G1 X119.706 Y101.178 E2.81770
G1 X119.959 Y102.548 E2.86080
G1 X119.941 Y103.941 E2.90391
G1 X119.653 Y105.304 E2.94702
G1 X119.106 Y106.585 E2.99012
G1 X118.321 Y107.736 E3.03323
G1 X117.328 Y108.713 E3.07634
G1 X116.164 Y109.479 E3.11944
G1 X114.874 Y110.005 E3.16255
G1 X113.489 Y110.273 E3.20619
G1 X91.965 Y112.301 E3.87513
G1 X90.190 Y112.324 E3.93006
G1 X88.448 Y112.063 E3.98456
G1 X86.771 Y111.525 E4.03906
G1 X85.591 Y110.922 E4.08004
G1 X85.202 Y110.723 E4.09356
G1 X83.783 Y109.680 E4.14805
G1 X82.551 Y108.421 E4.20255
G1 X81.537 Y106.981 E4.25705
G1 X80.769 Y105.396 E4.31155
G1 X80.266 Y103.708 E4.36604
G1 X80.042 Y101.961 E4.42054
G1 X80.102 Y100.201 E4.47504
G1 X80.444 Y98.473 E4.52954
G1 X81.061 Y96.823 E4.58404
G1 X81.935 Y95.294 E4.63853
G1 X83.044 Y93.926 E4.69303
G1 X84.359 Y92.754 E4.74753
G1 X85.846 Y91.809 E4.80203
G1 X87.465 Y91.116 E4.85652
G1 X89.188 Y90.690 E4.91146
G1 X91.841 Y90.257 E4.99463
G1 X93.321 Y90.128 E5.04058
G1 X94.790 Y90.219 E5.08613
G1 X96.230 Y90.526 E5.13168
G1 X97.608 Y91.044 E5.17722
G1 X98.905 Y91.766 E5.22317
G1 X99.166 Y91.938 E5.23283
G1 X98.636 Y94.021 E5.29933
G1 X97.098 Y93.630 E5.34842
G1 X97.075 Y93.364 E5.35666
G1 X97.789 Y93.044 E5.38085
G1 X95.001 Y91.728 E5.47622
G1 X93.038 Y92.608 E5.54281
G1 X91.526 Y92.368 E5.59016
G1 X89.860 Y92.412 E5.64174
G1 X88.229 Y92.758 E5.69331
G1 X86.689 Y93.396 E5.74489
G1 X85.292 Y94.304 E5.79646
G1 X84.083 Y95.452 E5.84804
G1 X83.104 Y96.801 E5.89961
G1 X82.387 Y98.306 E5.95119
G1 X81.957 Y99.917 E6.00277
G1 X81.828 Y101.579 E6.05434
G1 X82.004 Y103.236 E6.10592
G1 X82.480 Y104.834 E6.15749
G1 X83.238 Y106.318 E6.20907
G1 X84.255 Y107.639 E6.26064
G1 X85.496 Y108.752 E6.31222
G1 X86.919 Y109.620 E6.36379
G1 X88.476 Y110.215 E6.41537
G1 X90.115 Y110.515 E6.46694
G1 X91.766 Y110.511 E6.51802
G1 X113.360 Y108.477 E7.18910
G1 X114.653 Y108.188 E7.23011
G1 X115.853 Y107.575 E7.27180
G1 X116.861 Y106.681 E7.31350
G1 X117.615 Y105.564 E7.35519
G1 X118.066 Y104.294 E7.39688
G1 X118.185 Y102.952 E7.43858
G1 X117.965 Y101.622 E7.48027
G1 X117.420 Y100.390 E7.52196
G1 X116.585 Y99.332 E7.56366
G1 X115.521 Y98.524 E7.60500
G1 X107.188 Y94.382 E7.89295
G1 X99.103 Y90.917 E8.16511
G1 X98.392 Y90.431 E8.19174
G1 X97.838 Y89.788 E8.21801
G1 X97.468 Y89.024 E8.24428
G1 X97.351 Y88.417 E8.26339
G1 X98.914 Y87.717 E8.31636
G1 X99.761 Y88.191 E8.34641
G1 X98.758 Y88.700 E8.38121
G1 X98.440 Y89.166 F7800.000
G1 X98.999 Y88.123 F7800.000
G1 F1800
G1 X97.973 Y88.613 E8.39052
G1 X97.925 Y88.652 E8.39102
G1 F1800
G1 X97.878 Y88.691 E8.39172
G1 X97.935 Y88.869 E8.39384
G1 X98.506 Y89.489 E8.40343
G1 E6.40343 F2400.00000
G92 E0
G1 X100.612 Y90.709 F7800.000
G1 E2.00000 F2400.00000
G1 F1800
G1 X101.824 Y91.305 E2.05183
G1 F1800
G1 X103.036 Y91.902 E2.09697
G1 X103.957 Y91.535 F7800.000
G1 F1800
G1 X104.420 Y91.762 E2.11480
G1 F1800
G1 X105.344 Y92.217 E2.14546
G1 F1800
G1 X106.269 Y92.673 E2.17111
G1 F1800
G1 X107.194 Y93.128 E2.19174
G1 F1800
G1 X107.666 Y93.360 E2.19972
G1 F1800
G1 X109.472 Y94.314 E2.22561
G1 F1800
G1 X111.279 Y95.267 E2.24150
G1 F1800
G1 X113.085 Y96.221 E2.24740
G1 E0.24740 F2400.00000
G92 E0
G1 X95.265 Y91.363 F7800.000
G1 E2.00000 F2400.00000
G1 F1800
G1 X95.140 Y91.400 E2.00144
G1 F1800
G1 X95.077 Y91.418 E2.00185
G1 X95.265 Y91.363 F7800.000
G1 F1800
G1 X95.328 Y91.345 E2.00281
G1 X95.458 Y90.681 E2.01279
G1 X93.899 Y91.103 F7800.000
G1 F1800
G1 X93.386 Y91.236 E2.02136
G1 F1800
G1 X92.873 Y91.369 E2.03201
G1 X92.335 Y91.350 E2.04283
G1 F1800
G1 X91.977 Y91.338 E2.04842
G1 F1800
G1 X91.727 Y91.338 E2.05122
G1 F1800
G1 X91.215 Y91.374 E2.05496
G1 F1800
G1 X90.845 Y91.409 E2.05600
G1 Z0.650 F7800.000
G1 E0.05600 F2400.00000
G92 E0
G1 X104.018 Y91.804 F7800.000
G1 E2.00000 F2400.00000
G1 F900
G1 X104.227 Y91.429 E2.01156
G1 X104.767 Y91.732 E2.02826
G1 X104.607 Y92.056 E2.03802
G1 X104.086 Y91.833 E2.05330
G1 X103.118 Y92.110 F7800.000
G1 F3600
G1 X103.982 Y90.564 E2.10106
G1 X116.054 Y97.317 E2.47419
G1 X117.153 Y98.081 E2.51031
G1 X118.055 Y99.015 E2.54533
G1 X118.758 Y100.106 E2.58035
G1 X119.237 Y101.312 E2.61536
G1 X119.472 Y102.589 E2.65038
G1 X119.456 Y103.887 E2.68540
G1 X119.188 Y105.157 E2.72042
G1 X118.678 Y106.351 E2.75543
G1 X117.947 Y107.423 E2.79045
G1 X117.021 Y108.334 E2.82547
G1 X115.937 Y109.047 E2.86049
G1 X114.735 Y109.537 E2.89550
G1 X113.420 Y109.792 E2.93163
G1 X91.939 Y111.815 E3.51368
G1 X90.223 Y111.838 E3.55998
G1 X88.559 Y111.588 E3.60538
G1 X86.957 Y111.074 E3.65077
G1 X85.723 Y110.444 E3.68813
G1 X85.458 Y110.309 E3.69616
G1 X84.103 Y109.312 E3.74155
G1 X82.926 Y108.110 E3.78694
G1 X81.957 Y106.734 E3.83233
G1 X81.223 Y105.220 E3.87772
G1 X80.743 Y103.607 E3.92311
G1 X80.529 Y101.938 E3.96850
G1 X80.586 Y100.257 E4.01389
G1 X80.913 Y98.606 E4.05928
G1 X81.502 Y97.030 E4.10467
G1 X82.337 Y95.569 E4.15006
G1 X83.396 Y94.262 E4.19545
G1 X83.808 Y93.895 E4.21032
G1 X84.653 Y93.143 E4.24084
G1 X86.073 Y92.240 E4.28623
G1 X87.620 Y91.578 E4.33162
G1 X89.286 Y91.166 E4.37793
G1 X91.902 Y90.739 E4.44942
G1 X93.327 Y90.615 E4.48802
G1 X94.724 Y90.701 E4.52578
G1 X96.093 Y90.993 E4.56353
G1 X97.403 Y91.485 E4.60129
G1 X98.609 Y92.157 E4.63852
G1 X98.441 Y92.816 E4.65686
G1 X95.007 Y91.194 E4.75933
G1 X92.971 Y92.106 E4.81950
G1 X91.558 Y91.882 E4.85810
G1 X89.802 Y91.927 E4.90547
G1 X88.085 Y92.292 E4.95285
G1 X86.462 Y92.965 E5.00022
G1 X84.990 Y93.922 E5.04760
G1 X83.716 Y95.131 E5.09498
G1 X82.685 Y96.552 E5.14235
G1 X81.930 Y98.138 E5.18973
G1 X81.477 Y99.835 E5.23710
G1 X81.341 Y101.586 E5.28448
G1 X81.526 Y103.332 E5.33185
G1 X82.027 Y105.015 E5.37923
G1 X82.826 Y106.579 E5.42661
G1 X83.898 Y107.970 E5.47398
G1 X85.205 Y109.143 E5.52136
G1 X86.704 Y110.058 E5.56873
G1 X88.344 Y110.684 E5.61611
G1 X90.072 Y111.001 E5.66348
G1 X91.790 Y110.997 E5.70982
G1 X113.436 Y108.958 E6.29635
G1 X114.819 Y108.648 E6.33458
G1 X116.129 Y107.979 E6.37426
G1 X117.230 Y107.004 E6.41394
G1 X118.052 Y105.784 E6.45361
G1 X118.544 Y104.398 E6.49329
G1 X118.674 Y102.933 E6.53296
G1 X118.434 Y101.482 E6.57264
G1 X117.840 Y100.137 E6.61231
G1 X116.928 Y98.983 E6.65199
G1 X115.778 Y98.110 E6.69093
G1 X107.391 Y93.941 E6.94359
G1 X103.187 Y92.139 E7.06699
G1 X102.578 Y91.878 F7800.000
G1 F900
G1 X99.338 Y90.489 E7.16209
G1 X98.719 Y90.066 E7.18231
G1 X98.248 Y89.519 E7.20179
G1 X98.134 Y89.284 E7.20884
G1 X98.337 Y89.092 E7.21639
G1 X102.738 Y91.553 E7.35240
G1 X102.611 Y91.811 E7.36014
G1 X103.049 Y91.085 F7800.000
G1 F1800
G1 X103.767 Y89.801 E7.39045
G1 X116.351 Y96.841 E7.68764
G1 X117.518 Y97.652 E7.71693
G1 X118.496 Y98.665 E7.74595
G1 X119.259 Y99.848 E7.77497
G1 X119.778 Y101.157 E7.80398
G1 X120.034 Y102.541 E7.83300
G1 X120.016 Y103.949 E7.86202
G1 X119.725 Y105.327 E7.89103
G1 X119.172 Y106.621 E7.92005
G1 X118.379 Y107.785 E7.94907
G1 X117.375 Y108.772 E7.97808
G1 X116.199 Y109.546 E8.00710
G1 X114.895 Y110.077 E8.03612
G1 X113.500 Y110.347 E8.06541
G1 X91.969 Y112.376 E8.51114
G1 X90.185 Y112.399 E8.54792
G1 X88.431 Y112.136 E8.58447
G1 X86.742 Y111.594 E8.62102
G1 X85.468 Y110.943 E8.65050
G1 X85.163 Y110.787 E8.65757
G1 X83.734 Y109.737 E8.69413
G1 X82.493 Y108.470 E8.73068
G1 X81.473 Y107.019 E8.76723
G1 X80.699 Y105.423 E8.80378
G1 X80.193 Y103.724 E8.84033
G1 X79.967 Y101.964 E8.87689
G1 X80.027 Y100.192 E8.91344
G1 X80.372 Y98.452 E8.94999
G1 X80.993 Y96.791 E8.98654
G1 X81.873 Y95.251 E9.02310
G1 X82.990 Y93.874 E9.05965
G1 X84.314 Y92.694 E9.09620
G1 X85.810 Y91.743 E9.13275
G1 X87.441 Y91.045 E9.16930
G1 X89.173 Y90.616 E9.20609
G1 X91.832 Y90.183 E9.26161
G1 X93.320 Y90.053 E9.29239
G1 X94.800 Y90.144 E9.32296
G1 X96.251 Y90.454 E9.35353
G1 X97.639 Y90.975 E9.38410
G1 X98.944 Y91.702 E9.41488
G1 X99.252 Y91.905 E9.42247
G1 X98.690 Y94.112 E9.46941
G1 X96.784 Y93.627 E9.50995
G1 X96.766 Y93.421 E9.51422
G1 X97.609 Y93.043 E9.53327
G1 X95.001 Y91.811 E9.59273
G1 X93.048 Y92.686 E9.63683
G1 X91.521 Y92.443 E9.66869
G1 X89.869 Y92.486 E9.70276
G1 X88.252 Y92.830 E9.73683
G1 X86.724 Y93.463 E9.77090
G1 X85.338 Y94.364 E9.80497
G1 X84.140 Y95.502 E9.83904
G1 X83.169 Y96.840 E9.87312
G1 X82.458 Y98.332 E9.90719
G1 X82.032 Y99.929 E9.94126
G1 X81.903 Y101.578 E9.97533
G1 X82.078 Y103.221 E10.00940
G1 X82.550 Y104.806 E10.04347
G1 X83.302 Y106.278 E10.07754
G1 X84.310 Y107.588 E10.11161
G1 X85.541 Y108.692 E10.14568
G1 X86.952 Y109.553 E10.17975
G1 X88.496 Y110.142 E10.21382
G1 X90.122 Y110.440 E10.24789
G1 X91.763 Y110.436 E10.28170
G1 X113.348 Y108.403 E10.72855
G1 X114.627 Y108.117 E10.75557
G1 X115.810 Y107.512 E10.78295
G1 X116.805 Y106.631 E10.81033
G1 X117.547 Y105.530 E10.83771
G1 X117.992 Y104.278 E10.86509
G1 X118.109 Y102.955 E10.89247
G1 X117.893 Y101.644 E10.91985
G1 X117.356 Y100.429 E10.94723
G1 X116.532 Y99.386 E10.97461
G1 X115.481 Y98.588 E11.00181
G1 X107.156 Y94.450 E11.19342
G1 X99.066 Y90.983 E11.37482
G1 X98.342 Y90.488 E11.39291
G1 X97.775 Y89.829 E11.41082
G1 X97.397 Y89.047 E11.42872
G1 X97.267 Y88.373 E11.44288
G1 X98.917 Y87.633 E11.48016
G1 X99.921 Y88.194 E11.50385
G1 X98.851 Y88.737 E11.52858
G1 X102.983 Y91.048 E11.62617
G1 X103.465 Y91.363 F7800.000
G1 X104.972 Y92.034 F7800.000
G1 F1200
G1 X105.419 Y92.254 E11.64416
G1 F1200
G1 X106.312 Y92.694 E11.67638
G1 F1200
G1 X107.206 Y93.134 E11.70487
G1 F1200
G1 X107.669 Y93.362 E11.71769
G1 F1200
G1 X109.483 Y94.320 E11.76416
G1 F1200
G1 X111.297 Y95.277 E11.80193
G1 F1200
G1 X113.111 Y96.234 E11.83099
G1 F1200
G1 X114.925 Y97.192 E11.85136
G1 F1200
G1 X115.985 Y97.761 E11.85822
G1 X116.875 Y98.407 E11.86450
G1 X117.211 Y98.708 E11.86707
G1 X117.715 Y99.284 E11.87143
G1 X118.173 Y99.925 E11.87592
G1 X118.378 Y100.302 E11.87837
G1 X118.820 Y101.356 E11.88489
G1 X119.050 Y102.625 E11.89224
G1 X119.072 Y102.909 E11.89386
G1 X119.026 Y103.839 E11.89918
G1 X118.927 Y104.492 E11.90294
G1 X118.776 Y105.027 E11.90611
G1 X118.414 Y105.956 E11.91180
G1 X118.310 Y106.149 E11.91305
G1 X117.627 Y107.156 E11.91999
G1 X117.525 Y107.277 E11.92089
G1 X116.751 Y107.999 E11.92693
G1 X116.343 Y108.310 E11.92985
G1 X115.735 Y108.664 E11.93386
G1 X114.963 Y109.018 E11.93871
G1 X114.613 Y109.129 E11.94080
G1 X113.361 Y109.381 E11.94808
G1 X91.917 Y111.401 E12.07091
G1 X90.251 Y111.419 E12.08041
G1 X90.028 Y111.402 E12.08169
G1 X88.656 Y111.173 E12.08962
